Editorial.cube
LUT_3D_SIZE 5
0.000000 0.012510 0.029860
0.210261 0.017704 0.033719
0.456513 0.023750 0.038210
0.701638 0.029768 0.042680
0.912198 0.034937 0.046520
0.019682 0.235844 0.042870
0.231279 0.241039 0.046729
0.477531 0.247085 0.051220
0.722656 0.253103 0.055690
0.933216 0.258272 0.059530
0.044103 0.495336 0.057987
0.255700 0.500531 0.061846
0.501952 0.506577 0.066337
0.747077 0.512595 0.070807
0.957637 0.517764 0.074647
0.068381 0.753303 0.073015
0.279504 0.758413 0.077270
0.524705 0.764443 0.082955
0.768784 0.770447 0.088615
0.978445 0.775603 0.093476
0.086482 0.972778 0.088580
0.297175 0.977960 0.093465
0.542376 0.983991 0.099150
0.786455 0.989995 0.104809
0.996116 0.995151 0.109671
0.000791 0.014282 0.237451
0.212387 0.019476 0.241310
0.458639 0.025522 0.245801
0.703764 0.031540 0.250271
0.914325 0.036709 0.254111
0.021809 0.237616 0.250461
0.233405 0.242811 0.254320
0.479657 0.248857 0.258811
0.724782 0.254875 0.263281
0.935343 0.260044 0.267121
0.046230 0.497109 0.265578
0.257826 0.502303 0.269437
0.504078 0.508349 0.273928
0.749203 0.514367 0.278398
0.959544 0.519482 0.282395
0.070507 0.755075 0.280606
0.281323 0.760180 0.285211
0.526523 0.766211 0.290897
0.770602 0.772214 0.296556
0.980263 0.777371 0.301417
0.088301 0.974546 0.296521
0.298994 0.979728 0.301406
0.544194 0.985759 0.307091
0.788273 0.991762 0.312751
0.997934 0.996919 0.317612
0.003258 0.016337 0.478262
0.214854 0.021532 0.482121
0.461106 0.027578 0.486612
0.706231 0.033596 0.491082
0.916791 0.038765 0.494922
0.024276 0.239672 0.491273
0.235872 0.244867 0.495131
0.482124 0.250912 0.499622
0.727249 0.256930 0.504093
0.937809 0.262100 0.507932
0.048697 0.499164 0.506389
0.260293 0.504359 0.510248
0.506545 0.510405 0.514739
0.751670 0.516423 0.519209
0.961613 0.521505 0.523610
0.072792 0.757086 0.521547
0.283432 0.762231 0.526429
0.528633 0.768262 0.532114
0.772711 0.774265 0.537773
0.982373 0.779422 0.542634
0.090410 0.976597 0.537738
0.301103 0.981779 0.542623
0.546304 0.987810 0.548309
0.790382 0.993813 0.553968
1.000000 0.998970 0.558829
0.005707 0.018378 0.717344
0.217303 0.023573 0.721203
0.463555 0.029618 0.725694
0.708680 0.035636 0.730164
0.919240 0.040806 0.734004
0.026725 0.241713 0.730354
0.238321 0.246907 0.734213
0.484573 0.252953 0.738704
0.729698 0.258971 0.743174
0.940258 0.264140 0.747014
0.051146 0.501205 0.745471
0.262742 0.506400 0.749330
0.508994 0.512445 0.753820
0.754119 0.518463 0.758291
0.963708 0.523540 0.763094
0.074833 0.759084 0.761028
0.285526 0.764267 0.765913
0.530727 0.770297 0.771599
0.774806 0.776301 0.777258
0.984467 0.781457 0.782119
0.092504 0.978632 0.777223
0.303197 0.983815 0.782108
0.548398 0.989845 0.787793
0.792477 0.995849 0.793453
1.000000 1.000000 0.798314
0.007772 0.020099 0.918964
0.219368 0.025294 0.922823
0.465620 0.031339 0.927314
0.710746 0.037357 0.931784
0.921306 0.042527 0.935624
0.028790 0.243434 0.931975
0.240386 0.248628 0.935833
0.486638 0.254674 0.940324
0.731764 0.260692 0.944794
0.942324 0.265861 0.948634
0.053211 0.502926 0.947091
0.264807 0.508121 0.950950
0.511059 0.514166 0.955441
0.755812 0.520101 0.960193
0.965474 0.525257 0.965055
0.076599 0.760801 0.962988
0.287292 0.765983 0.967874
0.532493 0.772014 0.973559
0.776572 0.778018 0.979218
0.986233 0.783174 0.984080
0.094270 0.980349 0.979183
0.304963 0.985531 0.984068
0.550164 0.991562 0.989754
0.794243 0.997566 0.995413
1.000000 1.000000 1.000000
