Editorial.cube
LUT_3D_SIZE 9
0.000000 0.012510 0.029860
0.097894 0.014946 0.031670
0.210261 0.017704 0.033719
0.331291 0.020676 0.035926
0.456513 0.023750 0.038210
0.581453 0.026817 0.040488
0.701638 0.029768 0.042680
0.835439 0.033053 0.045120
0.912198 0.034937 0.046520
0.008526 0.117302 0.035965
0.107756 0.119738 0.037774
0.220123 0.122497 0.039824
0.341153 0.125468 0.042031
0.466375 0.128542 0.044314
0.591315 0.131610 0.046593
0.711500 0.134560 0.048785
0.845301 0.137845 0.051225
0.922060 0.139730 0.052625
0.019682 0.235844 0.042870
0.118912 0.238280 0.044680
0.231279 0.241039 0.046729
0.352309 0.244010 0.048936
0.477531 0.247085 0.051220
0.602471 0.250152 0.053499
0.722656 0.253103 0.055690
0.856457 0.256387 0.058130
0.933216 0.258272 0.059530
0.031689 0.363426 0.050303
0.130919 0.365862 0.052112
0.243286 0.368621 0.054161
0.364316 0.371592 0.056369
0.489538 0.374666 0.058652
0.614477 0.377734 0.060931
0.734663 0.380684 0.063123
0.868463 0.383969 0.065563
0.945223 0.385854 0.066963
0.044103 0.495336 0.057987
0.143333 0.497773 0.059797
0.255700 0.500531 0.061846
0.376730 0.503503 0.064053
0.501952 0.506577 0.066337
0.626892 0.509644 0.068615
0.747077 0.512595 0.070807
0.880877 0.515880 0.073247
0.957637 0.517764 0.074647
0.056482 0.626866 0.065649
0.155711 0.629302 0.067459
0.268078 0.632061 0.069508
0.389108 0.635032 0.071715
0.514330 0.638106 0.073999
0.638938 0.641091 0.076515
0.758609 0.644034 0.079290
0.891838 0.647310 0.082379
0.968270 0.649190 0.084151
0.068381 0.753303 0.073015
0.167610 0.755739 0.074824
0.279504 0.758413 0.077270
0.400018 0.761377 0.080064
0.524705 0.764443 0.082955
0.649112 0.767503 0.085840
0.768784 0.770447 0.088615
0.902013 0.773723 0.091704
0.978445 0.775603 0.093476
0.080214 0.894902 0.082835
0.179021 0.897332 0.085126
0.290907 0.900084 0.087720
0.411421 0.903049 0.090515
0.536108 0.906115 0.093406
0.660514 0.909175 0.096290
0.780187 0.912119 0.099065
0.913416 0.915395 0.102154
0.989848 0.917275 0.103926
0.086482 0.972778 0.088580
0.185289 0.975209 0.090871
0.297175 0.977960 0.093465
0.417689 0.980925 0.096259
0.542376 0.983991 0.099150
0.666783 0.987051 0.102035
0.786455 0.989995 0.104809
0.919684 0.993271 0.107899
0.996116 0.995151 0.109671
0.000000 0.013341 0.127319
0.098893 0.015778 0.129128
0.211259 0.018536 0.131178
0.332290 0.021508 0.133385
0.457511 0.024582 0.135668
0.582451 0.027649 0.137947
0.702636 0.030600 0.140139
0.836437 0.033885 0.142579
0.913196 0.035769 0.143979
0.009525 0.118134 0.133423
0.108755 0.120570 0.135233
0.221121 0.123329 0.137282
0.342152 0.126300 0.139489
0.467373 0.129374 0.141773
0.592313 0.132442 0.144052
0.712498 0.135392 0.146243
0.846299 0.138677 0.148683
0.923058 0.140562 0.150083
0.020681 0.236676 0.140329
0.119911 0.239112 0.142139
0.232277 0.241871 0.144188
0.353308 0.244842 0.146395
0.478529 0.247917 0.148679
0.603469 0.250984 0.150957
0.723654 0.253935 0.153149
0.857455 0.257219 0.155589
0.934214 0.259104 0.156989
0.032687 0.364258 0.147761
0.131917 0.366694 0.149571
0.244284 0.369453 0.151620
0.365314 0.372424 0.153827
0.490536 0.375498 0.156111
0.615476 0.378566 0.158389
0.735661 0.381516 0.160581
0.869462 0.384801 0.163021
0.946221 0.386686 0.164421
0.045102 0.496168 0.155446
0.144331 0.498605 0.157255
0.256698 0.501363 0.159304
0.377729 0.504335 0.161512
0.502950 0.507409 0.163795
0.627890 0.510476 0.166074
0.748075 0.513427 0.168266
0.881876 0.516712 0.170706
0.958635 0.518596 0.172105
0.057480 0.627698 0.163108
0.156710 0.630134 0.164917
0.269076 0.632892 0.166967
0.390107 0.635864 0.169174
0.515328 0.638938 0.171457
0.639791 0.641920 0.174138
0.759463 0.644863 0.176913
0.892692 0.648140 0.180002
0.969124 0.650020 0.181774
0.069379 0.754135 0.170473
0.168576 0.756563 0.172306
0.280358 0.759242 0.174893
0.400872 0.762207 0.177687
0.525559 0.765273 0.180578
0.649965 0.768333 0.183463
0.769637 0.771277 0.186238
0.902867 0.774553 0.189327
0.979299 0.776433 0.191099
0.081068 0.895732 0.180458
0.179874 0.898162 0.182749
0.291761 0.900914 0.185343
0.412275 0.903878 0.188138
0.536962 0.906945 0.191029
0.661368 0.910005 0.193913
0.781040 0.912948 0.196688
0.914270 0.916225 0.199777
0.990701 0.918105 0.201549
0.087336 0.973608 0.186203
0.186142 0.976038 0.188493
0.298029 0.978790 0.191088
0.418543 0.981754 0.193882
0.543230 0.984821 0.196773
0.667636 0.987881 0.199658
0.787308 0.990824 0.202432
0.920538 0.994101 0.205522
0.996970 0.995981 0.207294
0.000791 0.014282 0.237451
0.100021 0.016718 0.239261
0.212387 0.019476 0.241310
0.333418 0.022448 0.243517
0.458639 0.025522 0.245801
0.583579 0.028589 0.248079
0.703764 0.031540 0.250271
0.837565 0.034825 0.252711
0.914325 0.036709 0.254111
0.010653 0.119074 0.243556
0.109883 0.121510 0.245365
0.222249 0.124269 0.247415
0.343280 0.127240 0.249622
0.468501 0.130314 0.251905
0.593441 0.133382 0.254184
0.713626 0.136332 0.256376
0.847427 0.139617 0.258816
0.924187 0.141502 0.260216
0.021809 0.237616 0.250461
0.121039 0.240052 0.252271
0.233405 0.242811 0.254320
0.354436 0.245782 0.256527
0.479657 0.248857 0.258811
0.604597 0.251924 0.261090
0.724782 0.254875 0.263281
0.858583 0.258159 0.265721
0.935343 0.260044 0.267121
0.033816 0.365198 0.257894
0.133045 0.367634 0.259703
0.245412 0.370393 0.261752
0.366443 0.373364 0.263960
0.491664 0.376438 0.266243
0.616604 0.379506 0.268522
0.736789 0.382456 0.270714
0.870590 0.385741 0.273154
0.947349 0.387626 0.274553
0.046230 0.497109 0.265578
0.145460 0.499545 0.267388
0.257826 0.502303 0.269437
0.378857 0.505275 0.271644
0.504078 0.508349 0.273928
0.629018 0.511416 0.276206
0.749203 0.514367 0.278398
0.883004 0.517652 0.280838
0.959544 0.519482 0.282395
0.058608 0.628638 0.273240
0.157838 0.631074 0.275050
0.270204 0.633833 0.277099
0.391235 0.636804 0.279306
0.516456 0.639878 0.281590
0.640755 0.642858 0.284456
0.760427 0.645801 0.287231
0.893657 0.649078 0.290320
0.970089 0.650958 0.292092
0.070507 0.755075 0.280606
0.169454 0.757441 0.282618
0.281323 0.760180 0.285211
0.401837 0.763144 0.288005
0.526523 0.766211 0.290897
0.650930 0.769271 0.293781
0.770602 0.772214 0.296556
0.903831 0.775491 0.299645
0.980263 0.777371 0.301417
0.082033 0.896670 0.290776
0.180839 0.899100 0.293067
0.292726 0.901852 0.295661
0.413239 0.904816 0.298456
0.537926 0.907883 0.301347
0.662333 0.910943 0.304231
0.782005 0.913886 0.307006
0.915234 0.917163 0.310095
0.991666 0.919043 0.311867
0.088301 0.974546 0.296521
0.187107 0.976976 0.298812
0.298994 0.979728 0.301406
0.419508 0.982692 0.304200
0.544194 0.985759 0.307091
0.668601 0.988819 0.309976
0.788273 0.991762 0.312751
0.921502 0.995039 0.315840
0.997934 0.996919 0.317612
0.002004 0.015293 0.355889
0.101234 0.017729 0.357698
0.213600 0.020487 0.359747
0.334631 0.023459 0.361955
0.459853 0.026533 0.364238
0.584792 0.029600 0.366517
0.704978 0.032551 0.368709
0.838778 0.035836 0.371149
0.915538 0.037720 0.372548
0.011866 0.120085 0.361993
0.111096 0.122521 0.363803
0.223463 0.125280 0.365852
0.344493 0.128251 0.368059
0.469715 0.131325 0.370343
0.594654 0.134393 0.372621
0.714840 0.137343 0.374813
0.848640 0.140628 0.377253
0.925400 0.142513 0.378653
0.023022 0.238627 0.368899
0.122252 0.241063 0.370708
0.234619 0.243822 0.372758
0.355649 0.246793 0.374965
0.480871 0.249868 0.377248
0.605810 0.252935 0.379527
0.725996 0.255886 0.381719
0.859796 0.259170 0.384159
0.936556 0.261055 0.385559
0.035029 0.366209 0.376331
0.134259 0.368645 0.378141
0.246625 0.371404 0.380190
0.367656 0.374375 0.382397
0.492877 0.377449 0.384681
0.617817 0.380517 0.386959
0.738002 0.383467 0.389151
0.871803 0.386752 0.391591
0.948563 0.388637 0.392991
0.047443 0.498120 0.384015
0.146673 0.500556 0.385825
0.259039 0.503314 0.387874
0.380070 0.506286 0.390081
0.505291 0.509360 0.392365
0.630231 0.512427 0.394644
0.750417 0.515378 0.396835
0.884217 0.518663 0.399275
0.960541 0.520463 0.401029
0.059821 0.629649 0.391678
0.159051 0.632085 0.393487
0.271418 0.634844 0.395536
0.392448 0.637815 0.397744
0.517414 0.640826 0.400211
0.641793 0.643866 0.403094
0.761465 0.646810 0.405868
0.894694 0.650087 0.408957
0.971126 0.651967 0.410730
0.071720 0.756086 0.399043
0.170473 0.758437 0.401254
0.282360 0.761189 0.403848
0.402874 0.764153 0.406643
0.527561 0.767220 0.409534
0.651967 0.770279 0.412418
0.771640 0.773223 0.415193
0.904869 0.776500 0.418282
0.981301 0.778380 0.420054
0.083070 0.897678 0.409413
0.181876 0.900109 0.411704
0.293763 0.902861 0.414299
0.414277 0.905825 0.417093
0.538964 0.908891 0.419984
0.663370 0.911951 0.422869
0.783042 0.914895 0.425643
0.916272 0.918172 0.428732
0.992704 0.920051 0.430505
0.089338 0.975555 0.415158
0.188144 0.977985 0.417449
0.300031 0.980737 0.420043
0.420545 0.983701 0.422837
0.545232 0.986768 0.425728
0.669638 0.989827 0.428613
0.789310 0.992771 0.431388
0.922540 0.996048 0.434477
0.998972 0.997928 0.436249
0.003258 0.016337 0.478262
0.102487 0.018773 0.480072
0.214854 0.021532 0.482121
0.335885 0.024503 0.484328
0.461106 0.027578 0.486612
0.586046 0.030645 0.488890
0.706231 0.033596 0.491082
0.840032 0.036880 0.493522
0.916791 0.038765 0.494922
0.013120 0.121130 0.484367
0.112350 0.123566 0.486177
0.224716 0.126324 0.488226
0.345747 0.129296 0.490433
0.470968 0.132370 0.492717
0.595908 0.135437 0.494995
0.716093 0.138388 0.497187
0.849894 0.141673 0.499627
0.926653 0.143557 0.501027
0.024276 0.239672 0.491273
0.123506 0.242108 0.493082
0.235872 0.244867 0.495131
0.356903 0.247838 0.497339
0.482124 0.250912 0.499622
0.607064 0.253980 0.501901
0.727249 0.256930 0.504093
0.861050 0.260215 0.506533
0.937809 0.262100 0.507932
0.036282 0.367253 0.498705
0.135512 0.369690 0.500514
0.247879 0.372448 0.502564
0.368909 0.375420 0.504771
0.494131 0.378494 0.507054
0.619071 0.381561 0.509333
0.739256 0.384512 0.511525
0.873057 0.387797 0.513965
0.949816 0.389681 0.515365
0.048697 0.499164 0.506389
0.147926 0.501600 0.508199
0.260293 0.504359 0.510248
0.381323 0.507330 0.512455
0.506545 0.510405 0.514739
0.631485 0.513472 0.517017
0.751670 0.516423 0.519209
0.885206 0.519642 0.521839
0.961613 0.521505 0.523610
0.061075 0.630693 0.514051
0.160305 0.633129 0.515861
0.272671 0.635888 0.517910
0.393702 0.638859 0.520117
0.518458 0.641849 0.522789
0.642864 0.644908 0.525674
0.762537 0.647852 0.528448
0.895766 0.651129 0.531538
0.972198 0.653009 0.533310
0.072792 0.757086 0.521547
0.171545 0.759479 0.523834
0.283432 0.762231 0.526429
0.403946 0.765195 0.529223
0.528633 0.768262 0.532114
0.653039 0.771321 0.534998
0.772711 0.774265 0.537773
0.905941 0.777542 0.540862
0.982373 0.779422 0.542634
0.084142 0.898721 0.531994
0.182948 0.901151 0.534285
0.294835 0.903903 0.536879
0.415349 0.906867 0.539673
0.540036 0.909934 0.542564
0.664442 0.912993 0.545449
0.784114 0.915937 0.548223
0.917344 0.919214 0.551313
0.993775 0.921094 0.553085
0.090410 0.976597 0.537738
0.189216 0.979027 0.540029
0.301103 0.981779 0.542623
0.421617 0.984743 0.545417
0.546304 0.987810 0.548309
0.670710 0.990869 0.551193
0.790382 0.993813 0.553968
0.923612 0.997090 0.557057
1.000000 0.998970 0.558829
0.004507 0.017378 0.600204
0.103737 0.019814 0.602013
0.216103 0.022573 0.604063
0.337134 0.025544 0.606270
0.462355 0.028619 0.608553
0.587295 0.031686 0.610832
0.707480 0.034636 0.613024
0.841281 0.037921 0.615464
0.918040 0.039806 0.616864
0.014369 0.122170 0.606308
0.113599 0.124607 0.608118
0.225965 0.127365 0.610167
0.346996 0.130337 0.612374
0.472217 0.133411 0.614658
0.597157 0.136478 0.616936
0.717342 0.139429 0.619128
0.851143 0.142714 0.621568
0.927902 0.144598 0.622968
0.025525 0.240713 0.613214
0.124755 0.243149 0.615024
0.237121 0.245908 0.617073
0.358152 0.248879 0.619280
0.483373 0.251953 0.621564
0.608313 0.255020 0.623842
0.728498 0.257971 0.626034
0.862299 0.261256 0.628474
0.939058 0.263140 0.629874
0.037532 0.368294 0.620646
0.136761 0.370731 0.622456
0.249128 0.373489 0.624505
0.370158 0.376461 0.626712
0.495380 0.379535 0.628996
0.620320 0.382602 0.631274
0.740505 0.385553 0.633466
0.874306 0.388838 0.635906
0.951065 0.390722 0.637306
0.049946 0.500205 0.628331
0.149176 0.502641 0.630140
0.261542 0.505400 0.632189
0.382573 0.508371 0.634397
0.507794 0.511445 0.636680
0.632734 0.514513 0.638959
0.752919 0.517463 0.641150
0.886250 0.520663 0.643984
0.962681 0.522543 0.645757
0.062324 0.631734 0.635993
0.161554 0.634170 0.637802
0.273920 0.636929 0.639852
0.394951 0.639900 0.642059
0.519526 0.642887 0.644936
0.643933 0.645947 0.647821
0.763605 0.648890 0.650596
0.896834 0.652167 0.653685
0.973266 0.654047 0.655457
0.073807 0.758087 0.643690
0.172613 0.760517 0.645981
0.284500 0.763269 0.648576
0.405014 0.766233 0.651370
0.529701 0.769300 0.654261
0.654107 0.772360 0.657145
0.773780 0.775303 0.659920
0.907009 0.778580 0.663009
0.983441 0.780460 0.664782
0.085210 0.899759 0.654141
0.184016 0.902189 0.656432
0.295903 0.904941 0.659026
0.416417 0.907905 0.661820
0.541104 0.910972 0.664711
0.665510 0.914032 0.667596
0.785182 0.916975 0.670370
0.918412 0.920252 0.673460
0.994844 0.922132 0.675232
0.091478 0.977635 0.659885
0.190284 0.980065 0.662176
0.302171 0.982817 0.664770
0.422685 0.985781 0.667565
0.547372 0.988848 0.670456
0.671778 0.991908 0.673340
0.791450 0.994851 0.676115
0.924680 0.998128 0.679204
1.000000 1.000000 0.680976
0.005707 0.018378 0.717344
0.104937 0.020814 0.719154
0.217303 0.023573 0.721203
0.338334 0.026544 0.723410
0.463555 0.029618 0.725694
0.588495 0.032686 0.727972
0.708680 0.035636 0.730164
0.842481 0.038921 0.732604
0.919240 0.040806 0.734004
0.015569 0.123170 0.723449
0.114799 0.125607 0.725258
0.227165 0.128365 0.727307
0.348196 0.131337 0.729515
0.473417 0.134411 0.731798
0.598357 0.137478 0.734077
0.718542 0.140429 0.736268
0.852343 0.143714 0.738709
0.929102 0.145598 0.740108
0.026725 0.241713 0.730354
0.125955 0.244149 0.732164
0.238321 0.246907 0.734213
0.359352 0.249879 0.736420
0.484573 0.252953 0.738704
0.609513 0.256020 0.740982
0.729698 0.258971 0.743174
0.863499 0.262256 0.745614
0.940258 0.264140 0.747014
0.038731 0.369294 0.737786
0.137961 0.371730 0.739596
0.250328 0.374489 0.741645
0.371358 0.377460 0.743852
0.496580 0.380535 0.746136
0.621520 0.383602 0.748415
0.741705 0.386553 0.750606
0.875506 0.389838 0.753046
0.952265 0.391722 0.754446
0.051146 0.501205 0.745471
0.150375 0.503641 0.747280
0.262742 0.506400 0.749330
0.383773 0.509371 0.751537
0.508994 0.512445 0.753820
0.633934 0.515513 0.756099
0.754119 0.518463 0.758291
0.887276 0.521661 0.761322
0.963708 0.523540 0.763094
0.063524 0.632734 0.753133
0.162754 0.635170 0.754943
0.275120 0.637929 0.756992
0.395892 0.640836 0.759385
0.520552 0.643884 0.762274
0.644959 0.646944 0.765159
0.764631 0.649888 0.767933
0.897860 0.653165 0.771022
0.974292 0.655044 0.772795
0.074833 0.759084 0.761028
0.173639 0.761515 0.763319
0.285526 0.764267 0.765913
0.406040 0.767231 0.768708
0.530727 0.770297 0.771599
0.655133 0.773357 0.774483
0.774806 0.776301 0.777258
0.908035 0.779578 0.780347
0.984467 0.781457 0.782119
0.086236 0.900756 0.771478
0.185042 0.903187 0.773769
0.296929 0.905938 0.776364
0.417443 0.908903 0.779158
0.542130 0.911969 0.782049
0.666536 0.915029 0.784933
0.786208 0.917973 0.787708
0.919438 0.921249 0.790797
0.995870 0.923129 0.792570
0.092504 0.978632 0.777223
0.191310 0.981063 0.779514
0.303197 0.983815 0.782108
0.423711 0.986779 0.784902
0.548398 0.989845 0.787793
0.672804 0.992905 0.790678
0.792477 0.995849 0.793453
0.925706 0.999126 0.796542
1.000000 1.000000 0.798314
0.007060 0.019506 0.849439
0.106290 0.021942 0.851249
0.218656 0.024700 0.853298
0.339687 0.027672 0.855505
0.464908 0.030746 0.857789
0.589848 0.033813 0.860067
0.710033 0.036764 0.862259
0.843834 0.040049 0.864699
0.920593 0.041933 0.866099
0.016922 0.124298 0.855544
0.116152 0.126734 0.857353
0.228518 0.129493 0.859403
0.349549 0.132464 0.861610
0.474770 0.135538 0.863893
0.599710 0.138606 0.866172
0.719895 0.141556 0.868364
0.853696 0.144841 0.870804
0.930456 0.146726 0.872204
0.028078 0.242840 0.862449
0.127308 0.245276 0.864259
0.239674 0.248035 0.866308
0.360705 0.251006 0.868515
0.485926 0.254081 0.870799
0.610866 0.257148 0.873078
0.731051 0.260099 0.875269
0.864852 0.263384 0.877709
0.941612 0.265268 0.879109
0.040085 0.370422 0.869882
0.139314 0.372858 0.871691
0.251681 0.375617 0.873740
0.372711 0.378588 0.875948
0.497933 0.381662 0.878231
0.622873 0.384730 0.880510
0.743058 0.387680 0.882702
0.876859 0.390965 0.885142
0.953618 0.392850 0.886541
0.052499 0.502333 0.877566
0.151729 0.504769 0.879376
0.264095 0.507527 0.881425
0.385126 0.510499 0.883632
0.510347 0.513573 0.885916
0.635287 0.516640 0.888194
0.755239 0.519533 0.890554
0.888433 0.522785 0.893640
0.964865 0.524665 0.895412
0.064877 0.633862 0.885228
0.164107 0.636298 0.887038
0.276473 0.639057 0.889087
0.397022 0.641942 0.891701
0.521709 0.645009 0.894592
0.646116 0.648069 0.897477
0.765788 0.651013 0.900251
0.899017 0.654289 0.903340
0.975449 0.656169 0.905113
0.075990 0.760209 0.893346
0.174796 0.762640 0.895637
0.286683 0.765391 0.898231
0.407197 0.768356 0.901026
0.531884 0.771422 0.903917
0.656290 0.774482 0.906801
0.775963 0.777426 0.909576
0.909192 0.780702 0.912665
0.985624 0.782582 0.914437
0.087393 0.901881 0.903796
0.186199 0.904311 0.906087
0.298086 0.907063 0.908682
0.418600 0.910027 0.911476
0.543287 0.913094 0.914367
0.667693 0.916154 0.917251
0.787366 0.919097 0.920026
0.920595 0.922374 0.923115
0.997027 0.924254 0.924888
0.093661 0.979757 0.909541
0.192467 0.982187 0.911832
0.304354 0.984939 0.914426
0.424868 0.987903 0.917220
0.549555 0.990970 0.920111
0.673961 0.994030 0.922996
0.793634 0.996974 0.925771
0.926863 1.000000 0.928860
1.000000 1.000000 0.930632
0.007772 0.020099 0.918964
0.107002 0.022535 0.920774
0.219368 0.025294 0.922823
0.340399 0.028265 0.925030
0.465620 0.031339 0.927314
0.590560 0.034407 0.929592
0.710746 0.037357 0.931784
0.844546 0.040642 0.934224
0.921306 0.042527 0.935624
0.017634 0.124891 0.925069
0.116864 0.127328 0.926879
0.229230 0.130086 0.928928
0.350261 0.133058 0.931135
0.475482 0.136132 0.933419
0.600422 0.139199 0.935697
0.720608 0.142150 0.937889
0.854408 0.145435 0.940329
0.931168 0.147319 0.941729
0.028790 0.243434 0.931975
0.128020 0.245870 0.933784
0.240386 0.248628 0.935833
0.361417 0.251600 0.938041
0.486638 0.254674 0.940324
0.611578 0.257741 0.942603
0.731764 0.260692 0.944794
0.865564 0.263977 0.947235
0.942324 0.265861 0.948634
0.040797 0.371015 0.939407
0.140027 0.373451 0.941216
0.252393 0.376210 0.943266
0.373424 0.379182 0.945473
0.498645 0.382256 0.947756
0.623585 0.385323 0.950035
0.743770 0.388274 0.952227
0.877571 0.391559 0.954667
0.954330 0.393443 0.956067
0.053211 0.502926 0.947091
0.152441 0.505362 0.948901
0.264807 0.508121 0.950950
0.385838 0.511092 0.953157
0.511059 0.514166 0.955441
0.635999 0.517234 0.957719
0.755812 0.520101 0.960193
0.889042 0.523377 0.963283
0.965474 0.525257 0.965055
0.065589 0.634455 0.954753
0.164819 0.636891 0.956563
0.277186 0.639650 0.958612
0.397631 0.642535 0.961343
0.522318 0.645601 0.964234
0.646725 0.648661 0.967119
0.766397 0.651605 0.969894
0.899626 0.654881 0.972983
0.976058 0.656761 0.974755
0.076599 0.760801 0.962988
0.175405 0.763232 0.965279
0.287292 0.765983 0.967874
0.407806 0.768948 0.970668
0.532493 0.772014 0.973559
0.656899 0.775074 0.976444
0.776572 0.778018 0.979218
0.909801 0.781294 0.982307
0.986233 0.783174 0.984080
0.088002 0.902473 0.973439
0.186808 0.904903 0.975730
0.298695 0.907655 0.978324
0.419209 0.910619 0.981118
0.543896 0.913686 0.984009
0.668302 0.916746 0.986894
0.787974 0.919689 0.989669
0.921204 0.922966 0.992758
0.997636 0.924846 0.994530
0.094270 0.980349 0.979183
0.193076 0.982779 0.981474
0.304963 0.985531 0.984068
0.425477 0.988496 0.986863
0.550164 0.991562 0.989754
0.674570 0.994622 0.992638
0.794243 0.997566 0.995413
0.927472 1.000000 0.998502
1.000000 1.000000 1.000000
