Editorial.cube
LUT_3D_SIZE 33
0.000000 0.012510 0.029860
0.021996 0.013082 0.030286
0.046358 0.013680 0.030730
0.071680 0.014302 0.031192
0.097894 0.014946 0.031670
0.124929 0.015609 0.032163
0.152715 0.016292 0.032670
0.181182 0.016990 0.033189
0.210261 0.017704 0.033719
0.239881 0.018432 0.034259
0.269973 0.019170 0.034808
0.300466 0.019919 0.035364
0.331291 0.020676 0.035926
0.362378 0.021439 0.036493
0.393658 0.022207 0.037064
0.425059 0.022978 0.037636
0.456513 0.023750 0.038210
0.487949 0.024522 0.038783
0.519297 0.025291 0.039355
0.550489 0.026057 0.039924
0.581453 0.026817 0.040488
0.612119 0.027570 0.041048
0.642419 0.028314 0.041600
0.672282 0.029047 0.042145
0.701638 0.029768 0.042680
0.730417 0.030474 0.043205
0.758550 0.031165 0.043718
0.789315 0.031920 0.044279
0.835439 0.033053 0.045120
0.869586 0.033891 0.045743
0.893079 0.034468 0.046171
0.907032 0.034811 0.046426
0.912198 0.034937 0.046520
0.000984 0.037161 0.031296
0.024316 0.037734 0.031722
0.048678 0.038332 0.032166
0.074000 0.038954 0.032628
0.100214 0.039597 0.033106
0.127249 0.040261 0.033599
0.155035 0.040943 0.034106
0.183502 0.041642 0.034625
0.212581 0.042356 0.035155
0.242201 0.043083 0.035695
0.272293 0.043822 0.036244
0.302786 0.044570 0.036800
0.333611 0.045327 0.037362
0.364698 0.046090 0.037929
0.395978 0.046858 0.038500
0.427379 0.047629 0.039072
0.458833 0.048401 0.039646
0.490269 0.049173 0.040219
0.521617 0.049943 0.040791
0.552809 0.050709 0.041360
0.583773 0.051469 0.041924
0.614439 0.052222 0.042484
0.644739 0.052966 0.043036
0.674602 0.053699 0.043581
0.703958 0.054419 0.044116
0.732737 0.055126 0.044641
0.760870 0.055817 0.045154
0.791635 0.056572 0.045715
0.837758 0.057704 0.046556
0.871906 0.058543 0.047179
0.895399 0.059119 0.047607
0.909352 0.059462 0.047862
0.914518 0.059589 0.047956
0.003406 0.062893 0.032795
0.026737 0.063465 0.033221
0.051099 0.064063 0.033665
0.076422 0.064685 0.034127
0.102636 0.065329 0.034605
0.129671 0.065992 0.035098
0.157457 0.066675 0.035605
0.185924 0.067373 0.036124
0.215002 0.068087 0.036654
0.244622 0.068815 0.037194
0.274714 0.069553 0.037743
0.305208 0.070302 0.038299
0.336033 0.071059 0.038861
0.367120 0.071822 0.039428
0.398399 0.072590 0.039999
0.429801 0.073361 0.040571
0.461254 0.074133 0.041145
0.492690 0.074905 0.041718
0.524039 0.075674 0.042290
0.555230 0.076440 0.042859
0.586194 0.077200 0.043423
0.616861 0.077953 0.043983
0.647161 0.078697 0.044535
0.677024 0.079430 0.045080
0.706379 0.080151 0.045615
0.735159 0.080858 0.046140
0.763291 0.081548 0.046653
0.794057 0.082304 0.047214
0.840180 0.083436 0.048055
0.874327 0.084274 0.048678
0.897821 0.084851 0.049106
0.911774 0.085194 0.049361
0.916940 0.085320 0.049455
0.005922 0.089631 0.034353
0.029254 0.090204 0.034778
0.053616 0.090802 0.035223
0.078938 0.091423 0.035684
0.105152 0.092067 0.036162
0.132187 0.092731 0.036656
0.159973 0.093413 0.037162
0.188440 0.094112 0.037681
0.217519 0.094826 0.038212
0.247139 0.095553 0.038752
0.277230 0.096292 0.039301
0.307724 0.097040 0.039857
0.338549 0.097797 0.040419
0.369636 0.098560 0.040986
0.400916 0.099328 0.041556
0.432317 0.100099 0.042129
0.463771 0.100871 0.042703
0.495207 0.101643 0.043276
0.526555 0.102413 0.043848
0.557747 0.103178 0.044416
0.588711 0.103939 0.044981
0.619377 0.104691 0.045540
0.649677 0.105435 0.046093
0.679540 0.106168 0.046637
0.708896 0.106889 0.047173
0.737675 0.107596 0.047698
0.765808 0.108286 0.048211
0.796573 0.109042 0.048772
0.842696 0.110174 0.049613
0.876844 0.111012 0.050236
0.900337 0.111589 0.050664
0.914290 0.111932 0.050919
0.919456 0.112059 0.051013
0.008526 0.117302 0.035965
0.031858 0.117875 0.036390
0.056220 0.118473 0.036835
0.081542 0.119094 0.037296
0.107756 0.119738 0.037774
0.134791 0.120402 0.038267
0.162577 0.121084 0.038774
0.191044 0.121783 0.039293
0.220123 0.122497 0.039824
0.249743 0.123224 0.040364
0.279835 0.123963 0.040913
0.310328 0.124711 0.041469
0.341153 0.125468 0.042031
0.372240 0.126231 0.042598
0.403520 0.126999 0.043168
0.434921 0.127770 0.043741
0.466375 0.128542 0.044314
0.497811 0.129314 0.044888
0.529160 0.130084 0.045459
0.560351 0.130850 0.046028
0.591315 0.131610 0.046593
0.621981 0.132363 0.047152
0.652281 0.133106 0.047705
0.682144 0.133840 0.048249
0.711500 0.134560 0.048785
0.740279 0.135267 0.049310
0.768412 0.135958 0.049823
0.799177 0.136713 0.050384
0.845301 0.137845 0.051225
0.879448 0.138684 0.051848
0.902941 0.139260 0.052276
0.916894 0.139603 0.052530
0.922060 0.139730 0.052625
0.011211 0.145832 0.037627
0.034543 0.146405 0.038052
0.058905 0.147003 0.038497
0.084228 0.147625 0.038958
0.110441 0.148269 0.039436
0.137476 0.148932 0.039930
0.165262 0.149614 0.040436
0.193729 0.150313 0.040955
0.222808 0.151027 0.041486
0.252428 0.151754 0.042026
0.282520 0.152493 0.042575
0.313013 0.153242 0.043131
0.343838 0.153999 0.043693
0.374925 0.154762 0.044260
0.406205 0.155530 0.044830
0.437606 0.156301 0.045403
0.469060 0.157073 0.045977
0.500496 0.157845 0.046550
0.531845 0.158614 0.047122
0.563036 0.159380 0.047690
0.594000 0.160140 0.048255
0.624666 0.160893 0.048814
0.654966 0.161637 0.049367
0.684829 0.162370 0.049911
0.714185 0.163091 0.050447
0.742964 0.163797 0.050972
0.771097 0.164488 0.051485
0.801862 0.165243 0.052046
0.847986 0.166376 0.052887
0.882133 0.167214 0.053510
0.905626 0.167791 0.053938
0.919579 0.168133 0.054193
0.924745 0.168260 0.054287
0.013970 0.175149 0.039335
0.037302 0.175721 0.039760
0.061664 0.176320 0.040204
0.086986 0.176941 0.040666
0.113200 0.177585 0.041144
0.140235 0.178249 0.041637
0.168021 0.178931 0.042144
0.196488 0.179630 0.042663
0.225567 0.180344 0.043193
0.255187 0.181071 0.043734
0.285279 0.181809 0.044282
0.315772 0.182558 0.044839
0.346597 0.183315 0.045401
0.377684 0.184078 0.045968
0.408964 0.184846 0.046538
0.440365 0.185617 0.047111
0.471819 0.186389 0.047684
0.503255 0.187161 0.048258
0.534603 0.187931 0.048829
0.565795 0.188696 0.049398
0.596759 0.189457 0.049963
0.627425 0.190209 0.050522
0.657725 0.190953 0.051075
0.687588 0.191686 0.051619
0.716944 0.192407 0.052155
0.745723 0.193114 0.052679
0.773856 0.193804 0.053192
0.804621 0.194560 0.053754
0.850745 0.195692 0.054595
0.884892 0.196530 0.055217
0.908385 0.197107 0.055646
0.922338 0.197450 0.055900
0.927504 0.197577 0.055995
0.016796 0.205177 0.041084
0.040128 0.205750 0.041509
0.064490 0.206348 0.041954
0.089812 0.206970 0.042416
0.116026 0.207613 0.042894
0.143061 0.208277 0.043387
0.170847 0.208959 0.043893
0.199314 0.209658 0.044412
0.228393 0.210372 0.044943
0.258013 0.211099 0.045483
0.288105 0.211838 0.046032
0.318598 0.212587 0.046588
0.349423 0.213343 0.047150
0.380510 0.214107 0.047717
0.411790 0.214874 0.048287
0.443191 0.215645 0.048860
0.474645 0.216418 0.049434
0.506081 0.217189 0.050007
0.537429 0.217959 0.050579
0.568621 0.218725 0.051147
0.599585 0.219485 0.051712
0.630251 0.220238 0.052271
0.660551 0.220982 0.052824
0.690414 0.221715 0.053369
0.719770 0.222436 0.053904
0.748549 0.223142 0.054429
0.776682 0.223833 0.054942
0.807447 0.224588 0.055503
0.853571 0.225720 0.056344
0.887718 0.226559 0.056967
0.911211 0.227136 0.057395
0.925164 0.227478 0.057650
0.930330 0.227605 0.057744
0.019682 0.235844 0.042870
0.043014 0.236417 0.043296
0.067376 0.237015 0.043740
0.092699 0.237637 0.044202
0.118912 0.238280 0.044680
0.145947 0.238944 0.045173
0.173733 0.239626 0.045680
0.202200 0.240325 0.046199
0.231279 0.241039 0.046729
0.260899 0.241766 0.047269
0.290991 0.242505 0.047818
0.321484 0.243254 0.048374
0.352309 0.244010 0.048936
0.383397 0.244774 0.049503
0.414676 0.245541 0.050074
0.446077 0.246312 0.050646
0.477531 0.247085 0.051220
0.508967 0.247856 0.051793
0.540316 0.248626 0.052365
0.571507 0.249392 0.052934
0.602471 0.250152 0.053499
0.633137 0.250905 0.054058
0.663437 0.251649 0.054610
0.693300 0.252382 0.055155
0.722656 0.253103 0.055690
0.751435 0.253809 0.056215
0.779568 0.254500 0.056728
0.810333 0.255255 0.057289
0.856457 0.256387 0.058130
0.890604 0.257226 0.058753
0.914097 0.257803 0.059182
0.928050 0.258145 0.059436
0.933216 0.258272 0.059530
0.022622 0.267076 0.044690
0.045953 0.267649 0.045115
0.070315 0.268247 0.045560
0.095638 0.268869 0.046021
0.121852 0.269512 0.046499
0.148886 0.270176 0.046993
0.176672 0.270858 0.047499
0.205140 0.271557 0.048018
0.234218 0.272271 0.048549
0.263838 0.272998 0.049089
0.293930 0.273737 0.049638
0.324423 0.274486 0.050194
0.355249 0.275242 0.050756
0.386336 0.276006 0.051323
0.417615 0.276773 0.051893
0.449016 0.277544 0.052466
0.480470 0.278317 0.053040
0.511906 0.279088 0.053613
0.543255 0.279858 0.054184
0.574446 0.280624 0.054753
0.605410 0.281384 0.055318
0.636077 0.282137 0.055877
0.666376 0.282881 0.056430
0.696239 0.283614 0.056974
0.725595 0.284335 0.057510
0.754375 0.285041 0.058035
0.782507 0.285732 0.058548
0.813273 0.286487 0.059109
0.859396 0.287619 0.059950
0.893543 0.288458 0.060573
0.917036 0.289035 0.061001
0.930990 0.289377 0.061256
0.936155 0.289504 0.061350
0.025607 0.298799 0.046538
0.048938 0.299372 0.046963
0.073300 0.299970 0.047408
0.098623 0.300592 0.047869
0.124837 0.301236 0.048348
0.151872 0.301899 0.048841
0.179658 0.302582 0.049347
0.208125 0.303280 0.049866
0.237204 0.303994 0.050397
0.266824 0.304721 0.050937
0.296915 0.305460 0.051486
0.327409 0.306209 0.052042
0.358234 0.306966 0.052604
0.389321 0.307729 0.053171
0.420601 0.308497 0.053741
0.452002 0.309268 0.054314
0.483456 0.310040 0.054888
0.514892 0.310812 0.055461
0.546240 0.311581 0.056033
0.577432 0.312347 0.056601
0.608395 0.313107 0.057166
0.639062 0.313860 0.057725
0.669362 0.314604 0.058278
0.699225 0.315337 0.058822
0.728581 0.316058 0.059358
0.757360 0.316764 0.059883
0.785493 0.317455 0.060396
0.816258 0.318210 0.060957
0.862381 0.319343 0.061798
0.896529 0.320181 0.062421
0.920022 0.320758 0.062849
0.933975 0.321100 0.063104
0.939141 0.321227 0.063198
0.028632 0.330941 0.048410
0.051963 0.331513 0.048836
0.076325 0.332111 0.049280
0.101648 0.332733 0.049742
0.127862 0.333377 0.050220
0.154897 0.334040 0.050713
0.182683 0.334723 0.051220
0.211150 0.335421 0.051739
0.240228 0.336135 0.052269
0.269848 0.336863 0.052809
0.299940 0.337601 0.053358
0.330434 0.338350 0.053914
0.361259 0.339107 0.054476
0.392346 0.339870 0.055043
0.423625 0.340638 0.055614
0.455027 0.341409 0.056186
0.486480 0.342181 0.056760
0.517917 0.342953 0.057333
0.549265 0.343722 0.057905
0.580456 0.344488 0.058474
0.611420 0.345248 0.059038
0.642087 0.346001 0.059598
0.672387 0.346745 0.060150
0.702250 0.347478 0.060695
0.731606 0.348199 0.061230
0.760385 0.348906 0.061755
0.788517 0.349596 0.062268
0.819283 0.350352 0.062829
0.865406 0.351484 0.063670
0.899553 0.352322 0.064293
0.923047 0.352899 0.064721
0.937000 0.353242 0.064976
0.942166 0.353368 0.065070
0.031689 0.363426 0.050303
0.055020 0.363999 0.050728
0.079382 0.364597 0.051172
0.104705 0.365218 0.051634
0.130919 0.365862 0.052112
0.157954 0.366526 0.052605
0.185740 0.367208 0.053112
0.214207 0.367907 0.053631
0.243286 0.368621 0.054161
0.272906 0.369348 0.054702
0.302997 0.370087 0.055250
0.333491 0.370835 0.055807
0.364316 0.371592 0.056369
0.395403 0.372355 0.056936
0.426683 0.373123 0.057506
0.458084 0.373894 0.058079
0.489538 0.374666 0.058652
0.520974 0.375438 0.059226
0.552322 0.376208 0.059797
0.583514 0.376973 0.060366
0.614477 0.377734 0.060931
0.645144 0.378487 0.061490
0.675444 0.379230 0.062043
0.705307 0.379964 0.062587
0.734663 0.380684 0.063123
0.763442 0.381391 0.063647
0.791575 0.382081 0.064160
0.822340 0.382837 0.064722
0.868463 0.383969 0.065563
0.902611 0.384807 0.066185
0.926104 0.385384 0.066614
0.940057 0.385727 0.066868
0.945223 0.385854 0.066963
0.034772 0.396182 0.052211
0.058103 0.396754 0.052636
0.082465 0.397353 0.053081
0.107788 0.397974 0.053542
0.134002 0.398618 0.054020
0.161036 0.399282 0.054513
0.188822 0.399964 0.055020
0.217290 0.400663 0.055539
0.246368 0.401376 0.056070
0.275988 0.402104 0.056610
0.306080 0.402842 0.057159
0.336573 0.403591 0.057715
0.367399 0.404348 0.058277
0.398486 0.405111 0.058844
0.429765 0.405879 0.059414
0.461167 0.406650 0.059987
0.492620 0.407422 0.060560
0.524056 0.408194 0.061134
0.555405 0.408964 0.061705
0.586596 0.409729 0.062274
0.617560 0.410489 0.062839
0.648227 0.411242 0.063398
0.678527 0.411986 0.063951
0.708389 0.412719 0.064495
0.737745 0.413440 0.065031
0.766525 0.414147 0.065556
0.794657 0.414837 0.066069
0.825423 0.415593 0.066630
0.871546 0.416725 0.067471
0.905693 0.417563 0.068094
0.929187 0.418140 0.068522
0.943140 0.418483 0.068776
0.948306 0.418609 0.068871
0.037873 0.429134 0.054130
0.061204 0.429707 0.054556
0.085566 0.430305 0.055000
0.110889 0.430927 0.055462
0.137103 0.431571 0.055940
0.164138 0.432234 0.056433
0.191924 0.432916 0.056940
0.220391 0.433615 0.057459
0.249469 0.434329 0.057989
0.279090 0.435056 0.058529
0.309181 0.435795 0.059078
0.339675 0.436544 0.059634
0.370500 0.437301 0.060197
0.401587 0.438064 0.060763
0.432866 0.438832 0.061334
0.464268 0.439603 0.061907
0.495721 0.440375 0.062480
0.527158 0.441147 0.063053
0.558506 0.441916 0.063625
0.589697 0.442682 0.064194
0.620661 0.443442 0.064759
0.651328 0.444195 0.065318
0.681628 0.444939 0.065870
0.711491 0.445672 0.066415
0.740847 0.446393 0.066950
0.769626 0.447099 0.067475
0.797759 0.447790 0.067988
0.828524 0.448545 0.068549
0.874647 0.449678 0.069391
0.908794 0.450516 0.070013
0.932288 0.451093 0.070442
0.946241 0.451435 0.070696
0.951407 0.451562 0.070790
0.040986 0.462211 0.056057
0.064317 0.462783 0.056483
0.088679 0.463381 0.056927
0.114002 0.464003 0.057389
0.140216 0.464647 0.057867
0.167250 0.465310 0.058360
0.195036 0.465993 0.058867
0.223504 0.466692 0.059386
0.252582 0.467405 0.059916
0.282202 0.468133 0.060456
0.312294 0.468871 0.061005
0.342787 0.469620 0.061561
0.373613 0.470377 0.062123
0.404700 0.471140 0.062690
0.435979 0.471908 0.063261
0.467381 0.472679 0.063833
0.498834 0.473451 0.064407
0.530270 0.474223 0.064980
0.561619 0.474992 0.065552
0.592810 0.475758 0.066121
0.623774 0.476518 0.066685
0.654441 0.477271 0.067245
0.684741 0.478015 0.067797
0.714603 0.478748 0.068342
0.743959 0.479469 0.068877
0.772739 0.480176 0.069402
0.800871 0.480866 0.069915
0.831637 0.481622 0.070476
0.877760 0.482754 0.071317
0.911907 0.483592 0.071940
0.935401 0.484169 0.072369
0.949354 0.484512 0.072623
0.954519 0.484638 0.072717
0.044103 0.495336 0.057987
0.067435 0.495909 0.058413
0.091797 0.496507 0.058857
0.117119 0.497129 0.059319
0.143333 0.497773 0.059797
0.170368 0.498436 0.060290
0.198154 0.499119 0.060796
0.226621 0.499817 0.061316
0.255700 0.500531 0.061846
0.285320 0.501258 0.062386
0.315412 0.501997 0.062935
0.345905 0.502746 0.063491
0.376730 0.503503 0.064053
0.407817 0.504266 0.064620
0.439097 0.505034 0.065190
0.470498 0.505805 0.065763
0.501952 0.506577 0.066337
0.533388 0.507349 0.066910
0.564736 0.508118 0.067482
0.595928 0.508884 0.068051
0.626892 0.509644 0.068615
0.657558 0.510397 0.069174
0.687858 0.511141 0.069727
0.717721 0.511874 0.070272
0.747077 0.512595 0.070807
0.775856 0.513301 0.071332
0.803989 0.513992 0.071845
0.834754 0.514747 0.072406
0.880877 0.515880 0.073247
0.915025 0.516718 0.073870
0.938518 0.517295 0.074298
0.952471 0.517637 0.074553
0.957637 0.517764 0.074647
0.047219 0.528439 0.059915
0.070550 0.529011 0.060341
0.094912 0.529609 0.060785
0.120235 0.530231 0.061247
0.146448 0.530875 0.061725
0.173483 0.531538 0.062218
0.201269 0.532221 0.062725
0.229736 0.532919 0.063244
0.258815 0.533633 0.063774
0.288435 0.534361 0.064314
0.318527 0.535099 0.064863
0.349020 0.535848 0.065419
0.379845 0.536605 0.065981
0.410933 0.537368 0.066548
0.442212 0.538136 0.067119
0.473613 0.538907 0.067691
0.505067 0.539679 0.068265
0.536503 0.540451 0.068838
0.567852 0.541220 0.069410
0.599043 0.541986 0.069979
0.630007 0.542746 0.070544
0.660674 0.543499 0.071103
0.690973 0.544243 0.071655
0.720836 0.544976 0.072200
0.750192 0.545697 0.072735
0.778971 0.546404 0.073260
0.807104 0.547094 0.073773
0.837869 0.547850 0.074334
0.883993 0.548982 0.075175
0.917980 0.549780 0.075913
0.941320 0.550319 0.076452
0.955206 0.550656 0.076773
0.960350 0.550782 0.076892
0.050325 0.561443 0.061838
0.073656 0.562016 0.062264
0.098018 0.562614 0.062708
0.123341 0.563236 0.063170
0.149554 0.563879 0.063648
0.176589 0.564543 0.064141
0.204375 0.565225 0.064647
0.232842 0.565924 0.065167
0.261921 0.566638 0.065697
0.291541 0.567365 0.066237
0.321633 0.568104 0.066786
0.352126 0.568853 0.067342
0.382952 0.569609 0.067904
0.414039 0.570373 0.068471
0.445318 0.571140 0.069041
0.476719 0.571911 0.069614
0.508173 0.572684 0.070188
0.539609 0.573455 0.070761
0.570958 0.574225 0.071333
0.602149 0.574991 0.071902
0.633113 0.575751 0.072466
0.663780 0.576504 0.073025
0.694079 0.577248 0.073578
0.723942 0.577981 0.074123
0.753298 0.578702 0.074658
0.782077 0.579408 0.075183
0.810087 0.580068 0.075784
0.840651 0.580774 0.076490
0.886574 0.581900 0.077554
0.920575 0.582737 0.078343
0.943968 0.583312 0.078885
0.957862 0.583654 0.079207
0.963006 0.583780 0.079326
0.053415 0.594277 0.063751
0.076746 0.594850 0.064176
0.101108 0.595448 0.064621
0.126431 0.596069 0.065082
0.152644 0.596713 0.065560
0.179679 0.597377 0.066053
0.207465 0.598059 0.066560
0.235932 0.598758 0.067079
0.265011 0.599472 0.067610
0.294631 0.600199 0.068150
0.324723 0.600938 0.068699
0.355216 0.601686 0.069255
0.386041 0.602443 0.069817
0.417129 0.603206 0.070384
0.448408 0.603974 0.070954
0.479809 0.604745 0.071527
0.511263 0.605517 0.072100
0.542699 0.606289 0.072674
0.574048 0.607059 0.073245
0.605239 0.607824 0.073814
0.636203 0.608585 0.074379
0.666870 0.609337 0.074938
0.697120 0.610069 0.075526
0.726787 0.610754 0.076211
0.755987 0.611451 0.076887
0.784643 0.612156 0.077551
0.812656 0.612845 0.078201
0.843289 0.613598 0.078911
0.889216 0.614728 0.079976
0.923217 0.615564 0.080764
0.946610 0.616139 0.081307
0.960504 0.616481 0.081629
0.965648 0.616608 0.081748
0.056482 0.626866 0.065649
0.079813 0.627438 0.066075
0.104175 0.628037 0.066519
0.129498 0.628658 0.066981
0.155711 0.629302 0.067459
0.182746 0.629966 0.067952
0.210532 0.630648 0.068459
0.238999 0.631347 0.068978
0.268078 0.632061 0.069508
0.297698 0.632788 0.070048
0.327790 0.633526 0.070597
0.358283 0.634275 0.071153
0.389108 0.635032 0.071715
0.420196 0.635795 0.072282
0.451475 0.636563 0.072853
0.482876 0.637334 0.073425
0.514330 0.638106 0.073999
0.545766 0.638878 0.074572
0.577115 0.639648 0.075144
0.608177 0.640381 0.075805
0.638938 0.641091 0.076515
0.669473 0.641841 0.077223
0.699643 0.642583 0.077923
0.729378 0.643315 0.078612
0.758609 0.644034 0.079290
0.787265 0.644738 0.079955
0.815278 0.645427 0.080604
0.845912 0.646181 0.081314
0.891838 0.647310 0.082379
0.925840 0.648147 0.083168
0.949233 0.648722 0.083710
0.963126 0.649064 0.084032
0.968270 0.649190 0.084151
0.059519 0.659136 0.067529
0.082850 0.659709 0.067955
0.107212 0.660307 0.068399
0.132535 0.660929 0.068861
0.158748 0.661573 0.069339
0.185783 0.662236 0.069832
0.213569 0.662918 0.070339
0.242036 0.663617 0.070858
0.271115 0.664331 0.071388
0.300735 0.665058 0.071928
0.330827 0.665797 0.072477
0.361320 0.666546 0.073033
0.392145 0.667303 0.073595
0.423233 0.668066 0.074162
0.454512 0.668834 0.074733
0.485913 0.669605 0.075305
0.517178 0.670330 0.076014
0.548429 0.671065 0.076736
0.579644 0.671832 0.077460
0.610702 0.672596 0.078180
0.641534 0.673355 0.078895
0.672070 0.674106 0.079603
0.702240 0.674848 0.080303
0.731975 0.675579 0.080992
0.761206 0.676298 0.081670
0.789862 0.677003 0.082334
0.817875 0.677692 0.082984
0.848509 0.678445 0.083694
0.894435 0.679575 0.084759
0.928437 0.680411 0.085548
0.951830 0.680987 0.086090
0.965723 0.681328 0.086412
0.970867 0.681455 0.086531
0.062519 0.691015 0.069386
0.085850 0.691588 0.069812
0.110212 0.692186 0.070256
0.135535 0.692808 0.070718
0.161749 0.693451 0.071196
0.188783 0.694115 0.071689
0.216569 0.694797 0.072196
0.245036 0.695496 0.072715
0.274115 0.696210 0.073245
0.303735 0.696937 0.073785
0.333827 0.697676 0.074334
0.364320 0.698425 0.074890
0.395110 0.699172 0.075478
0.425994 0.699885 0.076191
0.457106 0.700628 0.076911
0.488373 0.701397 0.077636
0.519693 0.702168 0.078362
0.550995 0.702937 0.079088
0.582209 0.703705 0.079811
0.613267 0.704469 0.080531
0.644099 0.705227 0.081246
0.674635 0.705978 0.081954
0.704805 0.706721 0.082654
0.734541 0.707452 0.083343
0.763771 0.708171 0.084021
0.792428 0.708876 0.084686
0.820440 0.709565 0.085335
0.851074 0.710318 0.086045
0.897001 0.711448 0.087110
0.931002 0.712284 0.087899
0.954395 0.712859 0.088441
0.968289 0.713201 0.088763
0.973432 0.713328 0.088882
0.065475 0.722429 0.071216
0.088806 0.723001 0.071642
0.113168 0.723600 0.072086
0.138491 0.724221 0.072548
0.164705 0.724865 0.073026
0.191740 0.725528 0.073519
0.219526 0.726211 0.074026
0.247993 0.726910 0.074545
0.277071 0.727623 0.075075
0.306597 0.728327 0.075683
0.336492 0.729017 0.076373
0.366840 0.729753 0.077076
0.397534 0.730508 0.077787
0.428488 0.731270 0.078505
0.459634 0.732036 0.079227
0.490901 0.732805 0.079952
0.522221 0.733575 0.080678
0.553523 0.734345 0.081404
0.584737 0.735113 0.082128
0.615795 0.735876 0.082848
0.646627 0.736635 0.083563
0.677163 0.737386 0.084271
0.707333 0.738128 0.084971
0.737069 0.738859 0.085660
0.766299 0.739578 0.086338
0.794956 0.740283 0.087002
0.822968 0.740972 0.087652
0.853602 0.741725 0.088362
0.899529 0.742855 0.089427
0.933530 0.743691 0.090215
0.956923 0.744267 0.090758
0.970817 0.744608 0.091080
0.975960 0.744735 0.091199
0.068381 0.753303 0.073015
0.091712 0.753876 0.073440
0.116074 0.754474 0.073885
0.141397 0.755096 0.074346
0.167610 0.755739 0.074824
0.194645 0.756403 0.075317
0.222262 0.757043 0.075946
0.250550 0.757700 0.076599
0.279504 0.758413 0.077270
0.308998 0.759138 0.077954
0.338961 0.759875 0.078649
0.369325 0.760622 0.079353
0.400018 0.761377 0.080064
0.430973 0.762138 0.080782
0.462118 0.762904 0.081504
0.493386 0.763673 0.082229
0.524705 0.764443 0.082955
0.556007 0.765213 0.083681
0.587222 0.765981 0.084405
0.618280 0.766745 0.085125
0.649112 0.767503 0.085840
0.679647 0.768254 0.086548
0.709818 0.768996 0.087248
0.739553 0.769728 0.087937
0.768784 0.770447 0.088615
0.797440 0.771151 0.089279
0.825453 0.771840 0.089929
0.856087 0.772594 0.090639
0.902013 0.773723 0.091704
0.936015 0.774560 0.092492
0.959408 0.775135 0.093035
0.973301 0.775477 0.093357
0.978445 0.775603 0.093476
0.071229 0.783565 0.074778
0.094560 0.784137 0.075203
0.118816 0.784709 0.075723
0.143973 0.785290 0.076304
0.170053 0.785917 0.076908
0.196972 0.786579 0.077532
0.224640 0.787259 0.078173
0.252985 0.787956 0.078831
0.281940 0.788668 0.079502
0.311433 0.789394 0.080186
0.341397 0.790131 0.080880
0.371760 0.790878 0.081585
0.402453 0.791633 0.082296
0.433408 0.792394 0.083014
0.464554 0.793160 0.083736
0.495821 0.793929 0.084461
0.527140 0.794699 0.085187
0.558442 0.795469 0.085913
0.589657 0.796237 0.086637
0.620715 0.797001 0.087357
0.651547 0.797759 0.088072
0.682083 0.798510 0.088780
0.712253 0.799252 0.089479
0.741988 0.799984 0.090169
0.771219 0.800703 0.090847
0.799875 0.801407 0.091511
0.827888 0.802096 0.092161
0.858522 0.802850 0.092871
0.904448 0.803979 0.093936
0.938450 0.804816 0.094724
0.961843 0.805391 0.095266
0.975736 0.805733 0.095589
0.980880 0.805859 0.095708
0.073627 0.813056 0.076798
0.096858 0.813627 0.077336
0.121116 0.814224 0.077899
0.146331 0.814844 0.078484
0.172433 0.815486 0.079089
0.199352 0.816148 0.079713
0.227020 0.816829 0.080354
0.255365 0.817526 0.081012
0.284320 0.818238 0.081683
0.313813 0.818964 0.082367
0.343777 0.819701 0.083062
0.374140 0.820447 0.083766
0.404833 0.821202 0.084477
0.435788 0.821964 0.085195
0.466934 0.822730 0.085917
0.498201 0.823499 0.086642
0.529520 0.824269 0.087368
0.560822 0.825039 0.088094
0.592037 0.825807 0.088818
0.623095 0.826571 0.089538
0.653927 0.827329 0.090253
0.684463 0.828080 0.090961
0.714633 0.828822 0.091661
0.744368 0.829553 0.092350
0.773599 0.830272 0.093028
0.802255 0.830977 0.093692
0.830268 0.831666 0.094342
0.860902 0.832420 0.095052
0.906828 0.833549 0.096117
0.940830 0.834385 0.096905
