Golden_Studio.cube
LUT_3D_SIZE 9
0.064490 0.048625 0.021440
0.175433 0.048961 0.022485
0.292817 0.049317 0.023589
0.414280 0.049686 0.024733
0.537460 0.050059 0.025892
0.659992 0.050431 0.027045
0.779516 0.050794 0.028170
0.929724 0.051249 0.029584
0.988706 0.051428 0.030139
0.064432 0.160226 0.024938
0.175375 0.160562 0.025982
0.292759 0.160918 0.027087
0.414222 0.161286 0.028230
0.537402 0.161660 0.029389
0.659934 0.162032 0.030543
0.779457 0.162394 0.031668
0.929666 0.162850 0.033082
0.988648 0.163029 0.033637
0.064371 0.278485 0.028644
0.175313 0.278822 0.029688
0.292698 0.279178 0.030793
0.414161 0.279546 0.031936
0.537340 0.279920 0.033096
0.659873 0.280292 0.034249
0.779396 0.280654 0.035374
0.929605 0.281110 0.036788
0.988587 0.281289 0.037343
0.064307 0.401017 0.032484
0.175250 0.401354 0.033528
0.292634 0.401710 0.034633
0.414097 0.402078 0.035776
0.537276 0.402452 0.036935
0.659809 0.402824 0.038089
0.779674 0.403359 0.038930
0.931948 0.404858 0.038627
0.991741 0.405446 0.038509
0.064242 0.525434 0.036383
0.175185 0.525770 0.037427
0.292569 0.526126 0.038532
0.415048 0.527008 0.038831
0.539921 0.528237 0.038583
0.664138 0.529460 0.038336
0.785305 0.530652 0.038096
0.937579 0.532151 0.037793
0.997372 0.532740 0.037674
0.066057 0.650297 0.038705
0.178525 0.651404 0.038481
0.297523 0.652575 0.038245
0.420656 0.653787 0.038000
0.545529 0.655017 0.037752
0.669747 0.656239 0.037505
0.790913 0.657432 0.037265
0.943202 0.658935 0.036946
1.000000 0.659601 0.036528
0.071534 0.774120 0.037893
0.184003 0.775227 0.037670
0.303001 0.776398 0.037433
0.426134 0.777610 0.037189
0.551070 0.778858 0.036870
0.675838 0.780241 0.036001
0.797542 0.781589 0.035154
0.950492 0.783285 0.034090
1.000000 0.783950 0.033672
0.078547 0.928349 0.036666
0.191514 0.929601 0.035880
0.311040 0.930926 0.035048
0.434719 0.932296 0.034187
0.560146 0.933687 0.033314
0.684914 0.935069 0.032446
0.806618 0.936418 0.031599
0.959568 0.938113 0.030534
1.000000 0.938779 0.030117
0.082668 0.998655 0.035051
0.195635 0.999907 0.034265
0.315161 1.000000 0.033433
0.438840 1.000000 0.032573
0.564267 1.000000 0.031700
0.689035 1.000000 0.030831
0.810739 1.000000 0.029984
0.963689 1.000000 0.028920
1.000000 1.000000 0.028502
0.064485 0.048738 0.131602
0.175427 0.049074 0.132646
0.292811 0.049430 0.133751
0.414275 0.049799 0.134894
0.537454 0.050172 0.136054
0.659987 0.050544 0.137207
0.779510 0.050907 0.138332
0.929718 0.051362 0.139746
0.988701 0.051541 0.140301
0.064427 0.160339 0.135099
0.175369 0.160675 0.136144
0.292753 0.161031 0.137248
0.414217 0.161400 0.138392
0.537396 0.161773 0.139551
0.659928 0.162145 0.140704
0.779452 0.162507 0.141829
0.929660 0.162963 0.143243
0.988643 0.163142 0.143798
0.064365 0.278599 0.138806
0.175308 0.278935 0.139850
0.292692 0.279291 0.140955
0.414155 0.279660 0.142098
0.537334 0.280033 0.143257
0.659867 0.280405 0.144410
0.779390 0.280767 0.145535
0.929599 0.281223 0.146949
0.988581 0.281402 0.147504
0.064301 0.401130 0.142645
0.175244 0.401467 0.143690
0.292628 0.401823 0.144795
0.414091 0.402191 0.145938
0.537270 0.402565 0.147097
0.659803 0.402937 0.148250
0.780181 0.403731 0.148665
0.932455 0.405230 0.148363
0.992248 0.405818 0.148244
0.064236 0.525547 0.146545
0.175179 0.525883 0.147589
0.292563 0.526239 0.148694
0.415555 0.527380 0.148567
0.540428 0.528609 0.148319
0.664645 0.529832 0.148072
0.785812 0.531025 0.147831
0.938086 0.532523 0.147529
0.997879 0.533112 0.147410
0.066564 0.650669 0.148440
0.179032 0.651776 0.148217
0.298030 0.652947 0.147980
0.421163 0.654160 0.147736
0.546036 0.655389 0.147488
0.670254 0.656611 0.147241
0.791420 0.657804 0.147000
0.943877 0.659356 0.146492
1.000000 0.660022 0.146074
0.072041 0.774492 0.147629
0.184509 0.775599 0.147405
0.303508 0.776770 0.147169
0.426641 0.777982 0.146924
0.551744 0.779279 0.146416
0.676513 0.780661 0.145548
0.798217 0.782010 0.144701
0.951166 0.783705 0.143636
1.000000 0.784371 0.143218
0.079221 0.928770 0.146212
0.192188 0.930022 0.145426
0.311714 0.931346 0.144594
0.435394 0.932717 0.143734
0.560820 0.934107 0.142861
0.685589 0.935490 0.141992
0.807293 0.936839 0.141145
0.960242 0.938534 0.140081
1.000000 0.939200 0.139663
0.083343 0.999076 0.144598
0.196310 1.000000 0.143812
0.315836 1.000000 0.142980
0.439515 1.000000 0.142119
0.564942 1.000000 0.141246
0.689710 1.000000 0.140378
0.811414 1.000000 0.139531
0.964363 1.000000 0.138466
1.000000 1.000000 0.138048
0.064478 0.048858 0.248576
0.175421 0.049194 0.249621
0.292805 0.049550 0.250725
0.414268 0.049919 0.251869
0.537448 0.050293 0.253028
0.659980 0.050664 0.254181
0.779504 0.051027 0.255306
0.929712 0.051482 0.256720
0.988694 0.051661 0.257275
0.064420 0.160459 0.252074
0.175363 0.160795 0.253118
0.292747 0.161151 0.254223
0.414210 0.161520 0.255366
0.537390 0.161893 0.256525
0.659922 0.162265 0.257679
0.779445 0.162627 0.258804
0.929654 0.163083 0.260217
0.988636 0.163262 0.260773
0.064359 0.278719 0.255780
0.175301 0.279055 0.256824
0.292686 0.279411 0.257929
0.414149 0.279780 0.259072
0.537328 0.280153 0.260231
0.659861 0.280525 0.261385
0.779384 0.280887 0.262510
0.929593 0.281343 0.263924
0.988575 0.281522 0.264479
0.064295 0.401251 0.259620
0.175238 0.401587 0.260664
0.292622 0.401943 0.261769
0.414085 0.402311 0.262912
0.537264 0.402685 0.264071
0.659797 0.403057 0.265225
0.780719 0.404126 0.265187
0.932993 0.405625 0.264885
0.992786 0.406213 0.264766
0.064230 0.525667 0.263519
0.175173 0.526004 0.264563
0.292960 0.526563 0.265333
0.416093 0.527775 0.265089
0.540966 0.529004 0.264841
0.665183 0.530227 0.264594
0.786350 0.531420 0.264353
0.938624 0.532919 0.264051
0.998417 0.533507 0.263932
0.067102 0.651064 0.264962
0.179570 0.652171 0.264739
0.298568 0.653343 0.264502
0.421701 0.654555 0.264258
0.546574 0.655784 0.264010
0.670792 0.657007 0.263763
0.791958 0.658199 0.263522
0.944593 0.659803 0.262813
1.000000 0.660468 0.262395
0.072580 0.774887 0.264151
0.185048 0.775994 0.263927
0.304046 0.777165 0.263691
0.427179 0.778378 0.263446
0.552461 0.779725 0.262737
0.677229 0.781108 0.261869
0.798933 0.782457 0.261022
0.951882 0.784152 0.259958
1.000000 0.784818 0.259540
0.079938 0.929217 0.262533
0.192904 0.930469 0.261747
0.312430 0.931793 0.260915
0.436110 0.933164 0.260055
0.561537 0.934554 0.259182
0.686305 0.935937 0.258313
0.808009 0.937286 0.257466
0.960958 0.938981 0.256402
1.000000 0.939646 0.255984
0.084059 0.999523 0.260919
0.197026 1.000000 0.260133
0.316552 1.000000 0.259301
0.440231 1.000000 0.258440
0.565658 1.000000 0.257567
0.690426 1.000000 0.256699
0.812130 1.000000 0.255852
0.965079 1.000000 0.254788
1.000000 1.000000 0.254370
0.064472 0.048983 0.369993
0.175415 0.049319 0.371037
0.292799 0.049675 0.372142
0.414262 0.050044 0.373285
0.537441 0.050417 0.374444
0.659974 0.050789 0.375597
0.779497 0.051151 0.376722
0.929706 0.051607 0.378136
0.988688 0.051786 0.378691
0.064414 0.160583 0.373490
0.175357 0.160920 0.374534
0.292741 0.161276 0.375639
0.414204 0.161644 0.376782
0.537383 0.162018 0.377942
0.659916 0.162390 0.379095
0.779439 0.162752 0.380220
0.929648 0.163208 0.381634
0.988630 0.163387 0.382189
0.064352 0.278843 0.377196
0.175295 0.279180 0.378240
0.292679 0.279536 0.379345
0.414142 0.279904 0.380488
0.537322 0.280278 0.381648
0.659854 0.280650 0.382801
0.779377 0.281012 0.383926
0.929586 0.281468 0.385340
0.988568 0.281647 0.385895
0.064289 0.401375 0.381036
0.175231 0.401712 0.382080
0.292615 0.402068 0.383185
0.414079 0.402436 0.384328
0.537258 0.402810 0.385488
0.660111 0.403343 0.386375
0.781278 0.404536 0.386134
0.933552 0.406035 0.385831
0.993345 0.406623 0.385713
0.064224 0.525792 0.384935
0.175166 0.526128 0.385979
0.293518 0.526973 0.386280
0.416652 0.528185 0.386035
0.541525 0.529414 0.385787
0.665742 0.530637 0.385540
0.786909 0.531830 0.385300
0.939183 0.533329 0.384997
0.998976 0.533917 0.384879
0.067661 0.651474 0.385909
0.180129 0.652581 0.385685
0.299127 0.653753 0.385449
0.422260 0.654965 0.385204
0.547133 0.656194 0.384956
0.671350 0.657417 0.384710
0.792517 0.658609 0.384469
0.945336 0.660267 0.383551
1.000000 0.660932 0.383133
0.073138 0.775297 0.385097
0.185606 0.776404 0.384874
0.304604 0.777576 0.384638
0.427777 0.778799 0.384348
0.553204 0.780189 0.383475
0.677972 0.781572 0.382607
0.799676 0.782921 0.381760
0.952626 0.784616 0.380696
1.000000 0.785281 0.380278
0.080681 0.929680 0.383272
0.193648 0.930932 0.382485
0.313174 0.932257 0.381654
0.436853 0.933628 0.380793
0.562280 0.935018 0.379920
0.687048 0.936401 0.379052
0.808752 0.937749 0.378205
0.961702 0.939445 0.377140
1.000000 0.940110 0.376722
0.084802 0.999987 0.381657
0.197769 1.000000 0.380871
0.317295 1.000000 0.380039
0.440974 1.000000 0.379178
0.566401 1.000000 0.378305
0.691169 1.000000 0.377437
0.812873 1.000000 0.376590
0.965823 1.000000 0.375526
1.000000 1.000000 0.375108
0.064465 0.049109 0.493480
0.175408 0.049446 0.494524
0.292792 0.049802 0.495629
0.414255 0.050170 0.496772
0.537435 0.050544 0.497932
0.659967 0.050916 0.499085
0.779491 0.051278 0.500210
0.929699 0.051734 0.501624
0.988681 0.051913 0.502179
0.064407 0.160710 0.496977
0.175350 0.161047 0.498022
0.292734 0.161403 0.499126
0.414197 0.161771 0.500270
0.537377 0.162145 0.501429
0.659909 0.162516 0.502582
0.779432 0.162879 0.503707
0.929641 0.163335 0.505121
0.988623 0.163513 0.505676
0.064346 0.278970 0.500683
0.175288 0.279307 0.501728
0.292673 0.279663 0.502832
0.414136 0.280031 0.503976
0.537315 0.280405 0.505135
0.659848 0.280776 0.506288
0.779371 0.281139 0.507413
0.929580 0.281594 0.508827
0.988562 0.281773 0.509382
0.064282 0.401502 0.504523
0.175225 0.401838 0.505568
0.292609 0.402194 0.506672
0.414072 0.402563 0.507816
0.537251 0.402937 0.508975
0.660679 0.403760 0.509385
0.781846 0.404953 0.509144
0.934120 0.406452 0.508841
0.993913 0.407041 0.508723
0.064217 0.525918 0.508422
0.175160 0.526255 0.509467
0.294087 0.527390 0.509290
0.417220 0.528602 0.509045
0.542093 0.529831 0.508797
0.666310 0.531054 0.508550
0.787477 0.532247 0.508310
0.939751 0.533746 0.508007
0.999544 0.534334 0.507888
0.068229 0.651891 0.508919
0.180697 0.652998 0.508695
0.299695 0.654170 0.508459
0.422828 0.655382 0.508214
0.547701 0.656611 0.507966
0.671919 0.657834 0.507720
0.793143 0.659043 0.507414
0.946093 0.660738 0.506349
1.000000 0.661404 0.505931
0.073706 0.775714 0.508107
0.186174 0.776821 0.507884
0.305173 0.777993 0.507647
0.428533 0.779271 0.507146
0.553960 0.780661 0.506273
0.678728 0.782044 0.505405
0.800432 0.783392 0.504558
0.953382 0.785088 0.503494
1.000000 0.785753 0.503076
0.081437 0.930152 0.506070
0.194404 0.931404 0.505283
0.313930 0.932729 0.504451
0.437609 0.934099 0.503591
0.563036 0.935490 0.502718
0.687804 0.936872 0.501849
0.809508 0.938221 0.501003
0.962458 0.939916 0.499938
1.000000 0.940582 0.499520
0.085558 1.000000 0.504455
0.198525 1.000000 0.503669
0.318051 1.000000 0.502837
0.441731 1.000000 0.501976
0.567157 1.000000 0.501103
0.691926 1.000000 0.500235
0.813630 1.000000 0.499388
0.966579 1.000000 0.498324
1.000000 1.000000 0.497906
0.064459 0.049236 0.616668
0.175402 0.049572 0.617712
0.292786 0.049928 0.618817
0.414249 0.050297 0.619960
0.537428 0.050670 0.621120
0.659961 0.051042 0.622273
0.779484 0.051405 0.623398
0.929693 0.051860 0.624812
0.988675 0.052039 0.625367
0.064401 0.160837 0.620165
0.175343 0.161173 0.621210
0.292728 0.161529 0.622314
0.414191 0.161898 0.623458
0.537370 0.162271 0.624617
0.659903 0.162643 0.625770
0.779426 0.163005 0.626895
0.929635 0.163461 0.628309
0.988617 0.163640 0.628864
0.064339 0.279097 0.623871
0.175282 0.279433 0.624916
0.292666 0.279789 0.626020
0.414129 0.280158 0.627164
0.537309 0.280531 0.628323
0.659841 0.280903 0.629476
0.779364 0.281265 0.630601
0.929573 0.281721 0.632015
0.988934 0.282091 0.632256
0.064276 0.401628 0.627711
0.175218 0.401965 0.628756
0.292602 0.402321 0.629860
0.414066 0.402689 0.631004
0.537245 0.403063 0.632163
0.661246 0.404176 0.632096
0.782412 0.405369 0.631855
0.934687 0.406868 0.631553
0.994480 0.407457 0.631434
0.064211 0.526045 0.631610
0.175655 0.526635 0.632238
0.294653 0.527806 0.632001
0.417787 0.529018 0.631757
0.542660 0.530247 0.631509
0.666877 0.531470 0.631262
0.788044 0.532663 0.631021
0.940318 0.534162 0.630719
1.000000 0.534750 0.630600
0.068796 0.652307 0.631630
0.181264 0.653414 0.631407
0.300262 0.654586 0.631170
0.423395 0.655798 0.630926
0.548268 0.657027 0.630678
0.672485 0.658250 0.630431
0.793897 0.659514 0.629914
0.946847 0.661209 0.628849
1.000000 0.661874 0.628431
0.074273 0.776130 0.630819
0.186741 0.777237 0.630595
0.305739 0.778409 0.630359
0.429288 0.779741 0.629646
0.554714 0.781131 0.628773
0.679483 0.782514 0.627905
0.801187 0.783863 0.627058
0.954136 0.785558 0.625994
1.000000 0.786224 0.625576
0.082191 0.930623 0.628570
0.195158 0.931875 0.627783
0.314684 0.933199 0.626952
0.438363 0.934570 0.626091
0.563790 0.935960 0.625218
0.688559 0.937343 0.624350
0.810262 0.938692 0.623503
0.963212 0.940387 0.622438
1.000000 0.941052 0.622020
0.086313 1.000000 0.626955
0.199279 1.000000 0.626169
0.318805 1.000000 0.625337
0.442485 1.000000 0.624476
0.567912 1.000000 0.623603
0.692680 1.000000 0.622735
0.814384 1.000000 0.621888
0.967333 1.000000 0.620824
1.000000 1.000000 0.620406
0.064453 0.049360 0.737186
0.175395 0.049696 0.738230
0.292779 0.050052 0.739335
0.414243 0.050421 0.740478
0.537422 0.050794 0.741637
0.659954 0.051166 0.742791
0.779478 0.051528 0.743916
0.929686 0.051984 0.745330
0.988669 0.052163 0.745885
0.064395 0.160960 0.740683
0.175337 0.161297 0.741727
0.292721 0.161653 0.742832
0.414185 0.162021 0.743975
0.537364 0.162395 0.745135
0.659896 0.162767 0.746288
0.779420 0.163129 0.747413
0.929628 0.163585 0.748827
0.988610 0.163764 0.749382
0.064333 0.279220 0.744389
0.175276 0.279557 0.745433
0.292660 0.279913 0.746538
0.414123 0.280281 0.747682
0.537302 0.280655 0.748841
0.659835 0.281027 0.749994
0.779358 0.281389 0.751119
0.929695 0.281910 0.752426
0.989488 0.282498 0.752307
0.064269 0.401752 0.748229
0.175212 0.402089 0.749273
0.292596 0.402445 0.750378
0.414059 0.402813 0.751522
0.537583 0.403361 0.752395
0.661800 0.404583 0.752148
0.782967 0.405776 0.751907
0.935241 0.407275 0.751605
0.995034 0.407864 0.751486
0.064204 0.526169 0.752128
0.176210 0.527042 0.752289
0.295208 0.528213 0.752053
0.418341 0.529425 0.751808
0.543214 0.530655 0.751560
0.667432 0.531877 0.751314
0.788598 0.533070 0.751073
0.940872 0.534569 0.750770
1.000000 0.535157 0.750652
0.069350 0.652714 0.751682
0.181818 0.653821 0.751459
0.300816 0.654993 0.751222
0.423950 0.656205 0.750978
0.548823 0.657434 0.750730
0.673040 0.658657 0.750483
0.794635 0.659974 0.749758
0.947585 0.661669 0.748694
1.000000 0.662335 0.748276
0.074828 0.776537 0.750871
0.187296 0.777644 0.750647
0.306346 0.778831 0.750352
0.430025 0.780202 0.749491
0.555452 0.781592 0.748618
0.680221 0.782974 0.747750
0.801924 0.784323 0.746903
0.954874 0.786018 0.745838
1.000000 0.786684 0.745420
0.082929 0.931083 0.748414
0.195896 0.932335 0.747628
0.315422 0.933660 0.746796
0.439101 0.935030 0.745936
0.564528 0.936420 0.745063
0.689296 0.937803 0.744194
0.811000 0.939152 0.743347
0.963950 0.940847 0.742283
1.000000 0.941513 0.741865
0.087051 1.000000 0.746800
0.200017 1.000000 0.746014
0.319543 1.000000 0.745182
0.443223 1.000000 0.744321
0.568649 1.000000 0.743448
0.693418 1.000000 0.742580
0.815122 1.000000 0.741733
0.968071 1.000000 0.740668
1.000000 1.000000 0.740250
0.064445 0.049511 0.884484
0.175387 0.049847 0.885528
0.292772 0.050203 0.886633
0.414235 0.050572 0.887776
0.537414 0.050945 0.888936
0.659947 0.051317 0.890089
0.779470 0.051680 0.891214
0.929679 0.052135 0.892628
0.988661 0.052314 0.893183
0.064387 0.161112 0.887981
0.175329 0.161448 0.889026
0.292714 0.161804 0.890130
0.414177 0.162173 0.891274
0.537356 0.162546 0.892433
0.659889 0.162918 0.893586
0.779412 0.163280 0.894711
0.929621 0.163736 0.896125
0.988603 0.163915 0.896680
0.064325 0.279371 0.891687
0.175268 0.279708 0.892732
0.292652 0.280064 0.893836
0.414115 0.280432 0.894980
0.537294 0.280806 0.896139
0.659827 0.281178 0.897292
0.779350 0.281540 0.898417
0.930373 0.282407 0.899155
0.990166 0.282996 0.899036
0.064261 0.401903 0.895527
0.175204 0.402240 0.896572
0.292588 0.402596 0.897676
0.414051 0.402964 0.898820
0.538261 0.403858 0.899123
0.662478 0.405081 0.898876
0.783645 0.406274 0.898636
0.935919 0.407773 0.898333
0.995712 0.408361 0.898214
0.064419 0.526432 0.899241
0.176887 0.527539 0.899018
0.295886 0.528711 0.898782
0.419019 0.529923 0.898537
0.543892 0.531152 0.898289
0.668109 0.532375 0.898042
0.789276 0.533567 0.897801
0.941550 0.535066 0.897499
1.000000 0.535655 0.897380
0.070028 0.653212 0.898411
0.182496 0.654319 0.898187
0.301494 0.655490 0.897951
0.424627 0.656702 0.897706
0.549500 0.657932 0.897458
0.673833 0.659188 0.897081
0.795537 0.660537 0.896234
0.948487 0.662232 0.895170
1.000000 0.662897 0.894752
0.075505 0.777035 0.897599
0.187973 0.778142 0.897376
0.307248 0.779394 0.896827
0.430927 0.780764 0.895967
0.556354 0.782154 0.895094
0.681122 0.783537 0.894225
0.802826 0.784886 0.893378
0.955776 0.786581 0.892314
1.000000 0.787247 0.891896
0.083831 0.931646 0.894890
0.196798 0.932898 0.894104
0.316324 0.934222 0.893272
0.440003 0.935593 0.892411
0.565430 0.936983 0.891538
0.690198 0.938366 0.890670
0.811902 0.939715 0.889823
0.964852 0.941410 0.888759
1.000000 0.942075 0.888341
0.087952 1.000000 0.893275
0.200919 1.000000 0.892489
0.320445 1.000000 0.891657
0.444125 1.000000 0.890797
0.569551 1.000000 0.889924
0.694320 1.000000 0.889055
0.816024 1.000000 0.888208
0.968973 1.000000 0.887144
1.000000 1.000000 0.886726
0.064441 0.049593 0.964264
0.175383 0.049929 0.965309
0.292767 0.050285 0.966414
0.414231 0.050654 0.967557
0.537410 0.051027 0.968716
0.659942 0.051399 0.969869
0.779466 0.051761 0.970994
0.929674 0.052217 0.972408
0.988657 0.052396 0.972963
0.064382 0.161193 0.967762
0.175325 0.161530 0.968806
0.292709 0.161886 0.969911
0.414172 0.162254 0.971054
0.537352 0.162628 0.972214
0.659884 0.163000 0.973367
0.779408 0.163362 0.974492
0.929616 0.163818 0.975906
0.988598 0.163997 0.976461
0.064321 0.279453 0.971468
0.175264 0.279790 0.972512
0.292648 0.280146 0.973617
0.414111 0.280514 0.974760
0.537290 0.280888 0.975920
0.659823 0.281260 0.977073
0.779346 0.281622 0.978198
0.930740 0.282677 0.978627
0.990533 0.283265 0.978508
0.064257 0.401985 0.975308
0.175200 0.402322 0.976352
0.292584 0.402678 0.977457
0.414047 0.403046 0.978600
0.538628 0.404128 0.978595
0.662845 0.405350 0.978348
0.784012 0.406543 0.978108
0.936286 0.408042 0.977805
0.996079 0.408631 0.977686
0.064786 0.526702 0.978713
0.177254 0.527809 0.978490
0.296253 0.528980 0.978254
0.419386 0.530192 0.978009
0.544259 0.531421 0.977761
0.668476 0.532644 0.977514
0.789643 0.533837 0.977273
0.941917 0.535336 0.976971
1.000000 0.535924 0.976852
0.070395 0.653481 0.977883
0.182863 0.654588 0.977659
0.301861 0.655760 0.977423
0.424994 0.656972 0.977178
0.549867 0.658201 0.976930
0.674322 0.659493 0.976416
0.796026 0.660841 0.975569
0.948975 0.662537 0.974505
1.000000 0.663202 0.974087
0.075872 0.777304 0.977071
0.188340 0.778411 0.976848
0.307736 0.779698 0.976162
0.431416 0.781069 0.975302
0.556843 0.782459 0.974429
0.681611 0.783842 0.973560
0.803315 0.785191 0.972713
0.956264 0.786886 0.971649
1.000000 0.787551 0.971231
0.084320 0.931950 0.974225
0.197286 0.933202 0.973439
0.316812 0.934527 0.972607
0.440492 0.935898 0.971746
0.565918 0.937288 0.970873
0.690687 0.938671 0.970005
0.812391 0.940019 0.969158
0.965340 0.941714 0.968094
1.000000 0.942380 0.967676
0.088441 1.000000 0.972610
0.201408 1.000000 0.971824
0.320934 1.000000 0.970992
0.444613 1.000000 0.970132
0.570040 1.000000 0.969259
0.694808 1.000000 0.968390
0.816512 1.000000 0.967543
0.969461 1.000000 0.966479
1.000000 1.000000 0.966061
