Golden_Studio.cube
LUT_3D_SIZE 5
0.064490 0.048625 0.021440
0.292817 0.049317 0.023589
0.537460 0.050059 0.025892
0.779516 0.050794 0.028170
0.988706 0.051428 0.030139
0.064371 0.278485 0.028644
0.292698 0.279178 0.030793
0.537340 0.279920 0.033096
0.779396 0.280654 0.035374
0.988587 0.281289 0.037343
0.064242 0.525434 0.036383
0.292569 0.526126 0.038532
0.539921 0.528237 0.038583
0.785305 0.530652 0.038096
0.997372 0.532740 0.037674
0.071534 0.774120 0.037893
0.303001 0.776398 0.037433
0.551070 0.778858 0.036870
0.797542 0.781589 0.035154
1.000000 0.783950 0.033672
0.082668 0.998655 0.035051
0.315161 1.000000 0.033433
0.564267 1.000000 0.031700
0.810739 1.000000 0.029984
1.000000 1.000000 0.028502
0.064478 0.048858 0.248576
0.292805 0.049550 0.250725
0.537448 0.050293 0.253028
0.779504 0.051027 0.255306
0.988694 0.051661 0.257275
0.064359 0.278719 0.255780
0.292686 0.279411 0.257929
0.537328 0.280153 0.260231
0.779384 0.280887 0.262510
0.988575 0.281522 0.264479
0.064230 0.525667 0.263519
0.292960 0.526563 0.265333
0.540966 0.529004 0.264841
0.786350 0.531420 0.264353
0.998417 0.533507 0.263932
0.072580 0.774887 0.264151
0.304046 0.777165 0.263691
0.552461 0.779725 0.262737
0.798933 0.782457 0.261022
1.000000 0.784818 0.259540
0.084059 0.999523 0.260919
0.316552 1.000000 0.259301
0.565658 1.000000 0.257567
0.812130 1.000000 0.255852
1.000000 1.000000 0.254370
0.064465 0.049109 0.493480
0.292792 0.049802 0.495629
0.537435 0.050544 0.497932
0.779491 0.051278 0.500210
0.988681 0.051913 0.502179
0.064346 0.278970 0.500683
0.292673 0.279663 0.502832
0.537315 0.280405 0.505135
0.779371 0.281139 0.507413
0.988562 0.281773 0.509382
0.064217 0.525918 0.508422
0.294087 0.527390 0.509290
0.542093 0.529831 0.508797
0.787477 0.532247 0.508310
0.999544 0.534334 0.507888
0.073706 0.775714 0.508107
0.305173 0.777993 0.507647
0.553960 0.780661 0.506273
0.800432 0.783392 0.504558
1.000000 0.785753 0.503076
0.085558 1.000000 0.504455
0.318051 1.000000 0.502837
0.567157 1.000000 0.501103
0.813630 1.000000 0.499388
1.000000 1.000000 0.497906
0.064453 0.049360 0.737186
0.292779 0.050052 0.739335
0.537422 0.050794 0.741637
0.779478 0.051528 0.743916
0.988669 0.052163 0.745885
0.064333 0.279220 0.744389
0.292660 0.279913 0.746538
0.537302 0.280655 0.748841
0.779358 0.281389 0.751119
0.989488 0.282498 0.752307
0.064204 0.526169 0.752128
0.295208 0.528213 0.752053
0.543214 0.530655 0.751560
0.788598 0.533070 0.751073
1.000000 0.535157 0.750652
0.074828 0.776537 0.750871
0.306346 0.778831 0.750352
0.555452 0.781592 0.748618
0.801924 0.784323 0.746903
1.000000 0.786684 0.745420
0.087051 1.000000 0.746800
0.319543 1.000000 0.745182
0.568649 1.000000 0.743448
0.815122 1.000000 0.741733
1.000000 1.000000 0.740250
0.064441 0.049593 0.964264
0.292767 0.050285 0.966414
0.537410 0.051027 0.968716
0.779466 0.051761 0.970994
0.988657 0.052396 0.972963
0.064321 0.279453 0.971468
0.292648 0.280146 0.973617
0.537290 0.280888 0.975920
0.779346 0.281622 0.978198
0.990533 0.283265 0.978508
0.064786 0.526702 0.978713
0.296253 0.528980 0.978254
0.544259 0.531421 0.977761
0.789643 0.533837 0.977273
1.000000 0.535924 0.976852
0.075872 0.777304 0.977071
0.307736 0.779698 0.976162
0.556843 0.782459 0.974429
0.803315 0.785191 0.972713
1.000000 0.787551 0.971231
0.088441 1.000000 0.972610
0.320934 1.000000 0.970992
0.570040 1.000000 0.969259
0.816512 1.000000 0.967543
1.000000 1.000000 0.966061
