Golden_Studio.cube
LUT_3D_SIZE 33
0.064490 0.048625 0.021440
0.091493 0.048707 0.021695
0.119009 0.048790 0.021954
0.147001 0.048875 0.022217
0.175433 0.048961 0.022485
0.204268 0.049049 0.022756
0.233468 0.049137 0.023031
0.262997 0.049227 0.023309
0.292817 0.049317 0.023589
0.322893 0.049409 0.023873
0.353187 0.049500 0.024158
0.383661 0.049593 0.024444
0.414280 0.049686 0.024733
0.445007 0.049779 0.025022
0.475803 0.049872 0.025312
0.506633 0.049966 0.025602
0.537460 0.050059 0.025892
0.568246 0.050153 0.026182
0.598955 0.050246 0.026471
0.629549 0.050339 0.026759
0.659992 0.050431 0.027045
0.690248 0.050523 0.027330
0.720278 0.050614 0.027613
0.750046 0.050704 0.027893
0.779516 0.050794 0.028170
0.808649 0.050882 0.028445
0.845417 0.050993 0.028791
0.892556 0.051136 0.029234
0.929724 0.051249 0.029584
0.957484 0.051333 0.029845
0.976337 0.051391 0.030023
0.986669 0.051422 0.030120
0.988706 0.051428 0.030139
0.064476 0.075770 0.022291
0.091479 0.075852 0.022545
0.118995 0.075935 0.022804
0.146987 0.076020 0.023068
0.175419 0.076107 0.023335
0.204253 0.076194 0.023607
0.233454 0.076283 0.023882
0.262982 0.076372 0.024159
0.292803 0.076463 0.024440
0.322879 0.076554 0.024723
0.353173 0.076646 0.025008
0.383647 0.076738 0.025295
0.414266 0.076831 0.025583
0.444993 0.076924 0.025873
0.475789 0.077018 0.026162
0.506619 0.077111 0.026453
0.537446 0.077205 0.026743
0.568232 0.077298 0.027033
0.598940 0.077391 0.027322
0.629535 0.077484 0.027610
0.659978 0.077576 0.027896
0.690233 0.077668 0.028181
0.720264 0.077759 0.028463
0.750032 0.077849 0.028744
0.779501 0.077939 0.029021
0.808635 0.078027 0.029295
0.845403 0.078139 0.029641
0.892541 0.078282 0.030085
0.929710 0.078394 0.030435
0.957470 0.078479 0.030696
0.976323 0.078536 0.030874
0.986655 0.078567 0.030971
0.988692 0.078573 0.030990
0.064462 0.103444 0.023158
0.091464 0.103525 0.023412
0.118980 0.103609 0.023671
0.146973 0.103694 0.023935
0.175405 0.103780 0.024203
0.204239 0.103867 0.024474
0.233439 0.103956 0.024749
0.262968 0.104046 0.025027
0.292789 0.104136 0.025307
0.322864 0.104227 0.025590
0.353158 0.104319 0.025876
0.383633 0.104412 0.026162
0.414252 0.104505 0.026451
0.444978 0.104598 0.026740
0.475775 0.104691 0.027030
0.506605 0.104785 0.027320
0.537431 0.104878 0.027610
0.568217 0.104972 0.027900
0.598926 0.105065 0.028189
0.629520 0.105157 0.028477
0.659964 0.105250 0.028763
0.690219 0.105342 0.029048
0.720249 0.105433 0.029331
0.750018 0.105523 0.029611
0.779487 0.105612 0.029888
0.808621 0.105701 0.030162
0.845388 0.105812 0.030509
0.892527 0.105955 0.030952
0.929696 0.106068 0.031302
0.957455 0.106152 0.031563
0.976309 0.106209 0.031741
0.986640 0.106241 0.031838
0.988678 0.106247 0.031857
0.064447 0.131608 0.024041
0.091450 0.131690 0.024295
0.118966 0.131773 0.024554
0.146958 0.131858 0.024818
0.175390 0.131944 0.025085
0.204224 0.132032 0.025357
0.233424 0.132120 0.025631
0.262953 0.132210 0.025909
0.292774 0.132300 0.026190
0.322850 0.132392 0.026473
0.353144 0.132483 0.026758
0.383618 0.132576 0.027045
0.414237 0.132669 0.027333
0.444963 0.132762 0.027622
0.475760 0.132855 0.027912
0.506590 0.132949 0.028202
0.537417 0.133042 0.028493
0.568203 0.133136 0.028782
0.598911 0.133229 0.029071
0.629506 0.133322 0.029359
0.659949 0.133414 0.029646
0.690204 0.133506 0.029931
0.720235 0.133597 0.030213
0.750003 0.133687 0.030494
0.779472 0.133777 0.030771
0.808606 0.133865 0.031045
0.845374 0.133976 0.031391
0.892512 0.134119 0.031835
0.929681 0.134232 0.032185
0.957441 0.134316 0.032446
0.976294 0.134374 0.032623
0.986626 0.134405 0.032721
0.988663 0.134411 0.032740
0.064432 0.160226 0.024938
0.091435 0.160307 0.025192
0.118951 0.160391 0.025451
0.146943 0.160476 0.025714
0.175375 0.160562 0.025982
0.204209 0.160649 0.026253
0.233410 0.160738 0.026528
0.262938 0.160828 0.026806
0.292759 0.160918 0.027087
0.322835 0.161009 0.027370
0.353129 0.161101 0.027655
0.383603 0.161194 0.027942
0.414222 0.161286 0.028230
0.444949 0.161380 0.028519
0.475745 0.161473 0.028809
0.506575 0.161567 0.029099
0.537402 0.161660 0.029389
0.568188 0.161753 0.029679
0.598896 0.161847 0.029968
0.629491 0.161939 0.030256
0.659934 0.162032 0.030543
0.690189 0.162124 0.030828
0.720220 0.162215 0.031110
0.749988 0.162305 0.031390
0.779457 0.162394 0.031668
0.808591 0.162483 0.031942
0.845359 0.162594 0.032288
0.892497 0.162737 0.032732
0.929666 0.162850 0.033082
0.957426 0.162934 0.033343
0.976279 0.162991 0.033520
0.986611 0.163023 0.033617
0.988648 0.163029 0.033637
0.064417 0.189259 0.025848
0.091420 0.189341 0.026102
0.118936 0.189425 0.026361
0.146928 0.189510 0.026624
0.175360 0.189596 0.026892
0.204194 0.189683 0.027163
0.233394 0.189772 0.027438
0.262923 0.189862 0.027716
0.292744 0.189952 0.027997
0.322820 0.190043 0.028280
0.353114 0.190135 0.028565
0.383588 0.190228 0.028852
0.414207 0.190320 0.029140
0.444933 0.190414 0.029429
0.475730 0.190507 0.029719
0.506560 0.190601 0.030009
0.537387 0.190694 0.030299
0.568173 0.190787 0.030589
0.598881 0.190881 0.030878
0.629476 0.190973 0.031166
0.659919 0.191066 0.031453
0.690174 0.191157 0.031737
0.720205 0.191249 0.032020
0.749973 0.191339 0.032300
0.779442 0.191428 0.032578
0.808576 0.191517 0.032852
0.845344 0.191628 0.033198
0.892482 0.191771 0.033642
0.929651 0.191884 0.033991
0.957411 0.191968 0.034253
0.976264 0.192025 0.034430
0.986596 0.192057 0.034527
0.988633 0.192063 0.034547
0.064402 0.218672 0.026769
0.091404 0.218754 0.027024
0.118920 0.218838 0.027283
0.146913 0.218923 0.027546
0.175345 0.219009 0.027814
0.204179 0.219096 0.028085
0.233379 0.219185 0.028360
0.262908 0.219274 0.028638
0.292729 0.219365 0.028918
0.322804 0.219456 0.029202
0.353098 0.219548 0.029487
0.383573 0.219640 0.029774
0.414192 0.219733 0.030062
0.444918 0.219826 0.030351
0.475715 0.219920 0.030641
0.506545 0.220013 0.030931
0.537371 0.220107 0.031221
0.568157 0.220200 0.031511
0.598866 0.220293 0.031800
0.629461 0.220386 0.032088
0.659904 0.220479 0.032374
0.690159 0.220570 0.032659
0.720189 0.220661 0.032942
0.749958 0.220752 0.033222
0.779427 0.220841 0.033499
0.808561 0.220929 0.033774
0.845328 0.221041 0.034120
0.892467 0.221184 0.034563
0.929636 0.221297 0.034913
0.957395 0.221381 0.035174
0.976249 0.221438 0.035352
0.986581 0.221469 0.035449
0.988618 0.221476 0.035468
0.064386 0.248427 0.027702
0.091389 0.248509 0.027956
0.118905 0.248592 0.028215
0.146897 0.248677 0.028478
0.175329 0.248763 0.028746
0.204164 0.248851 0.029017
0.233364 0.248939 0.029292
0.262893 0.249029 0.029570
0.292713 0.249119 0.029851
0.322789 0.249211 0.030134
0.353083 0.249302 0.030419
0.383558 0.249395 0.030706
0.414176 0.249488 0.030994
0.444903 0.249581 0.031283
0.475699 0.249674 0.031573
0.506529 0.249768 0.031863
0.537356 0.249861 0.032154
0.568142 0.249955 0.032443
0.598851 0.250048 0.032732
0.629445 0.250141 0.033020
0.659888 0.250233 0.033307
0.690144 0.250325 0.033592
0.720174 0.250416 0.033874
0.749942 0.250506 0.034154
0.779412 0.250596 0.034432
0.808545 0.250684 0.034706
0.845313 0.250795 0.035052
0.892452 0.250938 0.035496
0.929620 0.251051 0.035846
0.957380 0.251135 0.036107
0.976233 0.251193 0.036284
0.986565 0.251224 0.036382
0.988602 0.251230 0.036401
0.064371 0.278485 0.028644
0.091373 0.278567 0.028898
0.118889 0.278651 0.029157
0.146882 0.278736 0.029420
0.175313 0.278822 0.029688
0.204148 0.278909 0.029959
0.233348 0.278998 0.030234
0.262877 0.279088 0.030512
0.292698 0.279178 0.030793
0.322773 0.279269 0.031076
0.353067 0.279361 0.031361
0.383542 0.279454 0.031648
0.414161 0.279546 0.031936
0.444887 0.279640 0.032225
0.475684 0.279733 0.032515
0.506514 0.279827 0.032805
0.537340 0.279920 0.033096
0.568126 0.280013 0.033385
0.598835 0.280107 0.033674
0.629429 0.280199 0.033962
0.659873 0.280292 0.034249
0.690128 0.280383 0.034534
0.720158 0.280475 0.034816
0.749926 0.280565 0.035096
0.779396 0.280654 0.035374
0.808530 0.280743 0.035648
0.845297 0.280854 0.035994
0.892436 0.280997 0.036438
0.929605 0.281110 0.036788
0.957364 0.281194 0.037049
0.976218 0.281251 0.037226
0.986549 0.281283 0.037324
0.988587 0.281289 0.037343
0.064355 0.308811 0.029594
0.091358 0.308893 0.029848
0.118873 0.308977 0.030107
0.146866 0.309061 0.030371
0.175298 0.309148 0.030638
0.204132 0.309235 0.030910
0.233332 0.309324 0.031185
0.262861 0.309413 0.031463
0.292682 0.309504 0.031743
0.322758 0.309595 0.032026
0.353051 0.309687 0.032311
0.383526 0.309779 0.032598
0.414145 0.309872 0.032887
0.444871 0.309965 0.033176
0.475668 0.310059 0.033466
0.506498 0.310152 0.033756
0.537324 0.310246 0.034046
0.568110 0.310339 0.034336
0.598819 0.310432 0.034625
0.629414 0.310525 0.034913
0.659857 0.310617 0.035199
0.690112 0.310709 0.035484
0.720142 0.310800 0.035767
0.749911 0.310891 0.036047
0.779380 0.310980 0.036324
0.808514 0.311068 0.036598
0.845281 0.311180 0.036944
0.892420 0.311323 0.037388
0.929589 0.311436 0.037738
0.957349 0.311520 0.037999
0.976202 0.311577 0.038177
0.986534 0.311608 0.038274
0.988571 0.311614 0.038293
0.064339 0.339367 0.030552
0.091342 0.339448 0.030806
0.118858 0.339532 0.031065
0.146850 0.339617 0.031328
0.175282 0.339703 0.031596
0.204116 0.339791 0.031867
0.233316 0.339879 0.032142
0.262845 0.339969 0.032420
0.292666 0.340059 0.032701
0.322742 0.340150 0.032984
0.353035 0.340242 0.033269
0.383510 0.340335 0.033556
0.414129 0.340428 0.033844
0.444855 0.340521 0.034133
0.475652 0.340614 0.034423
0.506482 0.340708 0.034713
0.537308 0.340801 0.035003
0.568094 0.340895 0.035293
0.598803 0.340988 0.035582
0.629398 0.341081 0.035870
0.659841 0.341173 0.036157
0.690096 0.341265 0.036442
0.720126 0.341356 0.036724
0.749895 0.341446 0.037004
0.779364 0.341535 0.037282
0.808498 0.341624 0.037556
0.845265 0.341735 0.037902
0.892404 0.341878 0.038346
0.929573 0.341991 0.038696
0.957333 0.342075 0.038957
0.976411 0.342246 0.038947
0.986885 0.342349 0.038926
0.988951 0.342370 0.038922
0.064323 0.370114 0.031515
0.091326 0.370196 0.031770
0.118842 0.370280 0.032029
0.146834 0.370365 0.032292
0.175266 0.370451 0.032560
0.204100 0.370538 0.032831
0.233300 0.370627 0.033106
0.262829 0.370717 0.033384
0.292650 0.370807 0.033664
0.322726 0.370898 0.033948
0.353019 0.370990 0.034233
0.383494 0.371083 0.034519
0.414113 0.371175 0.034808
0.444839 0.371269 0.035097
0.475636 0.371362 0.035387
0.506466 0.371456 0.035677
0.537292 0.371549 0.035967
0.568078 0.371642 0.036257
0.598787 0.371736 0.036546
0.629382 0.371828 0.036834
0.659825 0.371921 0.037120
0.690080 0.372012 0.037405
0.720110 0.372104 0.037688
0.749879 0.372194 0.037968
0.779348 0.372283 0.038245
0.808482 0.372372 0.038520
0.845249 0.372483 0.038866
0.892869 0.372869 0.038909
0.930549 0.373240 0.038835
0.958691 0.373517 0.038779
0.977803 0.373705 0.038741
0.988277 0.373808 0.038720
0.990342 0.373829 0.038716
0.064307 0.401017 0.032484
0.091310 0.401099 0.032738
0.118825 0.401183 0.032997
0.146818 0.401268 0.033260
0.175250 0.401354 0.033528
0.204084 0.401441 0.033799
0.233284 0.401530 0.034074
0.262813 0.401619 0.034352
0.292634 0.401710 0.034633
0.322710 0.401801 0.034916
0.353003 0.401893 0.035201
0.383478 0.401985 0.035488
0.414097 0.402078 0.035776
0.444823 0.402171 0.036065
0.475620 0.402265 0.036355
0.506450 0.402358 0.036645
0.537276 0.402452 0.036935
0.568062 0.402545 0.037225
0.598771 0.402638 0.037514
0.629366 0.402731 0.037802
0.659809 0.402824 0.038089
0.690064 0.402915 0.038374
0.720094 0.403006 0.038656
0.749863 0.403097 0.038936
0.779674 0.403359 0.038930
0.809208 0.403649 0.038871
0.846481 0.404016 0.038797
0.894268 0.404487 0.038702
0.931948 0.404858 0.038627
0.960089 0.405135 0.038571
0.979202 0.405323 0.038533
0.989676 0.405426 0.038513
0.991741 0.405446 0.038509
0.064291 0.432038 0.033456
0.091293 0.432120 0.033710
0.118809 0.432203 0.033969
0.146802 0.432288 0.034233
0.175234 0.432375 0.034500
0.204068 0.432462 0.034772
0.233268 0.432551 0.035046
0.262797 0.432640 0.035324
0.292618 0.432731 0.035605
0.322693 0.432822 0.035888
0.352987 0.432914 0.036173
0.383462 0.433006 0.036460
0.414081 0.433099 0.036748
0.444807 0.433192 0.037037
0.475604 0.433286 0.037327
0.506434 0.433379 0.037617
0.537260 0.433473 0.037908
0.568046 0.433566 0.038197
0.598755 0.433659 0.038486
0.629349 0.433752 0.038774
0.659911 0.433904 0.038963
0.690582 0.434206 0.038902
0.721026 0.434506 0.038841
0.751203 0.434803 0.038781
0.781078 0.435097 0.038722
0.810612 0.435388 0.038663
0.847885 0.435754 0.038589
0.895672 0.436225 0.038494
0.933352 0.436596 0.038419
0.961493 0.436873 0.038363
0.980606 0.437061 0.038325
0.991080 0.437164 0.038305
0.993145 0.437184 0.038301
0.064275 0.463139 0.034431
0.091277 0.463221 0.034685
0.118793 0.463305 0.034944
0.146785 0.463389 0.035207
0.175217 0.463476 0.035475
0.204052 0.463563 0.035746
0.233252 0.463652 0.036021
0.262781 0.463741 0.036299
0.292602 0.463832 0.036580
0.322677 0.463923 0.036863
0.352971 0.464015 0.037148
0.383446 0.464107 0.037435
0.414065 0.464200 0.037723
0.444791 0.464293 0.038012
0.475588 0.464387 0.038302
0.506417 0.464480 0.038592
0.537244 0.464574 0.038882
0.568311 0.464809 0.038939
0.599442 0.465115 0.038877
0.630457 0.465421 0.038815
0.661319 0.465725 0.038754
0.691990 0.466026 0.038693
0.722433 0.466326 0.038633
0.752611 0.466623 0.038573
0.782485 0.466917 0.038513
0.812020 0.467208 0.038455
0.849293 0.467575 0.038381
0.897080 0.468045 0.038286
0.934760 0.468416 0.038211
0.962901 0.468693 0.038155
0.982013 0.468881 0.038117
0.992487 0.468984 0.038096
0.994553 0.469005 0.038092
0.064259 0.494284 0.035407
0.091261 0.494365 0.035661
0.118777 0.494449 0.035920
0.146769 0.494534 0.036183
0.175201 0.494620 0.036451
0.204036 0.494708 0.036722
0.233236 0.494796 0.036997
0.262765 0.494886 0.037275
0.292585 0.494976 0.037556
0.322661 0.495067 0.037839
0.352955 0.495159 0.038124
0.383430 0.495252 0.038411
0.414049 0.495345 0.038699
0.444787 0.495444 0.038978
0.476007 0.495751 0.038916
0.507261 0.496059 0.038854
0.538511 0.496366 0.038792
0.569720 0.496674 0.038730
0.600851 0.496980 0.038668
0.631867 0.497285 0.038606
0.662728 0.497589 0.038545
0.693400 0.497891 0.038484
0.723843 0.498191 0.038424
0.754020 0.498488 0.038364
0.783895 0.498782 0.038304
0.813429 0.499073 0.038246
0.850702 0.499439 0.038172
0.898489 0.499910 0.038077
0.936169 0.500281 0.038002
0.964311 0.500558 0.037946
0.983423 0.500746 0.037908
0.993897 0.500849 0.037887
0.995962 0.500869 0.037883
0.064242 0.525434 0.036383
0.091245 0.525516 0.036637
0.118761 0.525599 0.036896
0.146753 0.525684 0.037159
0.175185 0.525770 0.037427
0.204019 0.525858 0.037698
0.233219 0.525946 0.037973
0.262748 0.526036 0.038251
0.292569 0.526126 0.038532
0.322645 0.526218 0.038815
0.353114 0.526398 0.038954
0.384008 0.526702 0.038893
0.415048 0.527008 0.038831
0.446197 0.527315 0.038769
0.477417 0.527622 0.038707
0.508671 0.527929 0.038645
0.539921 0.528237 0.038583
0.571130 0.528544 0.038521
0.602261 0.528851 0.038459
0.633276 0.529156 0.038398
0.664138 0.529460 0.038336
0.694810 0.529762 0.038275
0.725253 0.530061 0.038215
0.755430 0.530358 0.038155
0.785305 0.530652 0.038096
0.814839 0.530943 0.038037
0.852112 0.531310 0.037963
0.899899 0.531780 0.037868
0.937579 0.532151 0.037793
0.965720 0.532428 0.037737
0.984833 0.532617 0.037699
0.995307 0.532720 0.037678
0.997372 0.532740 0.037674
0.064226 0.556553 0.037358
0.091229 0.556635 0.037612
0.118745 0.556718 0.037871
0.146737 0.556803 0.038135
0.175169 0.556889 0.038402
0.204003 0.556977 0.038674
0.233203 0.557065 0.038949
0.263092 0.557337 0.038927
0.293323 0.557634 0.038867
0.323812 0.557934 0.038806
0.354523 0.558237 0.038745
0.385416 0.558541 0.038684
0.416456 0.558846 0.038622
0.447605 0.559153 0.038561
0.478825 0.559460 0.038499
0.510079 0.559768 0.038436
0.541329 0.560076 0.038374
0.572539 0.560383 0.038312
0.603670 0.560689 0.038251
0.634685 0.560995 0.038189
0.665547 0.561298 0.038128
0.696218 0.561600 0.038067
0.726661 0.561900 0.038006
0.756839 0.562197 0.037946
0.786713 0.562491 0.037887
0.816248 0.562782 0.037828
0.853521 0.563149 0.037754
0.901308 0.563619 0.037659
0.938988 0.563990 0.037584
0.967129 0.564267 0.037529
0.986241 0.564455 0.037491
0.996715 0.564558 0.037470
0.998781 0.564578 0.037466
0.064210 0.587603 0.038331
0.091212 0.587685 0.038585
0.118728 0.587768 0.038844
0.146908 0.587947 0.038952
0.175730 0.588231 0.038895
0.204961 0.588519 0.038837
0.234563 0.588810 0.038778
0.264498 0.589105 0.038719
0.294729 0.589403 0.038659
0.325218 0.589703 0.038598
0.355928 0.590005 0.038537
0.386822 0.590309 0.038476
0.417862 0.590615 0.038414
0.449011 0.590921 0.038352
0.480231 0.591229 0.038290
0.511484 0.591536 0.038228
0.542735 0.591844 0.038166
0.573944 0.592151 0.038104
0.605075 0.592457 0.038042
0.636090 0.592763 0.037981
0.666952 0.593066 0.037919
0.697623 0.593368 0.037859
0.728067 0.593668 0.037798
0.758244 0.593965 0.037738
0.788119 0.594259 0.037679
0.817653 0.594550 0.037620
0.854926 0.594917 0.037546
0.902713 0.595387 0.037451
0.940393 0.595758 0.037376
0.968534 0.596035 0.037320
0.987647 0.596223 0.037282
0.998121 0.596326 0.037262
1.000000 0.596347 0.037258
0.064663 0.618784 0.038911
0.092037 0.619053 0.038857
0.119931 0.619328 0.038801
0.148308 0.619607 0.038745
0.177131 0.619891 0.038688
0.206362 0.620179 0.038630
0.235963 0.620470 0.038571
0.265898 0.620765 0.038511
0.296129 0.621062 0.038451
0.326618 0.621362 0.038391
0.357329 0.621665 0.038330
0.388222 0.621969 0.038268
0.419262 0.622274 0.038207
0.450411 0.622581 0.038145
0.481631 0.622888 0.038083
0.512885 0.623196 0.038021
0.544135 0.623504 0.037959
0.575345 0.623811 0.037897
0.606476 0.624117 0.037835
0.637491 0.624422 0.037773
0.668353 0.624726 0.037712
0.699024 0.625028 0.037651
0.729467 0.625328 0.037591
0.759645 0.625625 0.037531
0.789519 0.625919 0.037471
0.819054 0.626210 0.037413
0.856327 0.626577 0.037339
0.904114 0.627047 0.037244
0.941793 0.627418 0.037169
0.969935 0.627695 0.037113
0.989047 0.627883 0.037075
0.999521 0.627986 0.037054
1.000000 0.628006 0.037050
0.066057 0.650297 0.038705
0.093431 0.650566 0.038650
0.121325 0.650841 0.038595
0.149702 0.651120 0.038539
0.178525 0.651404 0.038481
0.207756 0.651692 0.038423
0.237357 0.651983 0.038364
0.267292 0.652278 0.038305
0.297523 0.652575 0.038245
0.328012 0.652876 0.038184
0.358723 0.653178 0.038123
0.389616 0.653482 0.038062
0.420656 0.653787 0.038000
0.451805 0.654094 0.037938
0.483025 0.654401 0.037876
0.514279 0.654709 0.037814
0.545529 0.655017 0.037752
0.576739 0.655324 0.037690
0.607870 0.655630 0.037628
0.638885 0.655936 0.037567
0.669747 0.656239 0.037505
0.700418 0.656541 0.037445
0.730861 0.656841 0.037384
0.761039 0.657138 0.037324
0.790913 0.657432 0.037265
0.820448 0.657723 0.037206
0.857721 0.658090 0.037132
0.905508 0.658560 0.037037
0.943202 0.658935 0.036946
0.971469 0.659249 0.036749
0.990666 0.659461 0.036615
1.000000 0.659578 0.036542
1.000000 0.659601 0.036528
0.067443 0.681625 0.038499
0.094817 0.681895 0.038445
0.122711 0.682169 0.038390
0.151088 0.682449 0.038333
0.179911 0.682732 0.038276
0.209142 0.683020 0.038218
0.238743 0.683311 0.038159
0.268678 0.683606 0.038100
0.298909 0.683904 0.038040
0.329398 0.684204 0.037979
0.360109 0.684506 0.037918
0.391002 0.684810 0.037857
0.422042 0.685116 0.037795
0.453191 0.685422 0.037733
0.484411 0.685730 0.037671
0.515665 0.686037 0.037609
0.546915 0.686345 0.037547
0.578125 0.686652 0.037485
0.609256 0.686959 0.037423
0.640271 0.687264 0.037361
0.671133 0.687568 0.037300
0.701804 0.687870 0.037239
0.732247 0.688169 0.037179
0.762425 0.688466 0.037119
0.792299 0.688760 0.037059
0.821834 0.689051 0.037001
0.859201 0.689445 0.036820
0.907200 0.689977 0.036486
0.945047 0.690397 0.036223
0.973313 0.690710 0.036026
0.992510 0.690923 0.035893
1.000000 0.691039 0.035820
1.000000 0.691062 0.035805
0.068819 0.712731 0.038296
0.096193 0.713000 0.038241
0.124087 0.713275 0.038186
0.152464 0.713554 0.038129
0.181287 0.713838 0.038072
0.210518 0.714125 0.038014
0.240119 0.714417 0.037955
0.270054 0.714712 0.037896
0.300285 0.715009 0.037836
0.330774 0.715309 0.037775
0.361485 0.715611 0.037714
0.392378 0.715916 0.037653
0.423418 0.716221 0.037591
0.454567 0.716528 0.037529
0.485787 0.716835 0.037467
0.517041 0.717143 0.037405
0.548291 0.717450 0.037343
0.579501 0.717758 0.037281
0.610632 0.718064 0.037219
0.641647 0.718369 0.037158
0.672509 0.718673 0.037096
0.703180 0.718975 0.037035
0.733623 0.719275 0.036975
0.763921 0.719607 0.036779
0.793928 0.719939 0.036570
0.823594 0.720268 0.036364
0.861032 0.720683 0.036103
0.909031 0.721215 0.035769
0.946878 0.721634 0.035506
0.975144 0.721948 0.035309
0.994341 0.722160 0.035175
1.000000 0.722277 0.035102
1.000000 0.722300 0.035088
0.070183 0.743575 0.038093
0.097557 0.743844 0.038039
0.125451 0.744119 0.037984
0.153829 0.744398 0.037927
0.182651 0.744682 0.037870
0.211882 0.744970 0.037812
0.241484 0.745261 0.037753
0.271419 0.745556 0.037694
0.301650 0.745853 0.037634
0.332139 0.746153 0.037573
0.362849 0.746456 0.037512
0.393743 0.746760 0.037451
0.424783 0.747065 0.037389
0.455932 0.747372 0.037327
0.487152 0.747679 0.037265
0.518405 0.747987 0.037203
0.549656 0.748295 0.037141
0.580865 0.748602 0.037079
0.611996 0.748908 0.037017
0.643041 0.749222 0.036922
0.674040 0.749566 0.036706
0.704847 0.749907 0.036491
0.735425 0.750246 0.036279
0.765737 0.750582 0.036068
0.795744 0.750915 0.035859
0.825409 0.751243 0.035652
0.862848 0.751658 0.035392
0.910847 0.752190 0.035058
0.948693 0.752610 0.034794
0.976960 0.752923 0.034598
0.996157 0.753136 0.034464
1.000000 0.753252 0.034391
1.000000 0.753275 0.034376
0.071534 0.774120 0.037893
0.098908 0.774389 0.037839
0.126803 0.774664 0.037783
0.155180 0.774943 0.037727
0.184003 0.775227 0.037670
0.213233 0.775515 0.037612
0.242835 0.775806 0.037553
0.272770 0.776101 0.037493
0.303001 0.776398 0.037433
0.333490 0.776698 0.037373
0.364200 0.777001 0.037312
0.395094 0.777305 0.037250
0.426134 0.777610 0.037189
0.457283 0.777917 0.037127
0.488503 0.778224 0.037065
0.519757 0.778532 0.037003
0.551070 0.778858 0.036870
0.582418 0.779205 0.036652
0.613687 0.779552 0.036434
0.644839 0.779897 0.036217
0.675838 0.780241 0.036001
0.706645 0.780582 0.035787
0.737224 0.780921 0.035574
0.767535 0.781257 0.035363
0.797542 0.781589 0.035154
0.827207 0.781918 0.034948
0.864646 0.782333 0.034687
0.912645 0.782865 0.034353
0.950492 0.783285 0.034090
0.978758 0.783598 0.033893
0.997955 0.783811 0.033760
1.000000 0.783927 0.033686
1.000000 0.783950 0.033672
0.072871 0.804327 0.037695
0.100245 0.804597 0.037641
0.128139 0.804871 0.037585
0.156516 0.805151 0.037529
0.185339 0.805434 0.037472
0.214570 0.805722 0.037414
0.244171 0.806014 0.037355
0.274106 0.806308 0.037295
0.304337 0.806606 0.037235
0.334826 0.806906 0.037175
0.365537 0.807208 0.037114
0.396430 0.807512 0.037053
0.427470 0.807818 0.036991
0.458708 0.808150 0.036828
0.490067 0.808498 0.036610
0.521459 0.808846 0.036392
0.552848 0.809194 0.036173
0.584196 0.809541 0.035955
0.615465 0.809888 0.035737
0.646618 0.810233 0.035521
0.677616 0.810577 0.035305
0.708424 0.810918 0.035090
0.739002 0.811257 0.034878
0.769313 0.811593 0.034667
0.799320 0.811925 0.034458
0.828986 0.812254 0.034251
0.866424 0.812669 0.033991
0.914423 0.813201 0.033657
0.952270 0.813620 0.033393
0.980536 0.813934 0.033197
0.999733 0.814146 0.033063
1.000000 0.814263 0.032990
1.000000 0.814286 0.032975
0.074267 0.835899 0.037488
0.101641 0.836168 0.037434
0.129535 0.836443 0.037379
0.157913 0.836722 0.037322
0.186735 0.837006 0.037265
0.215966 0.837294 0.037207
0.245568 0.837585 0.037148
0.275503 0.837880 0.037089
0.305734 0.838177 0.037029
0.336225 0.838478 0.036966
0.367072 0.838820 0.036751
0.398102 0.839164 0.036535
0.429280 0.839509 0.036318
0.460567 0.839856 0.036100
0.491925 0.840204 0.035882
0.523318 0.840552 0.035663
0.554707 0.840899 0.035445
0.586055 0.841247 0.035227
0.617324 0.841593 0.035009
0.648476 0.841939 0.034792
0.679475 0.842282 0.034577
0.710282 0.842624 0.034362
0.740860 0.842963 0.034149
0.771172 0.843298 0.033939
0.801179 0.843631 0.033730
0.830844 0.843960 0.033523
0.868283 0.844375 0.033263
0.916282 0.844907 0.032929
0.954128 0.845326 0.032665
0.982395 0.845639 0.032469
