Insta_Reels_Cinematic_Warm.cube
# Cinematic Warm — LUT for Instagram Reels
# Warm teal & orange grade with lifted filmic shadows
# Format: 33x33x33 .cube 3D LUT
TITLE "Insta Reels - Cinematic Warm"
LUT_3D_SIZE 33
DOMAIN_MIN 0.0 0.0 0.0
DOMAIN_MAX 1.0 1.0 1.0
0.028591 0.030655 0.024178
0.056587 0.029996 0.023423
0.085312 0.029320 0.022647
0.114769 0.028627 0.021852
0.144955 0.027916 0.021037
0.175871 0.027189 0.020203
0.207518 0.026444 0.019348
0.239895 0.025682 0.018474
0.273002 0.024903 0.017581
0.306839 0.024107 0.016667
0.341406 0.023293 0.015734
0.376704 0.022462 0.014781
0.412731 0.021614 0.013809
0.449489 0.020749 0.012816
0.486977 0.019867 0.011804
0.525196 0.018968 0.010773
0.564066 0.018053 0.009723
0.602538 0.017147 0.008685
0.640279 0.016259 0.007666
0.677290 0.015388 0.006667
0.713571 0.014534 0.005687
0.749122 0.013698 0.004728
0.783943 0.012878 0.003788
0.824467 0.011949 0.002741
0.874460 0.010836 0.001512
0.919241 0.009829 0.000392
0.958826 0.008927 0.000000
0.993200 0.008130 0.000000
1.000000 0.007440 0.000000
1.000000 0.006861 0.000000
1.000000 0.006399 0.000000
1.000000 0.006073 0.000000
1.000000 0.005930 0.000000
0.026960 0.056928 0.021635
0.054956 0.056269 0.020879
0.083682 0.055593 0.020104
0.113138 0.054900 0.019309
0.143324 0.054190 0.018494
0.174241 0.053462 0.017659
0.205888 0.052717 0.016805
0.238264 0.051955 0.015931
0.271371 0.051176 0.015037
0.305209 0.050380 0.014124
0.339776 0.049566 0.013191
0.375073 0.048736 0.012238
0.411101 0.047888 0.011265
0.447859 0.047023 0.010273
0.485347 0.046140 0.009261
0.523565 0.045241 0.008229
0.562436 0.044326 0.007180
0.600907 0.043421 0.006142
0.638648 0.042533 0.005123
0.675660 0.041661 0.004124
0.711941 0.040808 0.003144
0.747491 0.039971 0.002184
0.782312 0.039151 0.001245
0.822944 0.038220 0.000195
0.872913 0.037108 0.000000
0.917669 0.036101 0.000000
0.957229 0.035199 0.000000
0.991576 0.034403 0.000000
1.000000 0.033714 0.000000
1.000000 0.033135 0.000000
1.000000 0.032674 0.000000
1.000000 0.032349 0.000000
1.000000 0.032207 0.000000
0.025287 0.083889 0.019025
0.053283 0.083230 0.018270
0.082009 0.082554 0.017494
0.111465 0.081861 0.016699
0.141651 0.081151 0.015884
0.172568 0.080423 0.015049
0.204214 0.079678 0.014195
0.236591 0.078916 0.013321
0.269698 0.078137 0.012427
0.303535 0.077341 0.011514
0.338103 0.076527 0.010581
0.373400 0.075697 0.009628
0.409428 0.074849 0.008655
0.446186 0.073984 0.007663
0.483674 0.073101 0.006651
0.521892 0.072202 0.005620
0.560762 0.071287 0.004570
0.599234 0.070382 0.003532
0.636975 0.069494 0.002513
0.673987 0.068623 0.001514
0.710268 0.067769 0.000534
0.745818 0.066932 0.000000
0.780639 0.066113 0.000000
0.821381 0.065179 0.000000
0.871326 0.064067 0.000000
0.916056 0.063061 0.000000
0.955590 0.062160 0.000000
0.989908 0.061364 0.000000
1.000000 0.060675 0.000000
1.000000 0.060097 0.000000
1.000000 0.059637 0.000000
1.000000 0.059313 0.000000
1.000000 0.059171 0.000000
0.023571 0.111538 0.016349
0.051567 0.110879 0.015593
0.080293 0.110203 0.014818
0.109749 0.109510 0.014023
0.139936 0.108800 0.013208
0.170852 0.108072 0.012373
0.202499 0.107327 0.011519
0.234875 0.106565 0.010645
0.267982 0.105786 0.009751
0.301820 0.104990 0.008838
0.336387 0.104176 0.007904
0.371684 0.103346 0.006952
0.407712 0.102498 0.005979
0.444470 0.101633 0.004987
0.481958 0.100750 0.003975
0.520176 0.099851 0.002943
0.559047 0.098936 0.001894
0.597518 0.098031 0.000855
0.635260 0.097142 0.000000
0.672271 0.096271 0.000000
0.708552 0.095418 0.000000
0.744103 0.094581 0.000000
0.778923 0.093761 0.000000
0.819778 0.092826 0.000000
0.869698 0.091714 0.000000
0.914402 0.090708 0.000000
0.953909 0.089808 0.000000
0.988198 0.089013 0.000000
1.000000 0.088325 0.000000
1.000000 0.087747 0.000000
1.000000 0.087288 0.000000
1.000000 0.086965 0.000000
1.000000 0.086824 0.000000
0.021813 0.139875 0.013606
0.049809 0.139216 0.012850
0.078535 0.138540 0.012075
0.107991 0.137847 0.011279
0.138177 0.137136 0.010465
0.169094 0.136409 0.009630
0.200740 0.135664 0.008776
0.233117 0.134902 0.007902
0.266224 0.134123 0.007008
0.300061 0.133326 0.006095
0.334628 0.132513 0.005161
0.369926 0.131682 0.004209
0.405954 0.130834 0.003236
0.442711 0.129969 0.002244
0.480200 0.129087 0.001232
0.518418 0.128188 0.000200
0.557288 0.127273 0.000000
0.595760 0.126367 0.000000
0.633501 0.125479 0.000000
0.670512 0.124608 0.000000
0.706793 0.123754 0.000000
0.742344 0.122918 0.000000
0.777165 0.122098 0.000000
0.818135 0.121160 0.000000
0.868029 0.120049 0.000000
0.912707 0.119044 0.000000
0.952185 0.118144 0.000000
0.986445 0.117349 0.000000
1.000000 0.116662 0.000000
1.000000 0.116085 0.000000
1.000000 0.115626 0.000000
1.000000 0.115304 0.000000
1.000000 0.115165 0.000000
0.020012 0.168899 0.010796
0.048008 0.168240 0.010040
0.076734 0.167564 0.009265
0.106190 0.166871 0.008470
0.136376 0.166161 0.007655
0.167292 0.165433 0.006820
0.198939 0.164688 0.005966
0.231316 0.163926 0.005092
0.264423 0.163147 0.004198
0.298260 0.162351 0.003285
0.332827 0.161537 0.002352
0.368125 0.160707 0.001399
0.404152 0.159859 0.000426
0.440910 0.158994 0.000000
0.478398 0.158111 0.000000
0.516617 0.157212 0.000000
0.555487 0.156297 0.000000
0.593959 0.155392 0.000000
0.631700 0.154504 0.000000
0.668711 0.153633 0.000000
0.704992 0.152779 0.000000
0.740543 0.151942 0.000000
0.775364 0.151123 0.000000
0.816452 0.150182 0.000000
0.866319 0.149072 0.000000
0.910970 0.148067 0.000000
0.950420 0.147167 0.000000
0.984650 0.146374 0.000000
1.000000 0.145687 0.000000
1.000000 0.145111 0.000000
1.000000 0.144653 0.000000
1.000000 0.144332 0.000000
1.000000 0.144194 0.000000
0.018168 0.198612 0.007920
0.046164 0.197953 0.007164
0.074890 0.197277 0.006389
0.104346 0.196583 0.005594
0.134532 0.195873 0.004779
0.165449 0.195145 0.003944
0.197095 0.194401 0.003090
0.229472 0.193639 0.002216
0.262579 0.192859 0.001322
0.296416 0.192063 0.000409
0.330983 0.191250 0.000000
0.366281 0.190419 0.000000
0.402309 0.189571 0.000000
0.439067 0.188706 0.000000
0.476555 0.187824 0.000000
0.514773 0.186924 0.000000
0.553643 0.186009 0.000000
0.592115 0.185104 0.000000
0.629856 0.184216 0.000000
0.666867 0.183345 0.000000
0.703148 0.182491 0.000000
0.738699 0.181654 0.000000
0.773520 0.180835 0.000000
0.814729 0.179892 0.000000
0.864569 0.178782 0.000000
0.909192 0.177778 0.000000
0.948612 0.176879 0.000000
0.982811 0.176086 0.000000
1.000000 0.175400 0.000000
1.000000 0.174824 0.000000
1.000000 0.174367 0.000000
1.000000 0.174048 0.000000
1.000000 0.173910 0.000000
0.016281 0.229012 0.004977
0.044277 0.228353 0.004222
0.073003 0.227677 0.003446
0.102459 0.226983 0.002651
0.132646 0.226273 0.001836
0.163562 0.225545 0.001001
0.195209 0.224801 0.000147
0.227585 0.224039 0.000000
0.260692 0.223260 0.000000
0.294530 0.222463 0.000000
0.329097 0.221650 0.000000
0.364394 0.220819 0.000000
0.400422 0.219971 0.000000
0.437180 0.219106 0.000000
0.474668 0.218224 0.000000
0.512886 0.217324 0.000000
0.551757 0.216410 0.000000
0.590228 0.215504 0.000000
0.627970 0.214616 0.000000
0.664981 0.213745 0.000000
0.701262 0.212891 0.000000
0.736813 0.212054 0.000000
0.771633 0.211235 0.000000
0.812965 0.210290 0.000000
0.862779 0.209180 0.000000
0.907372 0.208177 0.000000
0.946763 0.207278 0.000000
0.980930 0.206486 0.000000
1.000000 0.205800 0.000000
1.000000 0.205226 0.000000
1.000000 0.204770 0.000000
1.000000 0.204451 0.000000
1.000000 0.204315 0.000000
0.014352 0.260099 0.001968
0.042348 0.259441 0.001212
0.071074 0.258765 0.000437
0.100530 0.258071 0.000000
0.130716 0.257361 0.000000
0.161633 0.256633 0.000000
0.193279 0.255889 0.000000
0.225656 0.255127 0.000000
0.258763 0.254347 0.000000
0.292600 0.253551 0.000000
0.327168 0.252738 0.000000
0.362465 0.251907 0.000000
0.398493 0.251059 0.000000
0.435251 0.250194 0.000000
0.472739 0.249312 0.000000
0.510957 0.248412 0.000000
0.549828 0.247497 0.000000
0.588299 0.246592 0.000000
0.626040 0.245704 0.000000
0.663052 0.244833 0.000000
0.699333 0.243979 0.000000
0.734883 0.243142 0.000000
0.769704 0.242323 0.000000
0.811162 0.241375 0.000000
0.860947 0.240266 0.000000
0.905511 0.239263 0.000000
0.944872 0.238365 0.000000
0.979006 0.237573 0.000000
1.000000 0.236889 0.000000
1.000000 0.236315 0.000000
1.000000 0.235860 0.000000
1.000000 0.235542 0.000000
1.000000 0.235407 0.000000
0.012380 0.291875 0.000000
0.040376 0.291216 0.000000
0.069102 0.290540 0.000000
0.098558 0.289847 0.000000
0.128744 0.289137 0.000000
0.159661 0.288409 0.000000
0.191308 0.287664 0.000000
0.223684 0.286902 0.000000
0.256791 0.286123 0.000000
0.290629 0.285327 0.000000
0.325196 0.284513 0.000000
0.360493 0.283682 0.000000
0.396521 0.282835 0.000000
0.433279 0.281970 0.000000
0.470767 0.281087 0.000000
0.508985 0.280188 0.000000
0.547856 0.279273 0.000000
0.586327 0.278368 0.000000
0.624069 0.277479 0.000000
0.661080 0.276608 0.000000
0.697361 0.275754 0.000000
0.732912 0.274918 0.000000
0.767732 0.274098 0.000000
0.809319 0.273148 0.000000
0.859075 0.272040 0.000000
0.903609 0.271038 0.000000
0.942938 0.270140 0.000000
0.977040 0.269349 0.000000
1.000000 0.268665 0.000000
1.000000 0.268092 0.000000
1.000000 0.267638 0.000000
1.000000 0.267321 0.000000
1.000000 0.267187 0.000000
0.010366 0.324339 0.000000
0.038362 0.323680 0.000000
0.067088 0.323004 0.000000
0.096544 0.322310 0.000000
0.126730 0.321600 0.000000
0.157646 0.320872 0.000000
0.189293 0.320128 0.000000
0.221670 0.319366 0.000000
0.254777 0.318587 0.000000
0.288614 0.317790 0.000000
0.323181 0.316977 0.000000
0.358479 0.316146 0.000000
0.394506 0.315298 0.000000
0.431264 0.314433 0.000000
0.468752 0.313551 0.000000
0.506971 0.312651 0.000000
0.545841 0.311736 0.000000
0.584313 0.310831 0.000000
0.622054 0.309943 0.000000
0.659065 0.309072 0.000000
0.695346 0.308218 0.000000
0.730897 0.307381 0.000000
0.765718 0.306562 0.000000
0.807435 0.305609 0.000000
0.857162 0.304502 0.000000
0.901666 0.303500 0.000000
0.940962 0.302603 0.000000
0.975030 0.301812 0.000000
1.000000 0.301129 0.000000
1.000000 0.300557 0.000000
1.000000 0.300103 0.000000
1.000000 0.299789 0.000000
1.000000 0.299655 0.000000
0.008309 0.357490 0.000000
0.036304 0.356831 0.000000
0.065030 0.356155 0.000000
0.094486 0.355462 0.000000
0.124673 0.354751 0.000000
0.155589 0.354024 0.000000
0.187236 0.353279 0.000000
0.219613 0.352517 0.000000
0.252720 0.351738 0.000000
0.286557 0.350941 0.000000
0.321124 0.350128 0.000000
0.356422 0.349297 0.000000
0.392449 0.348449 0.000000
0.429207 0.347584 0.000000
0.466695 0.346702 0.000000
0.504913 0.345803 0.000000
0.543784 0.344888 0.000000
0.582255 0.343982 0.000000
0.619997 0.343094 0.000000
0.657008 0.342223 0.000000
0.693289 0.341369 0.000000
0.728840 0.340533 0.000000
0.763660 0.339713 0.000000
0.805511 0.338758 0.000000
0.855208 0.337651 0.000000
0.899681 0.336649 0.000000
0.938944 0.335754 0.000000
0.972978 0.334964 0.000000
1.000000 0.334281 0.000000
1.000000 0.333710 0.000000
1.000000 0.333257 0.000000
1.000000 0.332943 0.000000
1.000000 0.332954 0.000000
0.006209 0.391329 0.000000
0.034204 0.390670 0.000000
0.062930 0.389994 0.000000
0.092386 0.389301 0.000000
0.122573 0.388590 0.000000
0.153489 0.387863 0.000000
0.185136 0.387118 0.000000
0.217513 0.386356 0.000000
0.250620 0.385577 0.000000
0.284457 0.384780 0.000000
0.319024 0.383967 0.000000
0.354322 0.383136 0.000000
0.390349 0.382288 0.000000
0.427107 0.381423 0.000000
0.464595 0.380541 0.000000
0.502813 0.379642 0.000000
0.541684 0.378727 0.000000
0.580155 0.377821 0.000000
0.617897 0.376933 0.000000
0.654908 0.376062 0.000000
0.691189 0.375208 0.000000
0.726740 0.374372 0.000000
0.761560 0.373552 0.000000
0.803548 0.372594 0.000000
0.853213 0.371488 0.000000
0.897654 0.370487 0.000000
0.936885 0.369592 0.000000
0.970946 0.368820 0.000000
1.000000 0.368289 0.000000
1.000000 0.367869 0.000000
1.000000 0.367568 0.000000
1.000000 0.367410 0.000000
1.000000 0.367432 0.000000
0.004066 0.425856 0.000000
0.032062 0.425197 0.000000
0.060788 0.424521 0.000000
0.090244 0.423828 0.000000
0.120430 0.423117 0.000000
0.151347 0.422390 0.000000
0.182993 0.421645 0.000000
0.215370 0.420883 0.000000
0.248477 0.420104 0.000000
0.282314 0.419307 0.000000
0.316882 0.418494 0.000000
0.352179 0.417663 0.000000
0.388207 0.416815 0.000000
0.424965 0.415950 0.000000
0.462453 0.415068 0.000000
0.500671 0.414168 0.000000
0.539541 0.413254 0.000000
0.578013 0.412348 0.000000
0.615754 0.411460 0.000000
0.652765 0.410589 0.000000
0.689046 0.409735 0.000000
0.724597 0.408898 0.000000
0.759418 0.408079 0.000000
0.801544 0.407118 0.000000
0.851955 0.406163 0.000000
0.897014 0.405320 0.000000
0.936689 0.404583 0.000000
0.970946 0.403951 0.000000
0.999687 0.403427 0.000000
1.000000 0.403015 0.000000
1.000000 0.402725 0.000000
1.000000 0.402581 0.000000
1.000000 0.402610 0.000000
0.001881 0.461070 0.000000
0.029876 0.460412 0.000000
0.058602 0.459736 0.000000
0.088059 0.459042 0.000000
0.118245 0.458332 0.000000
0.149161 0.457604 0.000000
0.180808 0.456859 0.000000
0.213185 0.456097 0.000000
0.246292 0.455318 0.000000
0.280129 0.454522 0.000000
0.314696 0.453708 0.000000
0.349994 0.452878 0.000000
0.386021 0.452030 0.000000
0.422779 0.451165 0.000000
0.460267 0.450283 0.000000
0.498485 0.449383 0.000000
0.537356 0.448468 0.000000
0.575828 0.447563 0.000000
0.613569 0.446675 0.000000
0.650580 0.445804 0.000000
0.687207 0.445049 0.000000
0.723364 0.444386 0.000000
0.758780 0.443736 0.000000
0.802808 0.442916 0.000000
0.852949 0.441974 0.000000
0.897685 0.441138 0.000000
0.937020 0.440407 0.000000
0.970917 0.439782 0.000000
0.999268 0.439266 0.000000
1.000000 0.438863 0.000000
1.000000 0.438582 0.000000
1.000000 0.438455 0.000000
1.000000 0.438490 0.000000
0.000000 0.496973 0.000000
0.027649 0.496314 0.000000
0.056374 0.495638 0.000000
0.085831 0.494945 0.000000
0.116017 0.494234 0.000000
0.146933 0.493507 0.000000
0.178580 0.492762 0.000000
0.210957 0.492000 0.000000
0.244064 0.491221 0.000000
0.277901 0.490424 0.000000
0.312468 0.489611 0.000000
0.347766 0.488780 0.000000
0.383793 0.487932 0.000000
0.420551 0.487067 0.000000
0.458039 0.486185 0.000000
0.496257 0.485286 0.000000
0.535128 0.484371 0.000000
0.574247 0.483651 0.000000
0.612633 0.482947 0.000000
0.650276 0.482256 0.000000
0.687177 0.481580 0.000000
0.723334 0.480917 0.000000
0.758750 0.480267 0.000000
0.804117 0.479421 0.000000
0.853939 0.478485 0.000000
0.898344 0.477655 0.000000
0.937331 0.476931 0.000000
0.970858 0.476314 0.000000
0.998807 0.475806 0.000000
1.000000 0.475411 0.000000
1.000000 0.475141 0.000000
1.000000 0.475032 0.000000
1.000000 0.475070 0.000000
0.000000 0.533504 0.000000
0.025382 0.532845 0.000000
0.054107 0.532169 0.000000
0.083564 0.531476 0.000000
0.113750 0.530765 0.000000
0.144666 0.530038 0.000000
0.176313 0.529293 0.000000
0.208690 0.528531 0.000000
0.241797 0.527752 0.000000
0.275634 0.526956 0.000000
0.310201 0.526142 0.000000
0.345499 0.525311 0.000000
0.381526 0.524463 0.000000
0.418556 0.523676 0.000000
0.456684 0.522977 0.000000
0.495554 0.522264 0.000000
0.535089 0.521539 0.000000
0.574217 0.520821 0.000000
0.612603 0.520117 0.000000
0.650246 0.519427 0.000000
0.687146 0.518750 0.000000
0.723304 0.518087 0.000000
0.758719 0.517438 0.000000
0.805425 0.516565 0.000000
0.854922 0.515636 0.000000
0.898987 0.514813 0.000000
0.937618 0.514096 0.000000
0.970765 0.513486 0.000000
0.998302 0.512986 0.000000
1.000000 0.512600 0.000000
1.000000 0.512342 0.000000
1.000000 0.512252 0.000000
1.000000 0.512291 0.000000
0.000000 0.569691 0.000000
0.023136 0.569032 0.000000
0.051862 0.568356 0.000000
0.081318 0.567663 0.000000
0.111504 0.566952 0.000000
0.142421 0.566225 0.000000
0.174067 0.565480 0.000000
0.206444 0.564718 0.000000
0.239551 0.563939 0.000000
0.273440 0.563157 0.000000
0.308597 0.562512 0.000000
0.344497 0.561854 0.000000
0.381140 0.561182 0.000000
0.418526 0.560496 0.000000
0.456654 0.559797 0.000000
0.495524 0.559084 0.000000
0.535058 0.558359 0.000000
0.574187 0.557642 0.000000
0.612573 0.556938 0.000000
0.650216 0.556248 0.000000
0.687116 0.555571 0.000000
0.723274 0.554908 0.000000
0.758689 0.554258 0.000000
0.806698 0.553360 0.000000
0.855871 0.552437 0.000000
0.899598 0.551621 0.000000
0.937874 0.550911 0.000000
0.970642 0.550308 0.000000
0.997766 0.549816 0.000000
1.000000 0.549440 0.000000
1.000000 0.549193 0.000000
1.000000 0.549122 0.000000
1.000000 0.549161 0.000000
0.000000 0.605190 0.000000
0.020933 0.604531 0.000000
0.049659 0.603855 0.000000
0.079115 0.603162 0.000000
0.109301 0.602451 0.000000
0.140218 0.601724 0.000000
0.172393 0.601130 0.000000
0.205323 0.600526 0.000000
0.238995 0.599909 0.000000
0.273410 0.599278 0.000000
0.308568 0.598633 0.000000
0.344468 0.597975 0.000000
0.381111 0.597303 0.000000
0.418496 0.596617 0.000000
0.456624 0.595918 0.000000
0.495495 0.595205 0.000000
0.535029 0.594480 0.000000
0.574157 0.593762 0.000000
0.612543 0.593058 0.000000
0.650186 0.592368 0.000000
0.687086 0.591691 0.000000
0.723244 0.591028 0.000000
0.758659 0.590379 0.000000
0.807923 0.589455 0.000000
0.856777 0.588539 0.000000
0.900172 0.587729 0.000000
0.938097 0.587026 0.000000
0.970491 0.586431 0.000000
0.997205 0.585947 0.000000
1.000000 0.585580 0.000000
1.000000 0.585344 0.000000
1.000000 0.585292 0.000000
1.000000 0.585427 0.000000
0.000000 0.640001 0.000000
0.018856 0.639366 0.000000
0.048072 0.638830 0.000000
0.078031 0.638281 0.000000
0.108733 0.637718 0.000000
0.140177 0.637141 0.000000
0.172364 0.636551 0.000000
0.205294 0.635947 0.000000
0.238966 0.635329 0.000000
0.273381 0.634698 0.000000
0.308539 0.634054 0.000000
0.344439 0.633395 0.000000
0.381081 0.632723 0.000000
0.418467 0.632038 0.000000
0.456595 0.631338 0.000000
0.495466 0.630626 0.000000
0.535000 0.629901 0.000000
0.574128 0.629183 0.000000
0.612514 0.628479 0.000000
0.650157 0.627789 0.000000
0.687057 0.627112 0.000000
0.723215 0.626449 0.000000
0.758630 0.625800 0.000000
0.809103 0.624852 0.000000
0.857643 0.623942 0.000000
0.900709 0.623139 0.000000
0.938289 0.622443 0.000000
0.970301 0.621876 0.000000
0.996555 0.621517 0.000000
1.000000 0.621273 0.000000
1.000000 0.621160 0.000000
1.000000 0.621230 0.000000
1.000000 0.621374 0.000000
0.000000 0.674609 0.000000
0.018828 0.674087 0.000000
0.048044 0.673551 0.000000
0.078003 0.673002 0.000000
0.108705 0.672439 0.000000
0.140149 0.671862 0.000000
0.172336 0.671272 0.000000
0.205266 0.670668 0.000000
0.238938 0.670050 0.000000
0.273353 0.669419 0.000000
0.308510 0.668775 0.000000
0.344410 0.668116 0.000000
0.381053 0.667444 0.000000
0.418438 0.666759 0.000000
0.456566 0.666059 0.000000
0.495437 0.665347 0.000000
0.534971 0.664622 0.000000
0.574100 0.663904 0.000000
0.612485 0.663200 0.000000
0.650128 0.662510 0.000000
0.687029 0.661833 0.000000
0.723187 0.661170 0.000000
0.758602 0.660520 0.000000
0.810239 0.659550 0.000000
0.858370 0.658771 0.000000
0.901031 0.658100 0.000000
0.938208 0.657534 0.000000
0.969828 0.657073 0.000000
0.995724 0.656722 0.000000
1.000000 0.656486 0.000000
1.000000 0.656383 0.000000
1.000000 0.656467 0.000000
1.000000 0.656611 0.000000
0.000000 0.708630 0.000000
0.018800 0.708108 0.000000
0.048016 0.707572 0.000000
0.077975 0.707023 0.000000
0.108677 0.706460 0.000000
0.140121 0.705883 0.000000
0.172308 0.705293 0.000000
0.205238 0.704689 0.000000
0.238910 0.704071 0.000000
0.273325 0.703440 0.000000
0.308482 0.702796 0.000000
0.344382 0.702137 0.000000
0.381025 0.701465 0.000000
0.418411 0.700780 0.000000
0.456539 0.700080 0.000000
0.495409 0.699368 0.000000
0.534943 0.698643 0.000000
0.574072 0.697925 0.000000
0.612458 0.697221 0.000000
0.650101 0.696531 0.000000
0.686968 0.695909 0.000000
0.723042 0.695383 0.000000
0.758375 0.694869 0.000000
0.810937 0.694011 0.000000
0.858792 0.693242 0.000000
0.901168 0.692577 0.000000
0.938045 0.692016 0.000000
0.969343 0.691562 0.000000
0.994884 0.691218 0.000000
1.000000 0.690990 0.000000
1.000000 0.690898 0.000000
1.000000 0.690993 0.000000
1.000000 0.691137 0.000000
0.000000 0.741951 0.000000
0.018772 0.741429 0.000000
0.047989 0.740893 0.000000
0.077948 0.740344 0.000000
0.108650 0.739781 0.000000
0.140094 0.739204 0.000000
0.172281 0.738614 0.000000
0.205210 0.738010 0.000000
0.238883 0.737393 0.000000
0.273297 0.736762 0.000000
0.308455 0.736117 0.000000
0.344355 0.735458 0.000000
0.380998 0.734786 0.000000
0.418383 0.734101 0.000000
0.456511 0.733402 0.000000
0.495382 0.732689 0.000000
0.534916 0.731964 0.000000
0.573996 0.731326 0.000000
0.612293 0.730768 0.000000
0.649849 0.730221 0.000000
0.686664 0.729685 0.000000
0.722738 0.729159 0.000000
0.758508 0.728636 0.000000
0.811600 0.727768 0.000000
0.859187 0.727004 0.000000
0.901284 0.726344 0.000000
0.937865 0.725790 0.000000
0.968846 0.725342 0.000000
0.994037 0.725004 0.000000
1.000000 0.724785 0.000000
1.000000 0.724703 0.000000
1.000000 0.724810 0.000000
1.000000 0.724953 0.000000
0.000000 0.776998 0.000000
0.018576 0.776496 0.000000
0.047791 0.775982 0.000000
0.077748 0.775454 0.000000
0.108448 0.774914 0.000000
0.139891 0.774360 0.000000
0.172076 0.773793 0.000000
0.205004 0.773213 0.000000
0.238675 0.772620 0.000000
0.273088 0.772014 0.000000
0.308243 0.771394 0.000000
0.344142 0.770762 0.000000
0.380783 0.770117 0.000000
0.418166 0.769458 0.000000
0.456242 0.768908 0.000000
0.495015 0.768458 0.000000
0.534450 0.768000 0.000000
0.573479 0.767546 0.000000
0.611768 0.767101 0.000000
0.649316 0.766664 0.000000
0.686124 0.766236 0.000000
0.722191 0.765816 0.000000
0.759138 0.765373 0.000000
0.811970 0.764611 0.000000
0.859288 0.763951 0.000000
0.901103 0.763394 0.000000
0.937387 0.762939 0.000000
0.968048 0.762590 0.000000
0.992886 0.762349 0.000000
1.000000 0.762225 0.000000
1.000000 0.762239 0.000000
1.000000 0.762438 0.000000
1.000000 0.762663 0.000000
0.000000 0.825648 0.000000
0.017386 0.825142 0.000000
0.046602 0.824623 0.000000
0.076560 0.824091 0.000000
0.107260 0.823545 0.000000
0.138703 0.822987 0.000000
0.170889 0.822415 0.000000
0.203817 0.821830 0.000000
0.237488 0.821232 0.000000
0.271901 0.820620 0.000000
0.307057 0.819995 0.000000
0.342901 0.819483 0.000000
0.379453 0.819035 0.000000
0.416746 0.818579 0.000000
0.454780 0.818113 0.000000
0.493554 0.817638 0.000000
0.532990 0.817155 0.000000
0.572022 0.816676 0.000000
0.610312 0.816207 0.000000
0.647862 0.815746 0.000000
0.684671 0.815295 0.000000
0.720740 0.814852 0.000000
0.758834 0.814364 0.000000
0.811419 0.813584 0.000000
0.858480 0.812908 0.000000
0.900027 0.812335 0.000000
0.936026 0.811865 0.000000
0.966380 0.811502 0.000000
0.990878 0.811248 0.000000
1.000000 0.811112 0.000000
1.000000 0.811118 0.000000
1.000000 0.811308 0.000000
1.000000 0.811515 0.000000
0.000000 0.869312 0.000000
0.016496 0.868802 0.000000
0.045711 0.868278 0.000000
0.075670 0.867741 0.000000
0.106370 0.867191 0.000000
0.137814 0.866627 0.000000
0.170000 0.866051 0.000000
0.202928 0.865460 0.000000
0.236530 0.865003 0.000000
0.270861 0.864561 0.000000
0.305933 0.864109 0.000000
0.341746 0.863647 0.000000
0.378300 0.863176 0.000000
0.415594 0.862695 0.000000
0.453630 0.862204 0.000000
0.492406 0.861704 0.000000
0.531844 0.861194 0.000000
0.570877 0.860690 0.000000
0.609169 0.860195 0.000000
0.646721 0.859710 0.000000
0.683532 0.859234 0.000000
0.719602 0.858768 0.000000
0.758805 0.858234 0.000000
0.811148 0.857437 0.000000
0.857957 0.856743 0.000000
0.899240 0.856153 0.000000
0.934959 0.855668 0.000000
0.965011 0.855289 0.000000
0.989172 0.855022 0.000000
1.000000 0.854874 0.000000
1.000000 0.854872 0.000000
1.000000 0.855050 0.000000
1.000000 0.855238 0.000000
0.000000 0.908016 0.000000
0.015902 0.907501 0.000000
0.045118 0.906972 0.000000
0.075077 0.906431 0.000000
0.105759 0.905912 0.000000
0.137128 0.905487 0.000000
0.169238 0.905051 0.000000
0.202089 0.904606 0.000000
0.235681 0.904150 0.000000
0.270014 0.903684 0.000000
0.305087 0.903208 0.000000
0.340902 0.902722 0.000000
0.377457 0.902225 0.000000
0.414753 0.901719 0.000000
0.452791 0.901202 0.000000
0.491569 0.900674 0.000000
0.531009 0.900138 0.000000
0.570044 0.899607 0.000000
0.608338 0.899086 0.000000
0.645891 0.898575 0.000000
0.682704 0.898073 0.000000
0.718775 0.897582 0.000000
