Insta_Reels_Cinematic_Warm.cube
# Cinematic Warm — LUT for Instagram Reels
# Warm teal & orange grade with lifted filmic shadows
# Format: 33x33x33 .cube 3D LUT
TITLE "Insta Reels - Cinematic Warm"
LUT_3D_SIZE 5
DOMAIN_MIN 0.0 0.0 0.0
DOMAIN_MAX 1.0 1.0 1.0
0.028591 0.030655 0.024178
0.273002 0.024903 0.017581
0.564066 0.018053 0.009723
0.874460 0.010836 0.001512
1.000000 0.005930 0.000000
0.014352 0.260099 0.001968
0.258763 0.254347 0.000000
0.549828 0.247497 0.000000
0.860947 0.240266 0.000000
1.000000 0.235407 0.000000
0.000000 0.533504 0.000000
0.241797 0.527752 0.000000
0.535089 0.521539 0.000000
0.854922 0.515636 0.000000
1.000000 0.512291 0.000000
0.000000 0.825648 0.000000
0.237488 0.821232 0.000000
0.532990 0.817155 0.000000
0.858480 0.812908 0.000000
1.000000 0.811515 0.000000
0.000000 1.000000 0.000000
0.237788 1.000000 0.000000
0.533240 1.000000 0.000000
0.863027 1.000000 0.000000
1.000000 1.000000 0.000000
0.027158 0.028707 0.269902
0.271569 0.022955 0.263304
0.562634 0.016105 0.255447
0.873101 0.008887 0.247235
1.000000 0.003985 0.241500
0.012920 0.258151 0.247692
0.257331 0.252399 0.241094
0.548395 0.245549 0.233236
0.859587 0.238317 0.225010
1.000000 0.233462 0.219323
0.000000 0.531556 0.221226
0.240364 0.525804 0.214628
0.535069 0.519995 0.204122
0.855530 0.514080 0.192241
1.000000 0.510779 0.183944
0.000000 0.824152 0.185698
0.237462 0.819742 0.176063
0.532763 0.816125 0.166678
0.858713 0.811867 0.156735
1.000000 0.810509 0.150624
0.000000 1.000000 0.160033
0.237603 1.000000 0.152280
0.533055 1.000000 0.143046
0.863220 1.000000 0.133172
1.000000 1.000000 0.127544
0.025457 0.026393 0.561817
0.269868 0.020641 0.555219
0.560932 0.013791 0.547362
0.871486 0.006571 0.539148
1.000000 0.001674 0.533419
0.011218 0.255837 0.539607
0.255629 0.250085 0.533009
0.546693 0.243235 0.525152
0.857971 0.236001 0.516923
1.000000 0.231152 0.511242
0.000000 0.529242 0.513141
0.239013 0.523590 0.506288
0.535047 0.518161 0.494816
0.856239 0.512231 0.482920
1.000000 0.508982 0.474676
0.000000 0.822375 0.476388
0.237192 0.818521 0.467462
0.532492 0.814901 0.458077
0.858979 0.810629 0.448124
1.000000 0.809313 0.442057
0.000000 1.000000 0.451484
0.237384 1.000000 0.443730
0.532836 1.000000 0.434496
0.863438 1.000000 0.424614
1.000000 1.000000 0.419028
0.023671 0.024006 0.865769
0.268088 0.018260 0.858267
0.559160 0.011417 0.849316
0.869807 0.004202 0.840003
1.000000 0.000000 0.833348
0.009453 0.253471 0.840464
0.253870 0.247725 0.832919
0.544942 0.240882 0.823918
0.856312 0.233654 0.814542
1.000000 0.228817 0.807893
0.000000 0.526901 0.810126
0.238934 0.521732 0.800329
0.534988 0.516324 0.785729
0.856908 0.510401 0.770621
1.000000 0.507394 0.760578
0.000000 0.820627 0.762429
0.236926 0.817321 0.753684
0.532226 0.813698 0.744299
0.859228 0.809413 0.734336
1.000000 0.808137 0.728313
0.000000 1.000000 0.737756
0.237168 1.000000 0.730002
0.532620 1.000000 0.720769
0.863639 1.000000 0.710878
1.000000 1.000000 0.705333
0.022376 0.022207 1.000000
0.266776 0.016443 1.000000
0.557828 0.009581 1.000000
0.868527 0.002346 1.000000
1.000000 0.000000 1.000000
0.008102 0.251615 1.000000
0.252503 0.245853 1.000000
0.543556 0.238992 1.000000
0.854978 0.231744 1.000000
1.000000 0.227086 1.000000
0.000000 0.524982 1.000000
0.238872 0.520178 1.000000
0.534881 0.514725 1.000000
0.857338 0.508748 1.000000
1.000000 0.506065 1.000000
0.000000 0.819196 1.000000
0.236537 0.816148 1.000000
0.531826 0.812511 1.000000
0.859240 0.808204 1.000000
1.000000 0.806954 0.998110
0.000000 1.000000 1.000000
0.236791 1.000000 0.999772
0.532233 1.000000 0.992057
0.863584 1.000000 0.983579
1.000000 1.000000 0.979197
