Insta_Reels_Cinematic_Warm.cube
# Cinematic Warm — LUT for Instagram Reels
# Warm teal & orange grade with lifted filmic shadows
# Format: 33x33x33 .cube 3D LUT
TITLE "Insta Reels - Cinematic Warm"
LUT_3D_SIZE 9
DOMAIN_MIN 0.0 0.0 0.0
DOMAIN_MAX 1.0 1.0 1.0
0.028591 0.030655 0.024178
0.144955 0.027916 0.021037
0.273002 0.024903 0.017581
0.412731 0.021614 0.013809
0.564066 0.018053 0.009723
0.713571 0.014534 0.005687
0.874460 0.010836 0.001512
1.000000 0.007440 0.000000
1.000000 0.005930 0.000000
0.021813 0.139875 0.013606
0.138177 0.137136 0.010465
0.266224 0.134123 0.007008
0.405954 0.130834 0.003236
0.557288 0.127273 0.000000
0.706793 0.123754 0.000000
0.868029 0.120049 0.000000
1.000000 0.116662 0.000000
1.000000 0.115165 0.000000
0.014352 0.260099 0.001968
0.130716 0.257361 0.000000
0.258763 0.254347 0.000000
0.398493 0.251059 0.000000
0.549828 0.247497 0.000000
0.699333 0.243979 0.000000
0.860947 0.240266 0.000000
1.000000 0.236889 0.000000
1.000000 0.235407 0.000000
0.006209 0.391329 0.000000
0.122573 0.388590 0.000000
0.250620 0.385577 0.000000
0.390349 0.382288 0.000000
0.541684 0.378727 0.000000
0.691189 0.375208 0.000000
0.853213 0.371488 0.000000
1.000000 0.368289 0.000000
1.000000 0.367432 0.000000
0.000000 0.533504 0.000000
0.113750 0.530765 0.000000
0.241797 0.527752 0.000000
0.381526 0.524463 0.000000
0.535089 0.521539 0.000000
0.687146 0.518750 0.000000
0.854922 0.515636 0.000000
0.998302 0.512986 0.000000
1.000000 0.512291 0.000000
0.000000 0.674609 0.000000
0.108705 0.672439 0.000000
0.238938 0.670050 0.000000
0.381053 0.667444 0.000000
0.534971 0.664622 0.000000
0.687029 0.661833 0.000000
0.858370 0.658771 0.000000
0.995724 0.656722 0.000000
1.000000 0.656611 0.000000
0.000000 0.825648 0.000000
0.107260 0.823545 0.000000
0.237488 0.821232 0.000000
0.379453 0.819035 0.000000
0.532990 0.817155 0.000000
0.684671 0.815295 0.000000
0.858480 0.812908 0.000000
0.990878 0.811248 0.000000
1.000000 0.811515 0.000000
0.000000 0.970813 0.000000
0.104986 0.969037 0.000000
0.234922 0.967080 0.000000
0.376713 0.964942 0.000000
0.530281 0.962623 0.000000
0.681992 0.960329 0.000000
0.858105 0.957496 0.000000
0.985891 0.955560 0.000000
1.000000 0.955592 0.000000
0.000000 1.000000 0.000000
0.107811 1.000000 0.000000
0.237788 1.000000 0.000000
0.379624 1.000000 0.000000
0.533240 1.000000 0.000000
0.684999 1.000000 0.000000
0.863027 1.000000 0.000000
0.986536 1.000000 0.000000
1.000000 1.000000 0.000000
0.027908 0.029727 0.141247
0.144272 0.026988 0.138106
0.272319 0.023975 0.134649
0.412049 0.020686 0.130877
0.563384 0.017125 0.126792
0.712889 0.013606 0.122756
0.873813 0.009907 0.118580
1.000000 0.006512 0.114749
1.000000 0.005003 0.112843
0.021131 0.138947 0.130674
0.137495 0.136208 0.127533
0.265542 0.133195 0.124077
0.405271 0.129906 0.120305
0.556606 0.126345 0.116219
0.706111 0.122826 0.112183
0.867381 0.119120 0.108001
1.000000 0.115734 0.104178
1.000000 0.114239 0.102286
0.013670 0.259171 0.119037
0.130034 0.256433 0.115895
0.258081 0.253419 0.112439
0.397810 0.250131 0.108667
0.549145 0.246569 0.104581
0.698650 0.243051 0.100546
0.860299 0.239338 0.096356
1.000000 0.235961 0.092542
1.000000 0.234480 0.090666
0.005526 0.390401 0.106333
0.121890 0.387662 0.103192
0.249937 0.384649 0.099736
0.389667 0.381360 0.095964
0.541001 0.377799 0.091878
0.690506 0.374280 0.087842
0.852565 0.370559 0.083644
0.999949 0.367555 0.078932
1.000000 0.366711 0.075711
0.000000 0.532576 0.092571
0.113067 0.529837 0.089429
0.241114 0.526824 0.085973
0.381161 0.523626 0.081970
0.535079 0.520803 0.076005
0.687137 0.518015 0.070113
0.855213 0.514894 0.064131
0.998143 0.512253 0.058870
1.000000 0.511570 0.055811
0.000000 0.673874 0.077236
0.108696 0.671703 0.072650
0.238929 0.669315 0.067603
0.381044 0.666709 0.062095
0.534962 0.663886 0.056130
0.687020 0.661097 0.050238
0.858511 0.658183 0.044709
0.995451 0.656143 0.040486
1.000000 0.656042 0.038405
0.000000 0.824935 0.057583
0.107249 0.822833 0.052992
0.237477 0.820519 0.047940
0.379345 0.818545 0.043130
0.532882 0.816664 0.038250
0.684563 0.814803 0.033430
0.858592 0.812412 0.028312
0.990565 0.810759 0.024166
1.000000 0.811036 0.022182
0.000000 0.970211 0.040164
0.104885 0.968434 0.036435
0.234821 0.966477 0.032331
0.376612 0.964338 0.027854
0.530180 0.962018 0.023005
0.681891 0.959723 0.018214
0.858204 0.956886 0.013080
0.985554 0.954958 0.009051
1.000000 0.954998 0.007188
0.000000 1.000000 0.031583
0.107723 1.000000 0.027892
0.237700 1.000000 0.023830
0.379536 1.000000 0.019397
0.533152 1.000000 0.014596
0.684911 1.000000 0.009853
0.863120 1.000000 0.004726
0.986181 1.000000 0.000823
1.000000 1.000000 0.000000
0.027158 0.028707 0.269902
0.143522 0.025968 0.266761
0.271569 0.022955 0.263304
0.411299 0.019666 0.259532
0.562634 0.016105 0.255447
0.712139 0.012586 0.251411
0.873101 0.008887 0.247235
1.000000 0.005492 0.243404
1.000000 0.003985 0.241500
0.020380 0.137927 0.259329
0.136745 0.135188 0.256188
0.264792 0.132175 0.252732
0.404521 0.128886 0.248960
0.555856 0.125325 0.244874
0.705361 0.121806 0.240838
0.866669 0.118100 0.236655
1.000000 0.114714 0.232833
1.000000 0.113220 0.230943
0.012920 0.258151 0.247692
0.129284 0.255413 0.244550
0.257331 0.252399 0.241094
0.397060 0.249111 0.237322
0.548395 0.245549 0.233236
0.697900 0.242031 0.229201
0.859587 0.238317 0.225010
1.000000 0.234941 0.221198
1.000000 0.233462 0.219323
0.004776 0.389381 0.234988
0.121140 0.386642 0.231847
0.249187 0.383629 0.228391
0.388917 0.380340 0.224619
0.540251 0.376779 0.220533
0.689756 0.373260 0.216497
0.851853 0.369538 0.212298
0.999816 0.366750 0.207051
1.000000 0.365919 0.203844
0.000000 0.531556 0.221226
0.112317 0.528817 0.218084
0.240364 0.525804 0.214628
0.381151 0.522818 0.210087
0.535069 0.519995 0.204122
0.687127 0.517206 0.198229
0.855530 0.514080 0.192241
0.997964 0.511448 0.186990
1.000000 0.510779 0.183944
0.000000 0.673065 0.205353
0.108685 0.670895 0.200766
0.238918 0.668506 0.195719
0.381034 0.665900 0.190212
0.534952 0.663078 0.184247
0.687010 0.660289 0.178355
0.858663 0.657537 0.173138
0.995147 0.655506 0.168924
1.000000 0.655416 0.166854
0.000000 0.824152 0.185698
0.107237 0.822050 0.181107
0.237462 0.819742 0.176063
0.379225 0.818007 0.171558
0.532763 0.816125 0.166678
0.684444 0.814264 0.161857
0.858713 0.811867 0.156735
0.990218 0.810223 0.152598
1.000000 0.810509 0.150624
0.000000 0.969550 0.168600
0.104775 0.967772 0.164871
0.234711 0.965814 0.160767
0.376502 0.963674 0.156290
0.530070 0.961353 0.151441
0.681781 0.959057 0.146650
0.858311 0.956215 0.141512
0.985180 0.954295 0.137493
1.000000 0.954344 0.135640
0.000000 1.000000 0.160033
0.107626 1.000000 0.156342
0.237603 1.000000 0.152280
0.379439 1.000000 0.147847
0.533055 1.000000 0.143046
0.684814 1.000000 0.138303
0.863220 1.000000 0.133172
0.985787 1.000000 0.129279
1.000000 1.000000 0.127544
0.026341 0.027595 0.410143
0.142705 0.024857 0.407002
0.270752 0.021843 0.403546
0.410481 0.018555 0.399774
0.561816 0.014993 0.395688
0.711321 0.011474 0.391652
0.872325 0.007774 0.387475
1.000000 0.004381 0.383645
1.000000 0.002875 0.381743
0.019563 0.136815 0.399571
0.135927 0.134076 0.396430
0.263974 0.131063 0.392973
0.403704 0.127774 0.389201
0.555038 0.124213 0.385116
0.704543 0.120694 0.381080
0.865893 0.116987 0.376896
1.000000 0.113603 0.373075
1.000000 0.112110 0.371186
0.012102 0.257040 0.387933
0.128466 0.254301 0.384792
0.256513 0.251288 0.381335
0.396243 0.247999 0.377563
0.547577 0.244437 0.373478
0.697083 0.240919 0.369442
0.858811 0.237204 0.365250
1.000000 0.233830 0.361439
1.000000 0.232352 0.359566
0.003959 0.388269 0.375230
0.120323 0.385530 0.372088
0.248370 0.382517 0.368632
0.388099 0.379228 0.364860
0.539434 0.375667 0.360775
0.688939 0.372148 0.356739
0.852004 0.368606 0.352062
0.999667 0.365871 0.346708
1.000000 0.365056 0.343517
0.000000 0.530444 0.361467
0.111500 0.527706 0.358326
0.239547 0.524692 0.354869
0.381140 0.521937 0.349741
0.535058 0.519114 0.343777
0.687116 0.516325 0.337884
0.855873 0.513191 0.331889
0.997765 0.510571 0.326649
1.000000 0.509915 0.323617
0.000000 0.672184 0.345007
0.108674 0.670014 0.340421
0.238908 0.667625 0.335374
0.381023 0.665019 0.329867
0.534941 0.662196 0.323902
0.686942 0.659502 0.318187
0.858826 0.656833 0.313134
0.994812 0.654812 0.308930
1.000000 0.654734 0.306871
0.000000 0.823299 0.325351
0.107224 0.821196 0.320759
0.237332 0.819156 0.316056
0.379095 0.817420 0.311551
0.532633 0.815537 0.306671
0.684314 0.813675 0.301851
0.858842 0.811272 0.296723
0.989835 0.809638 0.292597
1.000000 0.809934 0.290634
0.000000 0.968828 0.308603
0.104654 0.967050 0.304874
0.234590 0.965090 0.300770
0.376381 0.962950 0.296293
0.529949 0.960628 0.291444
0.681660 0.958331 0.286653
0.858425 0.955483 0.281510
0.984769 0.953573 0.277502
1.000000 0.953632 0.275659
0.000000 1.000000 0.300051
0.107521 1.000000 0.296360
0.237498 1.000000 0.292298
0.379334 1.000000 0.287865
0.532950 1.000000 0.283064
0.684709 1.000000 0.278321
0.863326 1.000000 0.273186
0.985354 1.000000 0.269303
1.000000 1.000000 0.267578
0.025457 0.026393 0.561817
0.141821 0.023654 0.558676
0.269868 0.020641 0.555219
0.409597 0.017352 0.551447
0.560932 0.013791 0.547362
0.710437 0.010272 0.543326
0.871486 0.006571 0.539148
1.000000 0.003179 0.535320
1.000000 0.001674 0.533419
0.018679 0.135613 0.551245
0.135043 0.132874 0.548103
0.263090 0.129860 0.544647
0.402819 0.126572 0.540875
0.554154 0.123010 0.536790
0.703659 0.119492 0.532754
0.865054 0.115784 0.528569
1.000000 0.112400 0.524749
1.000000 0.110910 0.522862
0.011218 0.255837 0.539607
0.127582 0.253099 0.536466
0.255629 0.250085 0.533009
0.395359 0.246797 0.529237
0.546693 0.243235 0.525152
0.696198 0.239716 0.521116
0.857971 0.236001 0.516923
1.000000 0.232627 0.513113
1.000000 0.231152 0.511242
0.003074 0.387067 0.526904
0.119439 0.384328 0.523762
0.247485 0.381314 0.520306
0.387215 0.378026 0.516534
0.538550 0.374464 0.512448
0.688055 0.370946 0.508413
0.852409 0.367644 0.503093
0.999501 0.364921 0.497751
1.000000 0.364123 0.494576
0.000000 0.529242 0.513141
0.110616 0.526503 0.510000
0.239013 0.523590 0.506288
0.381128 0.520984 0.500781
0.535047 0.518161 0.494816
0.687104 0.515372 0.488923
0.856239 0.512231 0.482920
0.997544 0.509622 0.477692
1.000000 0.508982 0.474676
0.000000 0.671231 0.496047
0.108663 0.669061 0.491460
0.238896 0.666672 0.486413
0.381011 0.664066 0.480906
0.534929 0.661244 0.474941
0.686809 0.658747 0.469601
0.859000 0.656072 0.464542
0.994446 0.654061 0.460348
1.000000 0.653996 0.458303
0.000000 0.822375 0.476388
0.107210 0.820273 0.471797
0.237192 0.818521 0.467462
0.378955 0.816784 0.462957
0.532492 0.814901 0.458077
0.684173 0.813038 0.453257
0.858979 0.810629 0.448124
0.989417 0.809005 0.444008
1.000000 0.809313 0.442057
0.000000 0.968047 0.460018
0.104524 0.966268 0.456289
0.234460 0.964308 0.452186
0.376251 0.962166 0.447709
0.529819 0.959843 0.442860
0.681530 0.957545 0.438070
0.858545 0.954692 0.432922
0.984319 0.952791 0.428924
1.000000 0.952861 0.427093
0.000000 1.000000 0.451484
0.107407 1.000000 0.447792
0.237384 1.000000 0.443730
0.379220 1.000000 0.439297
0.532836 1.000000 0.434496
0.684595 1.000000 0.429754
0.863438 1.000000 0.424614
0.984880 1.000000 0.420742
1.000000 1.000000 0.419028
0.024587 0.025210 0.710975
0.140951 0.022472 0.707834
0.268998 0.019458 0.704377
0.408728 0.016170 0.700605
0.560062 0.012608 0.696520
0.709567 0.009090 0.692484
0.870661 0.005387 0.688305
1.000000 0.001996 0.684477
1.000000 0.000494 0.682579
0.017809 0.134430 0.700402
0.134173 0.131691 0.697261
0.262220 0.128678 0.693804
0.401950 0.125389 0.690032
0.553284 0.121828 0.685947
0.702790 0.118309 0.681911
0.864229 0.114600 0.677725
1.000000 0.111218 0.673907
1.000000 0.109729 0.672022
0.010348 0.254655 0.688764
0.126713 0.251916 0.685623
0.254760 0.248903 0.682166
0.394489 0.245614 0.678394
0.545824 0.242053 0.674309
0.695329 0.238534 0.670273
0.857145 0.234818 0.666080
1.000000 0.231445 0.662271
1.000000 0.229971 0.660401
0.002205 0.385884 0.676061
0.118569 0.383145 0.672920
0.246616 0.380132 0.669463
0.386346 0.376844 0.665691
0.537680 0.373282 0.661606
0.687211 0.369771 0.657551
0.852803 0.366699 0.651618
0.999332 0.363987 0.646287
1.000000 0.363205 0.643128
0.000000 0.528059 0.662298
0.109746 0.525321 0.659157
0.239001 0.522653 0.654822
0.381116 0.520046 0.649314
0.535035 0.517224 0.643349
0.687092 0.514435 0.637457
0.856596 0.511287 0.631447
0.997321 0.508689 0.626230
1.000000 0.508064 0.623229
0.000000 0.670294 0.644580
0.108651 0.668123 0.639994
0.238884 0.665735 0.634947
0.380999 0.663129 0.629439
0.534918 0.660306 0.623475
0.686679 0.658004 0.618503
0.859167 0.655324 0.613438
0.994080 0.653323 0.609255
1.000000 0.653271 0.607222
0.000000 0.821467 0.624919
0.107143 0.819488 0.620485
0.237053 0.817897 0.616356
0.378817 0.816159 0.611850
0.532354 0.814275 0.606971
0.684035 0.812411 0.602150
0.859110 0.809996 0.597012
0.989000 0.808382 0.592908
1.000000 0.808701 0.590969
0.000000 0.967279 0.608922
0.104395 0.965499 0.605193
0.234332 0.963538 0.601090
0.376123 0.961395 0.596613
0.529691 0.959071 0.591764
0.681402 0.956772 0.586974
0.858660 0.953913 0.581821
0.983871 0.952023 0.577835
1.000000 0.952102 0.576014
0.000000 1.000000 0.600404
0.107295 1.000000 0.596712
0.237272 1.000000 0.592650
0.379108 1.000000 0.588217
0.532724 1.000000 0.583416
0.684483 1.000000 0.578674
0.863544 1.000000 0.573530
0.984409 1.000000 0.569670
1.000000 1.000000 0.567965
0.023671 0.024006 0.865769
0.140038 0.021270 0.862199
0.268088 0.018260 0.858267
0.407821 0.014975 0.853972
0.559160 0.011417 0.849316
0.708668 0.007902 0.844712
0.869807 0.004202 0.840003
1.000000 0.000816 0.835690
1.000000 0.000000 0.833348
0.016903 0.133235 0.853741
0.133270 0.130500 0.850161
0.261320 0.127489 0.846219
0.401053 0.124204 0.841912
0.552392 0.120647 0.837244
0.701901 0.117132 0.832627
0.863384 0.113426 0.827901
1.000000 0.110048 0.823586
1.000000 0.108564 0.821249
0.009453 0.253471 0.840464
0.125820 0.250735 0.836873
0.253870 0.247725 0.832919
0.393604 0.244440 0.828600
0.544942 0.240882 0.823918
0.694451 0.237368 0.819288
0.856312 0.233654 0.814542
1.000000 0.230286 0.810226
1.000000 0.228817 0.807893
0.001322 0.384712 0.825927
0.117689 0.381977 0.822325
0.245739 0.378967 0.818358
0.385472 0.375682 0.814026
0.536811 0.372124 0.809329
0.687139 0.368845 0.803786
0.853112 0.365776 0.796392
0.999129 0.363083 0.789717
1.000000 0.362324 0.785327
0.000000 0.526901 0.810126
0.108879 0.524165 0.806511
0.238934 0.521732 0.800329
0.381059 0.519136 0.793334
0.534988 0.516324 0.785729
0.687057 0.513546 0.778186
0.856908 0.510401 0.770621
0.997106 0.507823 0.763977
1.000000 0.507394 0.760578
0.000000 0.669392 0.787300
0.108611 0.667230 0.781437
0.238853 0.664851 0.774964
0.380979 0.662255 0.767875
0.534854 0.659529 0.760634
0.686559 0.657319 0.755838
0.859319 0.654634 0.750768
0.993740 0.652643 0.746595
1.000000 0.652602 0.744573
0.000000 0.820627 0.762429
0.107015 0.818912 0.757813
0.236926 0.817321 0.753684
0.378689 0.815583 0.749178
0.532226 0.813698 0.744299
0.683908 0.811833 0.739479
0.859228 0.809413 0.734336
0.988612 0.807808 0.730241
1.000000 0.808137 0.728313
0.000000 0.966571 0.746259
0.104277 0.964790 0.742530
0.234213 0.962828 0.738427
0.376005 0.960684 0.733950
0.529573 0.958359 0.729101
0.681284 0.956059 0.724311
0.858764 0.953194 0.719154
0.983454 0.951313 0.715178
1.000000 0.951402 0.713368
0.000000 1.000000 0.737756
0.107191 1.000000 0.734064
0.237168 1.000000 0.730002
0.379004 1.000000 0.725569
0.532620 1.000000 0.720769
0.684379 1.000000 0.716026
0.863639 1.000000 0.710878
0.983970 1.000000 0.707028
1.000000 1.000000 0.705333
0.022743 0.022813 1.000000
0.139107 0.020074 1.000000
0.267153 0.017060 1.000000
0.406883 0.013772 1.000000
0.558217 0.010210 1.000000
0.707722 0.006691 1.000000
0.868894 0.002987 0.998643
1.000000 0.000000 0.994829
1.000000 0.000000 0.992941
0.015964 0.132032 1.000000
0.132328 0.129293 1.000000
0.260375 0.126280 1.000000
0.400104 0.122991 1.000000
0.551439 0.119429 0.996297
0.700944 0.115911 0.992270
0.862461 0.112200 0.988086
1.000000 0.108820 0.984268
1.000000 0.107334 0.982381
0.008503 0.252256 0.999104
0.124867 0.249517 0.995974
0.252914 0.246504 0.992525
0.392643 0.243215 0.988757
0.543978 0.239654 0.984669
0.693483 0.236135 0.980625
0.855377 0.232417 0.976417
1.000000 0.229047 0.972594
1.000000 0.227577 0.970708
0.000359 0.383485 0.986423
0.116723 0.380747 0.983278
0.244770 0.377733 0.979813
0.384500 0.374445 0.976026
0.535835 0.370884 0.971919
0.686882 0.367806 0.966703
0.853183 0.364721 0.960654
0.998714 0.362030 0.955221
1.000000 0.361277 0.951956
0.000000 0.525661 0.972616
0.108439 0.523076 0.969053
0.238672 0.520688 0.963926
0.380788 0.518083 0.958299
0.534708 0.515261 0.952166
0.686767 0.512474 0.946069
0.856914 0.509314 0.939823
0.996613 0.506739 0.934395
1.000000 0.506480 0.931905
0.000000 0.668331 0.953435
0.108325 0.666162 0.948698
0.238559 0.663775 0.943460
0.380676 0.661170 0.937712
0.534443 0.658600 0.931977
0.686150 0.656392 0.926987
0.859158 0.653703 0.921722
0.993127 0.651722 0.917373
1.000000 0.651693 0.915187
0.000000 0.819561 0.933034
0.106598 0.818084 0.929091
0.236509 0.816494 0.924794
0.378274 0.814756 0.920093
0.531813 0.812872 0.914989
0.683496 0.811008 0.909933
0.859041 0.808584 0.904556
0.987961 0.806989 0.900251
1.000000 0.807329 0.898124
0.000000 0.965624 0.917123
0.103872 0.963843 0.913219
0.233810 0.961882 0.908915
0.375603 0.959738 0.904206
0.529173 0.957414 0.899094
0.680886 0.955115 0.894029
0.858567 0.952247 0.888604
0.982781 0.950377 0.884386
1.000000 0.950475 0.882347
0.000000 1.000000 0.908022
0.106804 1.000000 0.904129
0.236783 1.000000 0.899836
0.378620 1.000000 0.895139
0.532238 1.000000 0.890039
0.683999 1.000000 0.884988
0.863441 1.000000 0.879541
0.983282 1.000000 0.875420
1.000000 1.000000 0.873470
0.022376 0.022207 1.000000
0.138735 0.019463 1.000000
0.266776 0.016443 1.000000
0.406500 0.013149 1.000000
0.557828 0.009581 1.000000
0.707327 0.006056 1.000000
0.868527 0.002346 1.000000
1.000000 0.000000 1.000000
1.000000 0.000000 1.000000
0.015581 0.131409 1.000000
0.131940 0.128665 1.000000
0.259982 0.125646 1.000000
0.399705 0.122352 1.000000
0.551034 0.118784 1.000000
0.700533 0.115260 1.000000
0.862078 0.111543 1.000000
1.000000 0.108159 1.000000
1.000000 0.106670 1.000000
0.008102 0.251615 1.000000
0.124461 0.248872 1.000000
0.252503 0.245853 1.000000
0.392227 0.242559 1.000000
0.543556 0.238992 1.000000
0.693056 0.235468 1.000000
0.854978 0.231744 1.000000
1.000000 0.228370 1.000000
1.000000 0.227086 1.000000
0.000000 0.382826 1.000000
0.116300 0.380083 1.000000
0.244342 0.377065 1.000000
0.384066 0.373771 1.000000
0.535395 0.370204 1.000000
0.687087 0.367302 1.000000
0.853680 0.364199 1.000000
0.998765 0.361504 1.000000
1.000000 0.360753 1.000000
0.000000 0.524982 1.000000
0.108650 0.522577 1.000000
0.238872 0.520178 1.000000
0.380975 0.517560 1.000000
0.534881 0.514725 1.000000
0.686927 0.511925 1.000000
0.857338 0.508748 1.000000
0.996555 0.506219 1.000000
1.000000 0.506065 1.000000
0.000000 0.667798 1.000000
0.108491 0.665618 1.000000
0.238714 0.663220 1.000000
0.380819 0.660604 1.000000
0.534486 0.658173 1.000000
0.686185 0.655958 1.000000
0.859408 0.653257 1.000000
0.992960 0.651278 1.000000
1.000000 0.651253 1.000000
0.000000 0.819196 1.000000
0.106632 0.817746 1.000000
0.236537 0.816148 1.000000
0.378295 0.814403 1.000000
0.531826 0.812511 1.000000
0.683502 0.810639 1.000000
0.859240 0.808204 1.000000
0.987731 0.806611 0.999401
1.000000 0.806954 0.998110
0.000000 0.965159 1.000000
0.103893 0.963372 1.000000
0.233824 0.961403 1.000000
0.375611 0.959253 1.000000
0.529173 0.956920 0.998333
0.680880 0.954613 0.994347
0.858734 0.951734 0.989905
0.982507 0.949866 0.986592
1.000000 0.949966 0.985371
0.000000 1.000000 1.000000
0.106818 1.000000 1.000000
0.236791 1.000000 0.999772
0.378622 1.000000 0.996079
0.532233 1.000000 0.992057
0.683987 1.000000 0.988063
0.863584 1.000000 0.983579
0.982971 1.000000 0.980347
1.000000 1.000000 0.979197
