Pastel_Cinematic_Clean.cube
LUT_3D_SIZE 33
0.021692 0.048018 0.061540
0.045435 0.048852 0.062282
0.069742 0.049707 0.063041
0.094574 0.050580 0.063817
0.119892 0.051470 0.064609
0.145656 0.052375 0.065414
0.171827 0.053295 0.066232
0.198366 0.054228 0.067061
0.225234 0.055172 0.067901
0.252390 0.056127 0.068750
0.279797 0.057090 0.069606
0.307415 0.058061 0.070469
0.335204 0.059038 0.071338
0.363126 0.060019 0.072210
0.391140 0.061004 0.073086
0.419208 0.061991 0.073963
0.447291 0.062978 0.074841
0.475349 0.063964 0.075717
0.503342 0.064948 0.076592
0.531232 0.065928 0.077464
0.558979 0.066904 0.078331
0.586545 0.067873 0.079192
0.613889 0.068834 0.080047
0.640973 0.069786 0.080893
0.667756 0.070727 0.081730
0.699655 0.071849 0.082727
0.742823 0.073366 0.084076
0.778488 0.074620 0.085191
0.807048 0.075623 0.086084
0.828904 0.076392 0.086767
0.844418 0.076937 0.087251
0.853878 0.077270 0.087547
0.857473 0.077396 0.087659
0.025289 0.073577 0.064043
0.049032 0.074412 0.064785
0.073339 0.075266 0.065545
0.098171 0.076139 0.066321
0.123488 0.077029 0.067112
0.149252 0.077935 0.067917
0.175424 0.078855 0.068735
0.201963 0.079788 0.069565
0.228830 0.080732 0.070404
0.255987 0.081687 0.071253
0.283394 0.082650 0.072110
0.311012 0.083621 0.072973
0.338801 0.084598 0.073841
0.366723 0.085579 0.074714
0.394737 0.086564 0.075589
0.422805 0.087550 0.076466
0.450888 0.088537 0.077344
0.478945 0.089524 0.078221
0.506939 0.090508 0.079096
0.534829 0.091488 0.079967
0.562576 0.092463 0.080835
0.590141 0.093432 0.081696
0.617486 0.094393 0.082551
0.644569 0.095345 0.083397
0.671353 0.096287 0.084234
0.703252 0.097408 0.085231
0.746420 0.098926 0.086580
0.782085 0.100179 0.087695
0.810644 0.101183 0.088587
0.832500 0.101951 0.089270
0.848014 0.102497 0.089755
0.857475 0.102829 0.090051
0.861070 0.102956 0.090163
0.028970 0.099738 0.066606
0.052713 0.100572 0.067348
0.077020 0.101427 0.068107
0.101852 0.102299 0.068883
0.127169 0.103189 0.069675
0.152933 0.104095 0.070480
0.179105 0.105015 0.071298
0.205644 0.105948 0.072127
0.232511 0.106892 0.072967
0.259668 0.107847 0.073815
0.287075 0.108810 0.074672
0.314693 0.109781 0.075535
0.342482 0.110758 0.076404
0.370404 0.111739 0.077276
0.398418 0.112724 0.078152
0.426486 0.113710 0.079029
0.454569 0.114698 0.079906
0.482626 0.115684 0.080783
0.510620 0.116668 0.081658
0.538510 0.117648 0.082530
0.566257 0.118623 0.083397
0.593823 0.119592 0.084258
0.621167 0.120554 0.085113
0.648250 0.121506 0.085959
0.675034 0.122447 0.086796
0.706933 0.123568 0.087793
0.750101 0.125086 0.089142
0.785766 0.126339 0.090257
0.814325 0.127343 0.091149
0.836181 0.128111 0.091833
0.851696 0.128657 0.092317
0.861156 0.128989 0.092613
0.864751 0.129116 0.092725
0.032730 0.126456 0.069223
0.056473 0.127291 0.069965
0.080780 0.128145 0.070724
0.105612 0.129018 0.071500
0.130929 0.129908 0.072292
0.156693 0.130813 0.073097
0.182864 0.131733 0.073915
0.209403 0.132666 0.074744
0.236271 0.133611 0.075584
0.263428 0.134565 0.076432
0.290835 0.135529 0.077289
0.318453 0.136499 0.078152
0.346242 0.137476 0.079021
0.374163 0.138458 0.079893
0.402178 0.139442 0.080769
0.430246 0.140429 0.081646
0.458328 0.141416 0.082523
0.486386 0.142402 0.083400
0.514379 0.143386 0.084275
0.542269 0.144367 0.085147
0.570017 0.145342 0.086014
0.597582 0.146311 0.086875
0.624926 0.147272 0.087730
0.652010 0.148224 0.088576
0.678794 0.149166 0.089413
0.710693 0.150287 0.090410
0.753861 0.151804 0.091759
0.789526 0.153058 0.092874
0.818085 0.154062 0.093767
0.839941 0.154830 0.094450
0.855455 0.155375 0.094934
0.864916 0.155708 0.095230
0.868511 0.155834 0.095342
0.036562 0.153691 0.071890
0.060305 0.154525 0.072632
0.084612 0.155380 0.073392
0.109444 0.156253 0.074168
0.134761 0.157143 0.074959
0.160526 0.158048 0.075764
0.186697 0.158968 0.076582
0.213236 0.159901 0.077412
0.240103 0.160845 0.078251
0.267260 0.161800 0.079100
0.294667 0.162763 0.079957
0.322285 0.163734 0.080820
0.350074 0.164711 0.081688
0.377996 0.165692 0.082561
0.406010 0.166677 0.083436
0.434078 0.167664 0.084313
0.462161 0.168651 0.085191
0.490218 0.169637 0.086068
0.518212 0.170621 0.086943
0.546102 0.171601 0.087814
0.573849 0.172577 0.088682
0.601415 0.173546 0.089543
0.628759 0.174507 0.090398
0.655842 0.175459 0.091244
0.682626 0.176400 0.092081
0.714525 0.177522 0.093078
0.757693 0.179039 0.094427
0.793358 0.180293 0.095542
0.821917 0.181296 0.096434
0.843773 0.182065 0.097117
0.859288 0.182610 0.097602
0.868748 0.182943 0.097898
0.872343 0.183069 0.098010
0.040461 0.181400 0.074604
0.064204 0.182234 0.075346
0.088511 0.183089 0.076106
0.113343 0.183961 0.076882
0.138661 0.184851 0.077673
0.164425 0.185757 0.078478
0.190596 0.186677 0.079296
0.217135 0.187610 0.080126
0.244002 0.188554 0.080965
0.271159 0.189509 0.081814
0.298566 0.190472 0.082671
0.326184 0.191443 0.083534
0.353973 0.192420 0.084402
0.381895 0.193401 0.085275
0.409909 0.194386 0.086150
0.437977 0.195373 0.087027
0.466060 0.196360 0.087905
0.494117 0.197346 0.088782
0.522111 0.198330 0.089657
0.550001 0.199310 0.090528
0.577748 0.200286 0.091396
0.605314 0.201255 0.092257
0.632658 0.202216 0.093112
0.659741 0.203168 0.093958
0.686525 0.204109 0.094795
0.718424 0.205230 0.095792
0.761592 0.206748 0.097141
0.797257 0.208001 0.098256
0.825816 0.209005 0.099148
0.847672 0.209774 0.099831
0.863187 0.210319 0.100316
0.872647 0.210651 0.100612
0.876242 0.210778 0.100724
0.044421 0.209540 0.077361
0.068164 0.210375 0.078103
0.092471 0.211229 0.078862
0.117303 0.212102 0.079638
0.142620 0.212992 0.080430
0.168384 0.213898 0.081235
0.194556 0.214818 0.082053
0.221095 0.215751 0.082882
0.247962 0.216695 0.083722
0.275119 0.217650 0.084570
0.302526 0.218613 0.085427
0.330144 0.219584 0.086290
0.357933 0.220560 0.087159
0.385855 0.221542 0.088031
0.413869 0.222527 0.088907
0.441937 0.223513 0.089784
0.470020 0.224500 0.090661
0.498077 0.225487 0.091538
0.526071 0.226471 0.092413
0.553961 0.227451 0.093285
0.581708 0.228426 0.094152
0.609273 0.229395 0.095013
0.636618 0.230356 0.095868
0.663701 0.231308 0.096714
0.690485 0.232250 0.097551
0.722384 0.233371 0.098548
0.765552 0.234888 0.099897
0.801217 0.236142 0.101012
0.829776 0.237146 0.101904
0.851632 0.237914 0.102588
0.867147 0.238460 0.103072
0.876607 0.238792 0.103368
0.880202 0.238918 0.103480
0.048436 0.238071 0.080155
0.072178 0.238905 0.080897
0.096485 0.239760 0.081657
0.121317 0.240633 0.082433
0.146635 0.241523 0.083224
0.172399 0.242428 0.084029
0.198570 0.243348 0.084847
0.225109 0.244281 0.085677
0.251977 0.245225 0.086516
0.279134 0.246180 0.087365
0.306541 0.247143 0.088221
0.334159 0.248114 0.089085
0.361948 0.249091 0.089953
0.389869 0.250072 0.090826
0.417884 0.251057 0.091701
0.445952 0.252044 0.092578
0.474034 0.253031 0.093456
0.502092 0.254017 0.094333
0.530085 0.255001 0.095208
0.557975 0.255981 0.096079
0.585723 0.256957 0.096946
0.613288 0.257926 0.097808
0.640632 0.258887 0.098662
0.667716 0.259839 0.099509
0.694500 0.260780 0.100346
0.726399 0.261902 0.101343
0.769567 0.263419 0.102692
0.805231 0.264673 0.103806
0.833791 0.265676 0.104699
0.855647 0.266445 0.105382
0.871161 0.266990 0.105867
0.880622 0.267323 0.106163
0.884217 0.267449 0.106275
0.052499 0.266949 0.082984
0.076242 0.267784 0.083726
0.100549 0.268638 0.084485
0.125381 0.269511 0.085261
0.150699 0.270401 0.086053
0.176463 0.271306 0.086858
0.202634 0.272226 0.087676
0.229173 0.273159 0.088505
0.256040 0.274104 0.089345
0.283197 0.275058 0.090194
0.310604 0.276021 0.091050
0.338222 0.276992 0.091913
0.366011 0.277969 0.092782
0.393933 0.278951 0.093654
0.421947 0.279935 0.094530
0.450015 0.280922 0.095407
0.478098 0.281909 0.096285
0.506155 0.282895 0.097161
0.534149 0.283879 0.098036
0.562039 0.284860 0.098908
0.589786 0.285835 0.099775
0.617352 0.286804 0.100636
0.644696 0.287765 0.101491
0.671780 0.288717 0.102337
0.698563 0.289658 0.103174
0.730462 0.290780 0.104171
0.773630 0.292297 0.105520
0.809295 0.293551 0.106635
0.837855 0.294555 0.107528
0.859711 0.295323 0.108211
0.875225 0.295868 0.108695
0.884685 0.296201 0.108991
0.888280 0.296327 0.109103
0.056606 0.296133 0.085842
0.080349 0.296967 0.086584
0.104656 0.297821 0.087344
0.129488 0.298694 0.088120
0.154805 0.299584 0.088911
0.180569 0.300490 0.089716
0.206740 0.301410 0.090534
0.233279 0.302343 0.091364
0.260147 0.303287 0.092203
0.287304 0.304242 0.093052
0.314711 0.305205 0.093909
0.342329 0.306176 0.094772
0.370118 0.307153 0.095640
0.398039 0.308134 0.096513
0.426054 0.309119 0.097388
0.454122 0.310105 0.098265
0.482204 0.311093 0.099143
0.510262 0.312079 0.100020
0.538255 0.313063 0.100895
0.566146 0.314043 0.101766
0.593893 0.315018 0.102633
0.621458 0.315987 0.103495
0.648802 0.316949 0.104349
0.675886 0.317901 0.105196
0.702670 0.318842 0.106033
0.734569 0.319963 0.107030
0.777737 0.321481 0.108379
0.813402 0.322734 0.109494
0.841961 0.323738 0.110386
0.863817 0.324506 0.111069
0.879331 0.325052 0.111554
0.888792 0.325384 0.111850
0.892387 0.325511 0.111962
0.060749 0.325579 0.088727
0.084492 0.326414 0.089469
0.108799 0.327268 0.090228
0.133631 0.328141 0.091004
0.158949 0.329031 0.091795
0.184713 0.329937 0.092601
0.210884 0.330857 0.093419
0.237423 0.331790 0.094248
0.264291 0.332734 0.095088
0.291448 0.333689 0.095936
0.318855 0.334652 0.096793
0.346472 0.335623 0.097656
0.374262 0.336599 0.098524
0.402183 0.337581 0.099397
0.430197 0.338566 0.100272
0.458266 0.339552 0.101150
0.486348 0.340539 0.102027
0.514406 0.341526 0.102904
0.542399 0.342510 0.103779
0.570289 0.343490 0.104651
0.598036 0.344465 0.105518
0.625602 0.345434 0.106379
0.652946 0.346395 0.107234
0.680030 0.347347 0.108080
0.706814 0.348289 0.108917
0.738712 0.349410 0.109914
0.781880 0.350927 0.111263
0.817545 0.352181 0.112378
0.846105 0.353185 0.113270
0.867961 0.353953 0.113953
0.883475 0.354499 0.114438
0.892935 0.354831 0.114734
0.896530 0.354957 0.114846
0.064924 0.355247 0.091632
0.088667 0.356082 0.092374
0.112974 0.356936 0.093134
0.137806 0.357809 0.093910
0.163124 0.358699 0.094701
0.188888 0.359605 0.095507
0.215059 0.360525 0.096324
0.241598 0.361458 0.097154
0.268465 0.362402 0.097994
0.295622 0.363356 0.098842
0.323029 0.364320 0.099699
0.350647 0.365291 0.100562
0.378436 0.366267 0.101430
0.406358 0.367249 0.102303
0.434372 0.368234 0.103178
0.462440 0.369220 0.104056
0.490523 0.370207 0.104933
0.518580 0.371194 0.105810
0.546574 0.372178 0.106685
0.574464 0.373158 0.107557
0.602211 0.374133 0.108424
0.629777 0.375102 0.109285
0.657121 0.376063 0.110140
0.684204 0.377015 0.110986
0.710988 0.377957 0.111823
0.742887 0.379078 0.112820
0.786055 0.380595 0.114169
0.821720 0.381849 0.115284
0.850279 0.382853 0.116176
0.872135 0.383621 0.116859
0.887650 0.384167 0.117344
0.897110 0.384499 0.117640
0.900705 0.384625 0.117752
0.069124 0.385094 0.094556
0.092867 0.385929 0.095298
0.117174 0.386783 0.096058
0.142006 0.387656 0.096834
0.167323 0.388546 0.097625
0.193087 0.389452 0.098430
0.219259 0.390372 0.099248
0.245798 0.391304 0.100077
0.272665 0.392249 0.100917
0.299822 0.393203 0.101766
0.327229 0.394167 0.102622
0.354847 0.395138 0.103485
0.382636 0.396114 0.104354
0.410558 0.397096 0.105226
0.438572 0.398081 0.106102
0.466640 0.399067 0.106979
0.494723 0.400054 0.107857
0.522780 0.401041 0.108734
0.550774 0.402025 0.109608
0.578664 0.403005 0.110480
0.606411 0.403980 0.111347
0.633977 0.404949 0.112209
0.661321 0.405910 0.113063
0.688404 0.406862 0.113910
0.715188 0.407804 0.114747
0.747087 0.408925 0.115744
0.790255 0.410442 0.117093
0.825920 0.411696 0.118207
0.854479 0.412700 0.119100
0.876335 0.413468 0.119783
0.891850 0.414014 0.120268
0.901310 0.414346 0.120563
0.904905 0.414472 0.120676
0.073343 0.415078 0.097493
0.097086 0.415913 0.098235
0.121393 0.416767 0.098994
0.146225 0.417640 0.099770
0.171543 0.418530 0.100562
0.197307 0.419436 0.101367
0.223478 0.420355 0.102185
0.250017 0.421288 0.103014
0.276884 0.422233 0.103854
0.304041 0.423187 0.104703
0.331448 0.424151 0.105559
0.359066 0.425121 0.106422
0.386855 0.426098 0.107291
0.414777 0.427080 0.108163
0.442791 0.428064 0.109039
0.470859 0.429051 0.109916
0.498942 0.430038 0.110794
0.526999 0.431024 0.111670
0.554993 0.432008 0.112545
0.582883 0.432989 0.113417
0.610630 0.433964 0.114284
0.638196 0.434933 0.115145
0.665540 0.435894 0.116000
0.692624 0.436846 0.116846
0.719407 0.437788 0.117683
0.751306 0.438909 0.118680
0.794474 0.440426 0.120029
0.830139 0.441680 0.121144
0.858699 0.442684 0.122037
0.880555 0.443452 0.122720
0.896069 0.443997 0.123204
0.905529 0.444330 0.123500
0.909124 0.444456 0.123612
0.077576 0.445157 0.100439
0.101319 0.445991 0.101181
0.125626 0.446846 0.101941
0.150457 0.447718 0.102717
0.175775 0.448608 0.103508
0.201539 0.449514 0.104313
0.227710 0.450434 0.105131
0.254249 0.451367 0.105960
0.281117 0.452311 0.106800
0.308274 0.453266 0.107649
0.335681 0.454229 0.108505
0.363299 0.455200 0.109368
0.391088 0.456177 0.110237
0.419009 0.457158 0.111109
0.447024 0.458143 0.111985
0.475092 0.459130 0.112862
0.503174 0.460117 0.113740
0.531232 0.461103 0.114617
0.559225 0.462087 0.115491
0.587115 0.463067 0.116363
0.614863 0.464043 0.117230
0.642428 0.465011 0.118092
0.669772 0.465973 0.118946
0.696856 0.466925 0.119793
0.723640 0.467866 0.120630
0.755539 0.468987 0.121627
0.798707 0.470505 0.122976
0.834372 0.471758 0.124090
0.862931 0.472762 0.124983
0.884787 0.473530 0.125666
0.900301 0.474076 0.126151
0.909762 0.474408 0.126446
0.913357 0.474535 0.126559
0.081816 0.475288 0.103390
0.105558 0.476122 0.104132
0.129865 0.476977 0.104892
0.154697 0.477849 0.105668
0.180015 0.478739 0.106459
0.205779 0.479645 0.107264
0.231950 0.480565 0.108082
0.258489 0.481498 0.108912
0.285357 0.482442 0.109751
0.312514 0.483397 0.110600
0.339921 0.484360 0.111457
0.367539 0.485331 0.112320
0.395328 0.486308 0.113188
0.423249 0.487289 0.114061
0.451264 0.488274 0.114936
0.479332 0.489261 0.115813
0.507414 0.490248 0.116691
0.535472 0.491234 0.117568
0.563465 0.492218 0.118443
0.591355 0.493198 0.119314
0.619103 0.494174 0.120181
0.646668 0.495142 0.121043
0.674012 0.496104 0.121897
0.701096 0.497056 0.122744
0.727880 0.497997 0.123581
0.759779 0.499118 0.124578
0.802947 0.500636 0.125927
0.838611 0.501889 0.127041
0.867289 0.502953 0.127861
0.889372 0.503837 0.128404
0.905047 0.504464 0.128789
0.914606 0.504846 0.129023
0.918238 0.504991 0.129113
0.086057 0.505429 0.106343
0.109800 0.506264 0.107085
0.134107 0.507118 0.107844
0.158939 0.507991 0.108620
0.184256 0.508881 0.109411
0.210020 0.509786 0.110217
0.236192 0.510706 0.111035
0.262731 0.511639 0.111864
0.289598 0.512584 0.112704
0.316755 0.513538 0.113552
0.344162 0.514502 0.114409
0.371780 0.515472 0.115272
0.399569 0.516449 0.116140
0.427491 0.517431 0.117013
0.455505 0.518415 0.117888
0.483573 0.519402 0.118766
0.511656 0.520389 0.119643
0.539713 0.521375 0.120520
0.567707 0.522359 0.121395
0.595597 0.523340 0.122267
0.623344 0.524315 0.123134
0.650909 0.525284 0.123995
0.678254 0.526245 0.124850
0.705337 0.527197 0.125696
0.732121 0.528139 0.126533
0.764020 0.529260 0.127530
0.807620 0.530996 0.128612
0.843655 0.532438 0.129497
0.872511 0.533592 0.130206
0.894594 0.534476 0.130749
0.910270 0.535103 0.131134
0.919828 0.535485 0.131369
0.923461 0.535630 0.131458
0.090294 0.535539 0.109292
0.114037 0.536373 0.110034
0.138344 0.537228 0.110793
0.163176 0.538100 0.111569
0.188493 0.538990 0.112361
0.214257 0.539896 0.113166
0.240428 0.540816 0.113984
0.266967 0.541749 0.114813
0.293835 0.542693 0.115653
0.320992 0.543648 0.116501
0.348399 0.544611 0.117358
0.376017 0.545582 0.118221
0.403806 0.546559 0.119090
0.431727 0.547540 0.119962
0.459742 0.548525 0.120838
0.487810 0.549512 0.121715
0.515892 0.550499 0.122592
0.543950 0.551485 0.123469
0.571944 0.552469 0.124344
0.599834 0.553449 0.125216
0.627581 0.554425 0.126083
0.655146 0.555393 0.126944
0.682564 0.556392 0.127754
0.709929 0.557486 0.128426
0.736991 0.558569 0.129091
0.769221 0.559858 0.129883
0.812837 0.561603 0.130954
0.848872 0.563045 0.131840
0.877728 0.564199 0.132549
0.899811 0.565082 0.133091
0.915487 0.565709 0.133476
0.925045 0.566092 0.133711
0.928678 0.566237 0.133800
0.094520 0.565574 0.112234
0.118263 0.566409 0.112976
0.142570 0.567263 0.113735
0.167402 0.568136 0.114511
0.192720 0.569026 0.115303
0.218484 0.569932 0.116108
0.244655 0.570852 0.116926
0.271194 0.571784 0.117755
0.298062 0.572729 0.118595
0.325218 0.573683 0.119443
0.352625 0.574647 0.120300
0.380243 0.575618 0.121163
0.408032 0.576594 0.122032
0.435954 0.577576 0.122904
0.463968 0.578561 0.123780
0.492036 0.579547 0.124657
0.520119 0.580534 0.125534
0.548177 0.581521 0.126411
0.576170 0.582505 0.127286
0.604252 0.583582 0.128039
0.632288 0.584704 0.128727
0.660140 0.585818 0.129412
0.687768 0.586923 0.130091
0.715133 0.588018 0.130763
0.742195 0.589101 0.131428
0.774425 0.590390 0.132220
0.818041 0.592135 0.133291
0.854076 0.593576 0.134176
0.882932 0.594730 0.134885
0.904978 0.595635 0.135472
0.920557 0.596317 0.135972
0.930057 0.596732 0.136277
0.933667 0.596890 0.136393
0.098731 0.595494 0.115164
0.122473 0.596328 0.115906
0.146780 0.597183 0.116666
0.171612 0.598056 0.117442
0.196930 0.598946 0.118233
0.222694 0.599851 0.119038
0.248865 0.600771 0.119856
0.275404 0.601704 0.120686
0.302272 0.602648 0.121525
0.329429 0.603603 0.122374
0.356836 0.604566 0.123231
0.384453 0.605537 0.124094
0.412243 0.606514 0.124962
0.440164 0.607495 0.125835
0.468178 0.608480 0.126710
0.496249 0.609468 0.127586
0.524624 0.610603 0.128283
0.552973 0.611737 0.128979
0.581257 0.612869 0.129674
0.609436 0.613996 0.130366
0.637472 0.615118 0.131055
0.665324 0.616232 0.131740
0.692952 0.617337 0.132418
0.720317 0.618432 0.133091
0.747379 0.619514 0.133755
0.779609 0.620803 0.134547
0.823140 0.622596 0.135720
0.858954 0.624164 0.136870
0.887632 0.625419 0.137791
0.909579 0.626379 0.138496
0.925158 0.627061 0.138996
0.934658 0.627477 0.139302
0.938268 0.627635 0.139417
0.102918 0.625255 0.118079
0.126661 0.626090 0.118821
0.150968 0.626944 0.119581
0.175800 0.627817 0.120357
0.201118 0.628707 0.121148
0.226882 0.629613 0.121953
0.253053 0.630533 0.122771
0.279592 0.631465 0.123601
0.306460 0.632410 0.124440
0.333617 0.633364 0.125289
0.361023 0.634328 0.126146
0.388641 0.635299 0.127009
0.416530 0.636326 0.127816
0.444741 0.637454 0.128509
0.473046 0.638586 0.129204
0.501406 0.639721 0.129901
0.529780 0.640856 0.130598
0.558129 0.641990 0.131295
0.586413 0.643121 0.131990
0.614593 0.644249 0.132682
0.642628 0.645370 0.133371
0.670480 0.646484 0.134055
0.698108 0.647590 0.134734
0.725442 0.648702 0.135444
0.752337 0.649879 0.136307
0.784369 0.651281 0.137336
0.827717 0.653178 0.138728
0.863530 0.654745 0.139878
0.892208 0.656000 0.140799
0.914155 0.656961 0.141504
0.929734 0.657642 0.142005
0.939234 0.658058 0.142310
0.942844 0.658216 0.142426
0.107078 0.654816 0.120975
0.130821 0.655651 0.121717
0.155128 0.656505 0.122476
0.179960 0.657378 0.123252
0.205277 0.658268 0.124044
0.231041 0.659174 0.124849
0.257213 0.660094 0.125667
0.283752 0.661026 0.126496
0.310619 0.661971 0.127336
0.337977 0.663027 0.128060
0.365669 0.664135 0.128740
0.393574 0.665251 0.129426
0.421651 0.666375 0.130116
0.449863 0.667503 0.130809
0.478168 0.668635 0.131504
0.506528 0.669770 0.132201
0.534902 0.670905 0.132898
0.563251 0.672039 0.133595
0.591535 0.673170 0.134289
0.619715 0.674298 0.134982
0.647653 0.675475 0.135787
0.675333 0.676686 0.136676
0.702791 0.677888 0.137558
0.729987 0.679078 0.138431
0.756883 0.680255 0.139295
0.788914 0.681657 0.140324
0.832262 0.683554 0.141716
0.868075 0.685121 0.142866
0.896754 0.686376 0.143787
0.918701 0.687336 0.144492
0.934280 0.688018 0.144992
0.943779 0.688434 0.145297
0.947390 0.688592 0.145413
0.111204 0.684135 0.123846
0.134946 0.684969 0.124588
0.159253 0.685824 0.125348
0.184085 0.686696 0.126124
0.209403 0.687586 0.126915
0.235214 0.688516 0.127691
0.261657 0.689574 0.128341
0.288472 0.690646 0.129000
0.315618 0.691732 0.129667
0.343057 0.692830 0.130341
0.370749 0.693938 0.131021
0.398653 0.695054 0.131707
0.426731 0.696177 0.132397
0.454943 0.697306 0.133090
0.483248 0.698438 0.133785
0.511608 0.699572 0.134482
0.539982 0.700707 0.135179
0.568182 0.701926 0.136054
0.596292 0.703156 0.136956
0.624298 0.704382 0.137856
0.652161 0.705601 0.138751
0.679841 0.706813 0.139640
0.707299 0.708014 0.140521
0.734495 0.709204 0.141395
0.761391 0.710381 0.142259
0.793423 0.711783 0.143287
0.836770 0.713680 0.144679
0.872584 0.715247 0.145829
0.901262 0.716502 0.146751
0.923209 0.717463 0.147455
0.938788 0.718145 0.147956
0.948288 0.718560 0.148261
0.951898 0.718718 0.148377
0.115289 0.713168 0.126690
0.139032 0.714003 0.127432
0.163543 0.714961 0.128066
0.188632 0.715964 0.128682
0.214213 0.716988 0.129311
0.240245 0.718029 0.129950
0.266687 0.719087 0.130600
0.293502 0.720159 0.131259
0.320649 0.721245 0.131926
0.348088 0.722343 0.132600
0.375779 0.723451 0.133280
0.403684 0.724567 0.133966
0.431762 0.725690 0.134656
0.459956 0.726828 0.135369
0.488087 0.728059 0.136272
0.516272 0.729293 0.137178
0.544472 0.730527 0.138083
0.572646 0.731760 0.138988
0.600756 0.732990 0.139891
0.628762 0.734216 0.140790
0.656625 0.735435 0.141685
0.684305 0.736646 0.142574
0.711763 0.737848 0.143456
0.738960 0.739038 0.144329
0.765855 0.740215 0.145193
0.797887 0.741617 0.146222
0.841235 0.743514 0.147614
0.877048 0.745081 0.148764
0.905727 0.746336 0.149685
0.927674 0.747297 0.150390
0.943252 0.747979 0.150890
0.952752 0.748394 0.151195
0.956362 0.748552 0.151311
0.119968 0.742199 0.129106
0.143957 0.743159 0.129696
0.168516 0.744141 0.130299
0.193606 0.745145 0.130916
0.219187 0.746168 0.131544
0.245218 0.747210 0.132184
0.271661 0.748267 0.132833
0.298476 0.749340 0.133492
0.325623 0.750426 0.134159
0.353062 0.751524 0.134833
0.380695 0.752665 0.135583
0.408428 0.753878 0.136474
0.436332 0.755099 0.137370
0.464370 0.756326 0.138271
0.492501 0.757558 0.139174
0.520686 0.758791 0.140079
0.548886 0.760025 0.140985
0.577060 0.761258 0.141890
0.605170 0.762488 0.142792
0.633176 0.763714 0.143692
0.661039 0.764933 0.144587
0.688720 0.766145 0.145476
0.716178 0.767346 0.146357
0.743374 0.768536 0.147231
0.770269 0.769713 0.148095
0.802301 0.771115 0.149123
0.845649 0.773012 0.150515
0.881462 0.774579 0.151666
0.910141 0.775835 0.152587
0.932088 0.776795 0.153291
0.947667 0.777477 0.153792
0.957166 0.777892 0.154097
0.960776 0.778050 0.154213
0.126348 0.779631 0.131971
0.150337 0.780591 0.132561
0.174897 0.781573 0.133164
0.199986 0.782577 0.133781
0.225567 0.783600 0.134409
0.251599 0.784642 0.135049
0.277937 0.785759 0.135823
0.304586 0.786925 0.136679
0.331566 0.788106 0.137546
0.358836 0.789299 0.138421
0.386357 0.790504 0.139305
0.414090 0.791717 0.140196
0.441995 0.792938 0.141092
0.470033 0.794165 0.141992
0.498164 0.795397 0.142896
0.526349 0.796630 0.143801
0.554548 0.797864 0.144707
0.582723 0.799097 0.145612
0.610833 0.800327 0.146514
0.638839 0.801553 0.147414
0.666702 0.802772 0.148309
0.694382 0.803984 0.149197
0.721840 0.805185 0.150079
0.749036 0.806375 0.150953
0.775932 0.807552 0.151816
0.807964 0.808954 0.152845
0.851311 0.810851 0.154237
0.887125 0.812418 0.155387
0.915803 0.813674 0.156308
0.937750 0.814634 0.157013
0.953329 0.815316 0.157514
0.962829 0.815731 0.157819
0.966439 0.815889 0.157935
0.134149 0.825753 0.135564
0.157991 0.826796 0.136330
0.182399 0.827864 0.137114
0.207334 0.828955 0.137915
0.232757 0.830068 0.138731
0.258629 0.831200 0.139562
0.284909 0.832350 0.140406
0.311559 0.833517 0.141262
0.338538 0.834697 0.142128
0.365808 0.835891 0.143004
0.393329 0.837095 0.143888
0.421062 0.838309 0.144779
0.448967 0.839530 0.145675
0.477005 0.840757 0.146575
0.505136 0.841988 0.147479
0.533321 0.843221 0.148384
0.561520 0.844456 0.149290
0.589695 0.845688 0.150194
0.617805 0.846919 0.151097
0.645811 0.848144 0.151997
0.673674 0.849364 0.152891
0.701354 0.850575 0.153780
0.728812 0.851777 0.154662
0.756009 0.852967 0.155536
0.782904 0.854144 0.156399
0.814936 0.855546 0.157428
0.858283 0.857443 0.158820
0.894097 0.859010 0.159970
0.922775 0.860265 0.160891
0.944722 0.861225 0.161596
