Pastel_Cinematic_Clean.cube
LUT_3D_SIZE 9
0.021692 0.048018 0.061540
0.119892 0.051470 0.064609
0.225234 0.055172 0.067901
0.335204 0.059038 0.071338
0.447291 0.062978 0.074841
0.558979 0.066904 0.078331
0.667756 0.070727 0.081730
0.807048 0.075623 0.086084
0.857473 0.077396 0.087659
0.036562 0.153691 0.071890
0.134761 0.157143 0.074959
0.240103 0.160845 0.078251
0.350074 0.164711 0.081688
0.462161 0.168651 0.085191
0.573849 0.172577 0.088682
0.682626 0.176400 0.092081
0.821917 0.181296 0.096434
0.872343 0.183069 0.098010
0.052499 0.266949 0.082984
0.150699 0.270401 0.086053
0.256040 0.274104 0.089345
0.366011 0.277969 0.092782
0.478098 0.281909 0.096285
0.589786 0.285835 0.099775
0.698563 0.289658 0.103174
0.837855 0.294555 0.107528
0.888280 0.296327 0.109103
0.069124 0.385094 0.094556
0.167323 0.388546 0.097625
0.272665 0.392249 0.100917
0.382636 0.396114 0.104354
0.494723 0.400054 0.107857
0.606411 0.403980 0.111347
0.715188 0.407804 0.114747
0.854479 0.412700 0.119100
0.904905 0.414472 0.120676
0.086057 0.505429 0.106343
0.184256 0.508881 0.109411
0.289598 0.512584 0.112704
0.399569 0.516449 0.116140
0.511656 0.520389 0.119643
0.623344 0.524315 0.123134
0.732121 0.528139 0.126533
0.872511 0.533592 0.130206
0.923461 0.535630 0.131458
0.102918 0.625255 0.118079
0.201118 0.628707 0.121148
0.306460 0.632410 0.124440
0.416530 0.636326 0.127816
0.529780 0.640856 0.130598
0.642628 0.645370 0.133371
0.752337 0.649879 0.136307
0.892208 0.656000 0.140799
0.942844 0.658216 0.142426
0.119968 0.742199 0.129106
0.219187 0.746168 0.131544
0.325623 0.750426 0.134159
0.436332 0.755099 0.137370
0.548886 0.760025 0.140985
0.661039 0.764933 0.144587
0.770269 0.769713 0.148095
0.910141 0.775835 0.152587
0.960776 0.778050 0.154213
0.144467 0.894704 0.142347
0.243076 0.899019 0.145513
0.348856 0.903648 0.148911
0.459285 0.908481 0.152457
0.571838 0.913407 0.156072
0.683992 0.918315 0.159674
0.793222 0.923095 0.163182
0.933093 0.929216 0.167674
0.983729 0.931432 0.169300
0.152304 0.947075 0.147498
0.250913 0.951390 0.150665
0.356693 0.956020 0.154062
0.467122 0.960852 0.157608
0.579675 0.965778 0.161223
0.691829 0.970686 0.164825
0.801059 0.975466 0.168333
0.940930 0.981587 0.172825
0.991566 0.983803 0.174451
0.023199 0.049198 0.156977
0.121398 0.052649 0.160046
0.226740 0.056352 0.163338
0.336711 0.060218 0.166775
0.448798 0.064158 0.170278
0.560486 0.068083 0.173768
0.669263 0.071907 0.177168
0.808554 0.076803 0.181521
0.858980 0.078576 0.183097
0.038069 0.154871 0.167328
0.136268 0.158322 0.170397
0.241610 0.162025 0.173689
0.351581 0.165891 0.177125
0.463667 0.169831 0.180628
0.575356 0.173756 0.184119
0.684133 0.177580 0.187518
0.823424 0.182476 0.191871
0.873850 0.184249 0.193447
0.054006 0.268129 0.178421
0.152205 0.271580 0.181490
0.257547 0.275283 0.184782
0.367518 0.279149 0.188219
0.479605 0.283089 0.191722
0.591293 0.287015 0.195212
0.700070 0.290838 0.198612
0.839361 0.295734 0.202965
0.889787 0.297507 0.204541
0.070631 0.386274 0.189993
0.168830 0.389726 0.193062
0.274172 0.393429 0.196354
0.384143 0.397294 0.199791
0.496229 0.401234 0.203294
0.607918 0.405160 0.206784
0.716695 0.408983 0.210184
0.855986 0.413880 0.214537
0.906412 0.415652 0.216113
0.087564 0.506609 0.201780
0.185763 0.510060 0.204849
0.291105 0.513763 0.208141
0.401076 0.517629 0.211578
0.513162 0.521569 0.215081
0.624851 0.525495 0.218571
0.733629 0.529319 0.221970
0.874367 0.534949 0.225428
0.925316 0.536987 0.226679
0.104425 0.626435 0.213517
0.202625 0.629887 0.216586
0.307966 0.633590 0.219878
0.418385 0.637682 0.223037
0.531635 0.642212 0.225820
0.644484 0.646727 0.228592
0.753984 0.651354 0.231778
0.893855 0.657475 0.236270
0.944491 0.659691 0.237896
0.121823 0.743556 0.224328
0.221042 0.747525 0.226766
0.327478 0.751783 0.229381
0.437979 0.756574 0.232841
0.550532 0.761500 0.236456
0.662686 0.766408 0.240057
0.771916 0.771188 0.243565
0.911787 0.777309 0.248057
0.962423 0.779525 0.249683
0.146114 0.896179 0.237817
0.244722 0.900494 0.240984
0.350503 0.905123 0.244381
0.460932 0.909956 0.247928
0.573485 0.914882 0.251543
0.685639 0.919790 0.255144
0.794869 0.924570 0.258652
0.934740 0.930691 0.263144
0.985376 0.932907 0.264770
0.153951 0.948550 0.242969
0.252559 0.952865 0.246136
0.358340 0.957494 0.249533
0.468769 0.962327 0.253079
0.581322 0.967253 0.256694
0.693476 0.972161 0.260296
0.802706 0.976941 0.263804
0.942577 0.983062 0.268296
0.993213 0.985278 0.269922
0.024812 0.050460 0.259129
0.123011 0.053912 0.262198
0.228353 0.057615 0.265490
0.338324 0.061480 0.268927
0.450411 0.065420 0.272430
0.562099 0.069346 0.275920
0.670876 0.073170 0.279320
0.810167 0.078066 0.283673
0.860593 0.079838 0.285249
0.039682 0.156133 0.269480
0.137881 0.159585 0.272548
0.243223 0.163288 0.275841
0.353194 0.167153 0.279277
0.465280 0.171093 0.282780
0.576969 0.175019 0.286271
0.685746 0.178843 0.289670
0.825037 0.183739 0.294023
0.875463 0.185511 0.295599
0.055619 0.269391 0.280573
0.153818 0.272843 0.283642
0.259160 0.276546 0.286934
0.369131 0.280411 0.290371
0.481217 0.284351 0.293874
0.592906 0.288277 0.297364
0.701683 0.292101 0.300764
0.840974 0.296997 0.305117
0.891400 0.298769 0.306693
0.072244 0.387537 0.292145
0.170443 0.390988 0.295214
0.275785 0.394691 0.298506
0.385756 0.398557 0.301943
0.497842 0.402497 0.305446
0.609531 0.406423 0.308936
0.718308 0.410246 0.312336
0.857599 0.415142 0.316689
0.908025 0.416915 0.318265
0.089177 0.507871 0.303932
0.187376 0.511323 0.307001
0.292718 0.515026 0.310293
0.402689 0.518892 0.313730
0.514775 0.522831 0.317233
0.626464 0.526757 0.320723
0.735615 0.530771 0.323891
0.876353 0.536401 0.327349
0.927302 0.538439 0.328600
0.106038 0.627698 0.315669
0.204237 0.631149 0.318738
0.309579 0.634852 0.322030
0.420371 0.639134 0.324958
0.533621 0.643664 0.327741
0.646470 0.648179 0.330513
0.755746 0.652933 0.333966
0.895617 0.659054 0.338458
0.946253 0.661270 0.340084
0.123809 0.745008 0.326249
0.223028 0.748977 0.328687
0.329313 0.753320 0.331482
0.439742 0.758153 0.335029
0.552295 0.763079 0.338643
0.664448 0.767987 0.342245
0.773679 0.772767 0.345753
0.913550 0.778888 0.350245
0.964185 0.781104 0.351871
0.147876 0.897757 0.340005
0.246485 0.902073 0.343172
0.352265 0.906702 0.346569
0.462694 0.911535 0.350116
0.575247 0.916460 0.353730
0.687401 0.921368 0.357332
0.796631 0.926149 0.360840
0.936502 0.932270 0.365332
0.987138 0.934486 0.366958
0.155713 0.950129 0.345157
0.254322 0.954444 0.348323
0.360102 0.959073 0.351721
0.470531 0.963906 0.355267
0.583084 0.968831 0.358882
0.695238 0.973740 0.362484
0.804468 0.978520 0.365991
0.944339 0.984641 0.370483
0.994975 0.986857 0.372110
0.026493 0.051776 0.365568
0.124692 0.055228 0.368637
0.230034 0.058931 0.371929
0.340005 0.062796 0.375366
0.452091 0.066736 0.378869
0.563780 0.070662 0.382360
0.672557 0.074485 0.385759
0.811848 0.079382 0.390112
0.862273 0.081154 0.391688
0.041362 0.157449 0.375919
0.139562 0.160901 0.378988
0.244904 0.164604 0.382280
0.354874 0.168469 0.385717
0.466961 0.172409 0.389220
0.578649 0.176335 0.392710
0.687426 0.180158 0.396110
0.826718 0.185055 0.400463
0.877143 0.186827 0.402039
0.057299 0.270707 0.387012
0.155499 0.274159 0.390081
0.260841 0.277862 0.393373
0.370812 0.281727 0.396810
0.482898 0.285667 0.400313
0.594586 0.289593 0.403804
0.703364 0.293417 0.407203
0.842655 0.298313 0.411556
0.893080 0.300085 0.413132
0.073924 0.388852 0.398585
0.172124 0.392304 0.401653
0.277465 0.396007 0.404946
0.387436 0.399873 0.408382
0.499523 0.403812 0.411885
0.611211 0.407738 0.415376
0.719988 0.411562 0.418775
0.859280 0.416458 0.423128
0.909705 0.418231 0.424704
0.090857 0.509187 0.410371
0.189057 0.512639 0.413440
0.294398 0.516342 0.416732
0.404369 0.520207 0.420169
0.516456 0.524147 0.423672
0.628144 0.528073 0.427162
0.737684 0.532284 0.430090
0.878422 0.537913 0.433547
0.929371 0.539952 0.434799
0.107719 0.629013 0.422108
0.205918 0.632465 0.425177
0.311327 0.636202 0.428427
0.422440 0.640647 0.431157
0.535691 0.645177 0.433939
0.648352 0.649797 0.436935
0.757583 0.654577 0.440443
0.897454 0.660699 0.444935
0.948089 0.662915 0.446561
0.125878 0.746521 0.432448
0.225097 0.750490 0.434885
0.331149 0.754965 0.437959
0.441578 0.759798 0.441505
0.554131 0.764723 0.445120
0.666285 0.769632 0.448722
0.775515 0.774412 0.452230
0.915386 0.780533 0.456722
0.966022 0.782749 0.458348
0.149713 0.899402 0.446482
0.248321 0.903718 0.449649
0.354102 0.908347 0.453046
0.464531 0.913179 0.456592
0.577084 0.918105 0.460207
0.689237 0.923013 0.463809
0.798468 0.927793 0.467317
0.938339 0.933915 0.471809
0.988974 0.936131 0.473435
0.157550 0.951773 0.451633
0.256158 0.956089 0.454800
0.361939 0.960718 0.458197
0.472368 0.965551 0.461744
0.584921 0.970476 0.465358
0.697074 0.975384 0.468960
0.806305 0.980165 0.472468
0.946176 0.986286 0.476960
0.996811 0.988502 0.478586
0.028202 0.053115 0.473868
0.126402 0.056566 0.476937
0.231744 0.060269 0.480229
0.341715 0.064135 0.483666
0.453801 0.068075 0.487168
0.565489 0.072001 0.490659
0.674267 0.075824 0.494058
0.813558 0.080720 0.498411
0.863983 0.082493 0.499987
0.043072 0.158788 0.484218
0.141272 0.162239 0.487287
0.246613 0.165942 0.490579
0.356584 0.169808 0.494016
0.468671 0.173748 0.497519
0.580359 0.177674 0.501009
0.689136 0.181497 0.504409
0.828427 0.186393 0.508762
0.878853 0.188166 0.510338
0.059009 0.272046 0.495312
0.157209 0.275498 0.498381
0.262551 0.279200 0.501673
0.372521 0.283066 0.505110
0.484608 0.287006 0.508612
0.596296 0.290932 0.512103
0.705073 0.294755 0.515502
0.844365 0.299651 0.519855
0.894790 0.301424 0.521431
0.075634 0.390191 0.506884
0.173834 0.393643 0.509953
0.279175 0.397346 0.513245
0.389146 0.401211 0.516682
0.501233 0.405151 0.520185
0.612921 0.409077 0.523675
0.721698 0.412901 0.527075
0.860989 0.417797 0.531428
0.911415 0.419569 0.533004
0.092567 0.510526 0.518670
0.190766 0.513978 0.521739
0.296108 0.517680 0.525031
0.406079 0.521546 0.528468
0.518166 0.525486 0.531971
0.629883 0.529426 0.535444
0.739790 0.533823 0.538144
0.880527 0.539453 0.541602
0.931476 0.541491 0.542854
0.109428 0.630352 0.530407
0.207628 0.633804 0.533476
0.313433 0.637741 0.536482
0.424545 0.642186 0.539212
0.537796 0.646717 0.541994
0.650221 0.651471 0.545272
0.759451 0.656251 0.548780
0.899322 0.662372 0.553272
0.949958 0.664588 0.554898
0.127984 0.748060 0.540502
0.227203 0.752029 0.542940
0.333018 0.756639 0.546296
0.443446 0.761471 0.549843
0.556000 0.766397 0.553457
0.668153 0.771305 0.557059
0.777383 0.776085 0.560567
0.917255 0.782207 0.565059
0.967890 0.784422 0.566685
0.151581 0.901076 0.554819
0.250190 0.905391 0.557986
0.355970 0.910020 0.561383
0.466399 0.914853 0.564930
0.578952 0.919779 0.568544
0.691106 0.924687 0.572146
0.800336 0.929467 0.575654
0.940207 0.935588 0.580146
0.990843 0.937804 0.581772
0.159418 0.953447 0.559971
0.258027 0.957762 0.563137
0.363807 0.962392 0.566534
0.474236 0.967224 0.570081
0.586789 0.972150 0.573696
0.698943 0.977058 0.577297
0.808173 0.981838 0.580805
0.948044 0.987959 0.585297
0.998680 0.990175 0.586924
0.029903 0.054446 0.581600
0.128103 0.057898 0.584669
0.233445 0.061601 0.587961
0.343415 0.065466 0.591398
0.455502 0.069406 0.594900
0.567190 0.073332 0.598391
0.675967 0.077156 0.601790
0.815259 0.082052 0.606144
0.865684 0.083824 0.607719
0.044773 0.160119 0.591950
0.142972 0.163571 0.595019
0.248314 0.167274 0.598311
0.358285 0.171139 0.601748
0.470372 0.175079 0.605251
0.582060 0.179005 0.608741
0.690837 0.182829 0.612141
0.830128 0.187725 0.616494
0.880554 0.189497 0.618070
0.060710 0.273377 0.603044
0.158910 0.276829 0.606113
0.264251 0.280532 0.609405
0.374222 0.284398 0.612842
0.486309 0.288337 0.616344
0.597997 0.292263 0.619835
0.706774 0.296087 0.623234
0.846066 0.300983 0.627587
0.896491 0.302756 0.629163
0.077335 0.391523 0.614616
0.175534 0.394975 0.617685
0.280876 0.398677 0.620977
0.390847 0.402543 0.624414
0.502934 0.406483 0.627917
0.614622 0.410409 0.631407
0.723399 0.414232 0.634807
0.862690 0.419128 0.639160
0.913116 0.420901 0.640736
0.094268 0.511858 0.626402
0.192467 0.515309 0.629471
0.297809 0.519012 0.632764
0.407780 0.522878 0.636200
0.519867 0.526818 0.639703
0.631977 0.530958 0.642932
0.741884 0.535354 0.645633
0.882622 0.540984 0.649090
0.933391 0.543124 0.650557
0.111129 0.631684 0.638139
0.209329 0.635136 0.641208
0.315527 0.639273 0.643970
0.426640 0.643718 0.646700
0.539890 0.648248 0.649482
0.652080 0.653136 0.653042
0.761310 0.657916 0.656550
0.901181 0.664037 0.661042
0.951817 0.666253 0.662668
0.130078 0.749591 0.647991
0.229096 0.753674 0.650669
0.334876 0.758304 0.654066
0.445305 0.763136 0.657612
0.557858 0.768062 0.661227
0.670012 0.772970 0.664829
0.779242 0.777750 0.668337
0.919113 0.783871 0.672829
0.969749 0.786087 0.674455
0.153440 0.902741 0.662589
0.252048 0.907056 0.665756
0.357829 0.911685 0.669153
0.468258 0.916518 0.672699
0.580811 0.921444 0.676314
0.692965 0.926352 0.679916
0.802195 0.931132 0.683424
0.942066 0.937253 0.687916
0.992702 0.939469 0.689542
0.161277 0.955112 0.667740
0.259885 0.959427 0.670907
0.365666 0.964056 0.674304
0.476095 0.968889 0.677851
0.588648 0.973815 0.681465
0.700802 0.978723 0.685067
0.810032 0.983503 0.688575
0.949903 0.989624 0.693067
1.000000 0.991840 0.694693
0.031557 0.055741 0.686337
0.129756 0.059193 0.689406
0.235098 0.062896 0.692698
0.345069 0.066761 0.696135
0.457156 0.070701 0.699638
0.568844 0.074627 0.703128
0.677621 0.078450 0.706528
0.816912 0.083347 0.710881
0.867338 0.085119 0.712457
0.046427 0.161414 0.696688
0.144626 0.164866 0.699757
0.249968 0.168569 0.703049
0.359939 0.172434 0.706485
0.472025 0.176374 0.709988
0.583714 0.180300 0.713479
0.692491 0.184123 0.716878
0.831782 0.189020 0.721231
0.882208 0.190792 0.722807
0.062364 0.274672 0.707781
0.160563 0.278124 0.710850
0.265905 0.281827 0.714142
0.375876 0.285692 0.717579
0.487962 0.289632 0.721082
0.599651 0.293558 0.724572
0.708428 0.297382 0.727972
0.847719 0.302278 0.732325
0.898145 0.304050 0.733901
0.078989 0.392817 0.719353
0.177188 0.396269 0.722422
0.282530 0.399972 0.725714
0.392501 0.403838 0.729151
0.504587 0.407777 0.732654
0.616276 0.411703 0.736144
0.725053 0.415527 0.739544
0.864344 0.420423 0.743897
0.914770 0.422196 0.745473
0.095922 0.513152 0.731140
0.194121 0.516604 0.734209
0.299463 0.520307 0.737501
0.409434 0.524172 0.740938
0.521520 0.528112 0.744441
0.634013 0.532446 0.747433
0.743920 0.536843 0.750133
0.884563 0.542527 0.753704
0.935198 0.544743 0.755331
0.112783 0.632978 0.742877
0.211127 0.636504 0.745856
0.317563 0.640761 0.748471
0.428676 0.645206 0.751201
0.541733 0.649846 0.754214
0.653887 0.654754 0.757816
0.763117 0.659535 0.761324
0.902988 0.665656 0.765816
0.953624 0.667872 0.767442
0.132114 0.751080 0.752491
0.230903 0.755293 0.755443
0.336683 0.759922 0.758840
0.447112 0.764755 0.762386
0.559665 0.769680 0.766001
0.671819 0.774589 0.769603
0.781049 0.779369 0.773111
0.920920 0.785490 0.777603
0.971556 0.787706 0.779229
0.155247 0.904359 0.767363
0.253855 0.908675 0.770530
0.359636 0.913304 0.773927
0.470065 0.918137 0.777473
0.582618 0.923062 0.781088
0.694772 0.927970 0.784690
0.804002 0.932751 0.788198
0.943873 0.938872 0.792690
0.994509 0.941088 0.794316
0.163084 0.956730 0.772514
0.261692 0.961046 0.775681
0.367473 0.965675 0.779078
0.477902 0.970508 0.782625
0.590455 0.975433 0.786240
0.702609 0.980341 0.789841
0.811839 0.985122 0.793349
0.951710 0.991243 0.797841
1.000000 0.993459 0.799467
0.033670 0.057395 0.820145
0.131869 0.060847 0.823214
0.237211 0.064550 0.826506
0.347182 0.068415 0.829943
0.459268 0.072355 0.833446
0.570957 0.076281 0.836936
0.679734 0.080104 0.840336
0.819025 0.085001 0.844689
0.869451 0.086773 0.846265
0.048539 0.163068 0.830495
0.146739 0.166520 0.833564
0.252081 0.170223 0.836856
0.362052 0.174088 0.840293
0.474138 0.178028 0.843796
0.585826 0.181954 0.847287
0.694604 0.185777 0.850686
0.833895 0.190674 0.855039
0.884320 0.192446 0.856615
0.064477 0.276326 0.841589
0.162676 0.279778 0.844658
0.268018 0.283481 0.847950
0.377989 0.287346 0.851387
0.490075 0.291286 0.854890
0.601764 0.295212 0.858380
0.710541 0.299036 0.861780
0.849832 0.303932 0.866133
0.900257 0.305704 0.867709
0.081101 0.394471 0.853161
0.179301 0.397923 0.856230
0.284643 0.401626 0.859522
0.394613 0.405492 0.862959
0.506700 0.409431 0.866462
0.618388 0.413357 0.869952
0.727166 0.417181 0.873352
0.866457 0.422077 0.877705
0.917359 0.424091 0.878986
0.098034 0.514806 0.864948
0.196234 0.518258 0.868017
0.301576 0.521961 0.871309
0.411546 0.525826 0.874745
0.523766 0.529834 0.878166
0.636615 0.534348 0.880938
0.746521 0.538745 0.883639
0.886871 0.544595 0.887559
0.937507 0.546810 0.889185
0.114896 0.634632 0.876684
0.213729 0.638406 0.879361
0.320164 0.642663 0.881976
0.431277 0.647108 0.884706
0.544042 0.651914 0.888069
0.656195 0.656822 0.891671
0.765425 0.661602 0.895178
0.905297 0.667724 0.899670
0.955932 0.669939 0.901297
0.134603 0.753045 0.886131
0.233211 0.757361 0.889298
0.338992 0.761990 0.892695
0.449421 0.766823 0.896241
0.561974 0.771748 0.899856
0.674128 0.776656 0.903458
0.783358 0.781437 0.906966
0.923229 0.787558 0.911458
0.973865 0.789774 0.913084
0.157556 0.906427 0.901218
0.256164 0.910742 0.904385
0.361944 0.915372 0.907782
0.472373 0.920204 0.911328
0.584927 0.925130 0.914943
0.697080 0.930038 0.918545
0.806310 0.934818 0.922053
0.946182 0.940939 0.926545
0.996817 0.943155 0.928171
0.165393 0.958798 0.906369
0.264001 0.963114 0.909536
0.369781 0.967743 0.912933
0.480210 0.972576 0.916480
0.592764 0.977501 0.920094
0.704917 0.982409 0.923696
0.814147 0.987190 0.927204
0.954019 0.993311 0.931696
1.000000 0.995527 0.933322
0.034327 0.057909 0.861761
0.132526 0.061361 0.864830
0.237868 0.065064 0.868122
0.347839 0.068930 0.871559
0.459925 0.072869 0.875062
0.571614 0.076795 0.878552
0.680391 0.080619 0.881952
0.819682 0.085515 0.886305
0.870108 0.087288 0.887881
0.049197 0.163582 0.872112
0.147396 0.167034 0.875181
0.252738 0.170737 0.878473
0.362709 0.174603 0.881909
0.474795 0.178542 0.885412
0.586484 0.182468 0.888903
0.695261 0.186292 0.892302
0.834552 0.191188 0.896655
0.884977 0.192961 0.898231
0.065134 0.276841 0.883205
0.163333 0.280292 0.886274
0.268675 0.283995 0.889566
0.378646 0.287861 0.893003
0.490732 0.291801 0.896506
0.602421 0.295726 0.899996
0.711198 0.299550 0.903396
0.850489 0.304446 0.907749
0.900915 0.306219 0.909325
0.081758 0.394986 0.894777
0.179958 0.398438 0.897846
0.285300 0.402140 0.901138
0.395271 0.406006 0.904575
0.507357 0.409946 0.908078
0.619046 0.413872 0.911568
0.727823 0.417695 0.914968
0.867219 0.422645 0.919256
0.918168 0.424683 0.920508
0.098691 0.515321 0.906564
0.196891 0.518772 0.909633
0.302233 0.522475 0.912925
0.412203 0.526341 0.916362
0.524575 0.530425 0.919688
0.637424 0.534940 0.922460
0.747330 0.539336 0.925161
0.887589 0.545238 0.929190
0.938225 0.547454 0.930816
0.115553 0.635147 0.918301
0.214538 0.638997 0.920883
0.320973 0.643255 0.923498
0.432086 0.647700 0.926228
0.544760 0.652557 0.929699
0.656913 0.657465 0.933301
0.766143 0.662246 0.936809
0.906015 0.668367 0.941301
0.956650 0.670583 0.942927
0.135321 0.753689 0.927762
0.233929 0.758004 0.930928
0.339710 0.762633 0.934326
0.450139 0.767466 0.937872
0.562692 0.772391 0.941487
0.674846 0.777300 0.945089
0.784076 0.782080 0.948596
0.923947 0.788201 0.953088
0.974583 0.790417 0.954715
0.158274 0.907070 0.942849
0.256882 0.911386 0.946015
0.362663 0.916015 0.949413
0.473091 0.920848 0.952959
0.585645 0.925773 0.956574
0.697798 0.930681 0.960176
0.807028 0.935461 0.963683
0.946900 0.941583 0.968175
0.997535 0.943799 0.969802
0.166111 0.959441 0.948000
0.264719 0.963757 0.951167
0.370500 0.968386 0.954564
0.480928 0.973219 0.958110
0.593482 0.978144 0.961725
0.705635 0.983052 0.965327
0.814865 0.987833 0.968835
0.954737 0.993954 0.973327
1.000000 0.996170 0.974953
