Pastel_Cinematic_Clean.cube
LUT_3D_SIZE 5
0.021692 0.048018 0.061540
0.225234 0.055172 0.067901
0.447291 0.062978 0.074841
0.667756 0.070727 0.081730
0.857473 0.077396 0.087659
0.052499 0.266949 0.082984
0.256040 0.274104 0.089345
0.478098 0.281909 0.096285
0.698563 0.289658 0.103174
0.888280 0.296327 0.109103
0.086057 0.505429 0.106343
0.289598 0.512584 0.112704
0.511656 0.520389 0.119643
0.732121 0.528139 0.126533
0.923461 0.535630 0.131458
0.119968 0.742199 0.129106
0.325623 0.750426 0.134159
0.548886 0.760025 0.140985
0.770269 0.769713 0.148095
0.960776 0.778050 0.154213
0.152304 0.947075 0.147498
0.356693 0.956020 0.154062
0.579675 0.965778 0.161223
0.801059 0.975466 0.168333
0.991566 0.983803 0.174451
0.024812 0.050460 0.259129
0.228353 0.057615 0.265490
0.450411 0.065420 0.272430
0.670876 0.073170 0.279320
0.860593 0.079838 0.285249
0.055619 0.269391 0.280573
0.259160 0.276546 0.286934
0.481217 0.284351 0.293874
0.701683 0.292101 0.300764
0.891400 0.298769 0.306693
0.089177 0.507871 0.303932
0.292718 0.515026 0.310293
0.514775 0.522831 0.317233
0.735615 0.530771 0.323891
0.927302 0.538439 0.328600
0.123809 0.745008 0.326249
0.329313 0.753320 0.331482
0.552295 0.763079 0.338643
0.773679 0.772767 0.345753
0.964185 0.781104 0.351871
0.155713 0.950129 0.345157
0.360102 0.959073 0.351721
0.583084 0.968831 0.358882
0.804468 0.978520 0.365991
0.994975 0.986857 0.372110
0.028202 0.053115 0.473868
0.231744 0.060269 0.480229
0.453801 0.068075 0.487168
0.674267 0.075824 0.494058
0.863983 0.082493 0.499987
0.059009 0.272046 0.495312
0.262551 0.279200 0.501673
0.484608 0.287006 0.508612
0.705073 0.294755 0.515502
0.894790 0.301424 0.521431
0.092567 0.510526 0.518670
0.296108 0.517680 0.525031
0.518166 0.525486 0.531971
0.739790 0.533823 0.538144
0.931476 0.541491 0.542854
0.127984 0.748060 0.540502
0.333018 0.756639 0.546296
0.556000 0.766397 0.553457
0.777383 0.776085 0.560567
0.967890 0.784422 0.566685
0.159418 0.953447 0.559971
0.363807 0.962392 0.566534
0.586789 0.972150 0.573696
0.808173 0.981838 0.580805
0.998680 0.990175 0.586924
0.031557 0.055741 0.686337
0.235098 0.062896 0.692698
0.457156 0.070701 0.699638
0.677621 0.078450 0.706528
0.867338 0.085119 0.712457
0.062364 0.274672 0.707781
0.265905 0.281827 0.714142
0.487962 0.289632 0.721082
0.708428 0.297382 0.727972
0.898145 0.304050 0.733901
0.095922 0.513152 0.731140
0.299463 0.520307 0.737501
0.521520 0.528112 0.744441
0.743920 0.536843 0.750133
0.935198 0.544743 0.755331
0.132114 0.751080 0.752491
0.336683 0.759922 0.758840
0.559665 0.769680 0.766001
0.781049 0.779369 0.773111
0.971556 0.787706 0.779229
0.163084 0.956730 0.772514
0.367473 0.965675 0.779078
0.590455 0.975433 0.786240
0.811839 0.985122 0.793349
1.000000 0.993459 0.799467
0.034327 0.057909 0.861761
0.237868 0.065064 0.868122
0.459925 0.072869 0.875062
0.680391 0.080619 0.881952
0.870108 0.087288 0.887881
0.065134 0.276841 0.883205
0.268675 0.283995 0.889566
0.490732 0.291801 0.896506
0.711198 0.299550 0.903396
0.900915 0.306219 0.909325
0.098691 0.515321 0.906564
0.302233 0.522475 0.912925
0.524575 0.530425 0.919688
0.747330 0.539336 0.925161
0.938225 0.547454 0.930816
0.135321 0.753689 0.927762
0.339710 0.762633 0.934326
0.562692 0.772391 0.941487
0.784076 0.782080 0.948596
0.974583 0.790417 0.954715
0.166111 0.959441 0.948000
0.370500 0.968386 0.954564
0.593482 0.978144 0.961725
0.814865 0.987833 0.968835
1.000000 0.996170 0.974953
